;FLAVOR:Marlin
;TIME:2927
;Filament used: 5.3239m
;Layer height: 0.32
;MINX:43.782
;MINY:72.907
;MINZ:0.32
;MAXX:167.793
;MAXY:149.324
;MAXZ:24.96
;Generated with Cura_SteamEngine 4.12.1
M140 S60
M105
M190 S60
M104 S200
M105
M109 S200
M82 ;absolute extrusion mode
; Ender 3 Custom Start G-code
G92 E0 ; Reset Extruder
G28 ; Home all axes
G29 ; bed level adjust
G1 Z2.0 F3000 ; Move Z Axis up little to prevent scratching of Heat Bed
G1 X0.1 Y20 Z0.3 F5000.0 ; Move to start position
G1 X0.1 Y200.0 Z0.3 F1500.0 E15 ; Draw the first line
G1 X0.4 Y200.0 Z0.3 F5000.0 ; Move to side a little
G1 X0.4 Y20 Z0.3 F1500.0 E30 ; Draw the second line
G92 E0 ; Reset Extruder
G1 Z2.0 F3000 ; Move Z Axis up little to prevent scratching of Heat Bed
G1 X5 Y20 Z0.3 F5000.0 ; Move over to prevent blob squish
G92 E0
G92 E0
G1 F1500 E-6.5
;LAYER_COUNT:78
;LAYER:0
M107
G0 F6000 X50.485 Y76.812 Z0.32
;TYPE:SKIRT
G1 F1500 E0
G1 F1200 X50.709 Y76.665 E0.03565
G1 X51.566 Y76.151 E0.1686
G1 X52.052 Y75.899 E0.24143
G1 X52.172 Y75.84 E0.25922
G1 X52.669 Y75.609 E0.33213
G1 X52.888 Y75.513 E0.36395
G1 X53.819 Y75.148 E0.49698
G1 X54.305 Y74.991 E0.56493
G1 X54.428 Y74.954 E0.58202
G1 X55.01 Y74.794 E0.66232
G1 X55.227 Y74.74 E0.69207
G1 X56.207 Y74.537 E0.82522
G1 X57.031 Y74.429 E0.93578
G1 X57.379 Y74.395 E0.9823
G1 X58.412 Y74.337 E1.11995
G1 X59.416 Y74.324 E1.25353
G1 X98.795 Y74.325 E6.49254
G1 X99.466 Y74.334 E6.58182
G1 X100.201 Y74.366 E6.67969
G1 X101.741 Y74.478 E6.88512
G1 X102.378 Y74.532 E6.97017
G1 X104.802 Y74.671 E7.29319
G1 X107.31 Y74.744 E7.62699
G1 X109.785 Y74.746 E7.95627
G1 X112.258 Y74.678 E8.2854
G1 X114.69 Y74.542 E8.60946
G1 X117.207 Y74.329 E8.94552
G1 X119.644 Y74.054 E9.2718
G1 X122.076 Y73.709 E9.59859
G1 X124.591 Y73.28 E9.93802
G1 X125.066 Y73.188 E10.00239
G1 X125.372 Y73.133 E10.04376
G1 X125.634 Y73.089 E10.0791
G1 X126.626 Y72.963 E10.21214
G1 X127.351 Y72.921 E10.30875
G1 X127.67 Y72.912 E10.35121
G1 X128.023 Y72.907 E10.39818
G1 X131.786 Y72.907 E10.89881
G1 X132.685 Y72.92 E11.01843
G1 X133.684 Y72.975 E11.15153
G1 X134.674 Y73.11 E11.28446
G1 X135.464 Y73.277 E11.39189
G1 X136.245 Y73.468 E11.49886
G1 X138.783 Y74.053 E11.84537
G1 X141.211 Y74.542 E12.17487
G1 X143.644 Y74.958 E12.50326
G1 X146.065 Y75.304 E12.82862
G1 X148.535 Y75.585 E13.15935
G1 X151.031 Y75.799 E13.49264
G1 X153.438 Y75.934 E13.81337
G1 X153.839 Y75.963 E13.86686
G1 X154.178 Y75.993 E13.91214
G1 X155.169 Y76.121 E14.04508
G1 X155.661 Y76.214 E14.11169
G1 X156.03 Y76.292 E14.16187
G1 X156.999 Y76.538 E14.29487
G1 X157.804 Y76.806 E14.40775
G1 X158.183 Y76.947 E14.46155
G1 X159.105 Y77.333 E14.59453
G1 X159.819 Y77.694 E14.70097
G1 X160.152 Y77.876 E14.75146
G1 X161.009 Y78.391 E14.88448
G1 X161.774 Y78.933 E15.00921
G1 X162.167 Y79.235 E15.07515
G1 X162.934 Y79.876 E15.20813
G1 X163.598 Y80.523 E15.33147
G1 X163.659 Y80.587 E15.34324
G1 X164.009 Y80.969 E15.41216
G1 X164.18 Y81.164 E15.44667
G1 X164.942 Y82.124 E15.60973
G1 X165.023 Y82.237 E15.62823
G1 X165.419 Y82.824 E15.72243
G1 X165.556 Y83.04 E15.75646
G1 X166.18 Y84.145 E15.92529
G1 X166.217 Y84.219 E15.9363
G1 X166.549 Y84.937 E16.04154
G1 X166.673 Y85.23 E16.08387
G1 X167.171 Y86.637 E16.28244
G1 X167.316 Y87.178 E16.35695
G1 X167.392 Y87.488 E16.39942
G1 X167.592 Y88.467 E16.53235
G1 X167.682 Y89.144 E16.62321
G1 X167.694 Y89.257 E16.63833
G1 X167.733 Y89.699 E16.69736
G1 X167.753 Y89.983 E16.73524
G1 X167.783 Y90.685 E16.82872
G1 X167.793 Y91.501 E16.93729
G1 X167.792 Y132.415 E22.38051
G1 X167.781 Y133.174 E22.4815
G1 X167.738 Y134.043 E22.59725
G1 X167.709 Y134.387 E22.64318
G1 X167.585 Y135.379 E22.77618
G1 X167.488 Y135.898 E22.84643
G1 X167.461 Y136.027 E22.86396
G1 X167.282 Y136.767 E22.96525
G1 X167.21 Y137.03 E23.00153
G1 X166.802 Y138.265 E23.17457
G1 X166.765 Y138.36 E23.18813
G1 X166.489 Y139.014 E23.28257
G1 X166.374 Y139.266 E23.31942
G1 X165.71 Y140.525 E23.50879
G1 X165.657 Y140.613 E23.52246
G1 X165.321 Y141.14 E23.60561
G1 X165.169 Y141.366 E23.64184
G1 X164.351 Y142.451 E23.82262
G1 X164.27 Y142.547 E23.83933
G1 X163.856 Y143.013 E23.92226
G1 X163.661 Y143.222 E23.96029
G1 X162.95 Y143.926 E24.0934
G1 X162.405 Y144.395 E24.18906
G1 X162.186 Y144.573 E24.22661
G1 X161.386 Y145.172 E24.35957
G1 X160.749 Y145.582 E24.46035
G1 X160.347 Y145.824 E24.52278
G1 X159.47 Y146.305 E24.65585
G1 X158.664 Y146.671 E24.77362
G1 X158.305 Y146.819 E24.82528
G1 X157.366 Y147.163 E24.95832
G1 X156.501 Y147.407 E25.07789
G1 X156.14 Y147.495 E25.12733
G1 X155.16 Y147.693 E25.26034
G1 X154.293 Y147.801 E25.37658
G1 X153.924 Y147.834 E25.42587
G1 X153.063 Y147.881 E25.54059
G1 X151.921 Y147.904 E25.69255
G1 X151.669 Y147.907 E25.72608
G1 X116.342 Y147.907 E30.426
G1 X113.761 Y147.944 E30.76941
G1 X111.291 Y148.048 E31.09831
G1 X108.808 Y148.224 E31.42948
G1 X106.359 Y148.467 E31.7569
G1 X103.874 Y148.785 E32.0902
G1 X102.175 Y149.044 E32.31885
G1 X101.733 Y149.115 E32.37841
G1 X100.956 Y149.216 E32.48265
G1 X100.589 Y149.252 E32.53171
G1 X99.552 Y149.311 E32.66989
G1 X98.548 Y149.324 E32.80348
G1 X59.169 Y149.323 E38.04248
G1 X58.498 Y149.314 E38.13176
G1 X57.763 Y149.282 E38.22964
G1 X57.473 Y149.261 E38.26832
G1 X56.985 Y149.217 E38.33351
G1 X55.995 Y149.073 E38.4666
G1 X55.238 Y148.908 E38.56968
G1 X54.967 Y148.84 E38.60685
G1 X53.819 Y148.493 E38.76641
G1 X53.611 Y148.419 E38.79578
G1 X52.46 Y147.944 E38.96144
G1 X52.223 Y147.832 E38.99631
G1 X50.949 Y147.136 E39.18945
G1 X50.856 Y147.078 E39.20403
G1 X50.309 Y146.717 E39.29122
G1 X50.103 Y146.573 E39.32466
G1 X49.23 Y145.904 E39.47099
G1 X49.143 Y145.831 E39.4861
G1 X48.423 Y145.176 E39.61559
G1 X48.208 Y144.965 E39.65567
G1 X47.523 Y144.237 E39.78866
G1 X47.089 Y143.709 E39.87959
G1 X46.919 Y143.49 E39.91647
G1 X46.338 Y142.676 E40.04952
G1 X45.988 Y142.11 E40.13806
G1 X45.753 Y141.706 E40.20024
G1 X45.285 Y140.822 E40.33331
G1 X44.923 Y139.991 E40.4539
G1 X44.782 Y139.632 E40.50521
G1 X44.454 Y138.687 E40.63829
G1 X44.249 Y137.925 E40.74328
G1 X44.173 Y137.602 E40.78742
G1 X44.071 Y137.125 E40.85232
G1 X43.874 Y135.743 E41.03804
G1 X43.851 Y135.475 E41.07382
G1 X43.807 Y134.649 E41.18387
G1 X43.784 Y133.464 E41.34155
G1 X43.782 Y133.221 E41.37388
G1 X43.783 Y89.903 E47.13693
G1 X43.793 Y89.222 E47.22754
G1 X43.805 Y88.834 E47.27919
G1 X43.811 Y88.703 E47.29663
G1 X43.844 Y88.205 E47.36303
G1 X43.866 Y87.949 E47.39722
G1 X44.069 Y86.535 E47.58727
G1 X44.128 Y86.244 E47.62677
G1 X44.247 Y85.717 E47.69865
G1 X44.63 Y84.433 E47.87691
G1 X44.737 Y84.134 E47.91916
G1 X44.921 Y83.651 E47.98792
G1 X45.496 Y82.407 E48.17025
G1 X45.651 Y82.115 E48.21423
G1 X46.155 Y81.252 E48.34719
G1 X46.668 Y80.508 E48.46742
G1 X46.969 Y80.104 E48.53445
G1 X47.598 Y79.327 E48.66744
G1 X48.215 Y78.672 E48.78716
G1 X48.288 Y78.6 E48.8008
G1 X48.646 Y78.262 E48.8663
G1 X48.838 Y78.087 E48.90087
G1 X49.892 Y77.226 E49.08193
G1 X49.977 Y77.164 E49.09593
G1 X50.485 Y76.812 E49.17815
G0 F6000 X51.033 Y77.648
G1 F1200 X51.257 Y77.501 E49.2138
G1 X52.493 Y76.796 E49.4031
G1 X52.613 Y76.737 E49.42089
G1 X53.07 Y76.525 E49.48792
G1 X53.289 Y76.429 E49.51973
G1 X54.593 Y75.948 E49.70464
G1 X54.716 Y75.911 E49.72173
G1 X55.252 Y75.764 E49.79567
G1 X55.469 Y75.71 E49.82542
G1 X56.408 Y75.518 E49.95293
G1 X57.128 Y75.424 E50.04953
G1 X57.476 Y75.39 E50.09605
G1 X58.426 Y75.337 E50.22264
G1 X59.416 Y75.324 E50.35436
G1 X98.781 Y75.325 E55.5915
G1 X99.452 Y75.334 E55.68078
G1 X100.129 Y75.363 E55.77093
G1 X101.656 Y75.475 E55.97463
G1 X102.271 Y75.527 E56.05674
G1 X104.787 Y75.672 E56.39202
G1 X107.28 Y75.744 E56.72383
G1 X109.776 Y75.746 E57.0559
G1 X112.306 Y75.676 E57.39262
G1 X114.794 Y75.537 E57.72414
G1 X117.261 Y75.329 E58.05352
G1 X119.794 Y75.043 E58.39265
G1 X122.244 Y74.696 E58.72185
G1 X124.763 Y74.265 E59.06185
G1 X125.256 Y74.17 E59.12865
G1 X125.537 Y74.119 E59.16664
G1 X125.799 Y74.075 E59.20199
G1 X126.751 Y73.956 E59.32963
G1 X127.38 Y73.921 E59.41344
G1 X127.699 Y73.912 E59.4559
G1 X128.023 Y73.907 E59.49901
G1 X131.966 Y73.908 E60.02359
G1 X132.67 Y73.919 E60.11726
G1 X133.627 Y73.974 E60.24479
G1 X134.577 Y74.109 E60.37245
G1 X135.226 Y74.248 E60.46075
G1 X136.076 Y74.456 E60.57717
G1 X138.536 Y75.023 E60.91303
G1 X141.054 Y75.53 E61.25475
G1 X143.48 Y75.945 E61.58219
G1 X145.947 Y76.297 E61.91373
G1 X148.444 Y76.582 E62.24809
G1 X150.925 Y76.794 E62.57937
G1 X153.382 Y76.932 E62.90676
G1 X153.751 Y76.959 E62.95598
G1 X154.09 Y76.989 E63.00126
G1 X155.454 Y77.193 E63.18475
G1 X155.823 Y77.271 E63.23492
G1 X156.752 Y77.508 E63.36248
G1 X157.455 Y77.744 E63.46113
G1 X157.834 Y77.885 E63.51493
G1 X158.718 Y78.256 E63.64248
G1 X159.339 Y78.572 E63.73518
G1 X159.672 Y78.754 E63.78567
G1 X160.494 Y79.248 E63.91325
G1 X161.164 Y79.726 E64.02275
G1 X161.557 Y80.028 E64.08869
G1 X162.293 Y80.644 E64.21638
G1 X162.874 Y81.213 E64.32457
G1 X162.935 Y81.277 E64.33633
G1 X163.257 Y81.629 E64.3998
G1 X163.428 Y81.824 E64.4343
G1 X164.129 Y82.706 E64.58419
G1 X164.21 Y82.819 E64.60269
G1 X164.574 Y83.359 E64.68933
G1 X164.711 Y83.575 E64.72336
G1 X165.286 Y84.592 E64.87879
G1 X165.323 Y84.666 E64.8898
G1 X165.628 Y85.327 E64.98665
G1 X165.752 Y85.62 E65.02898
G1 X166.21 Y86.915 E65.21172
G1 X166.345 Y87.416 E65.28075
G1 X166.421 Y87.726 E65.32322
G1 X166.611 Y88.666 E65.4508
G1 X166.688 Y89.25 E65.52917
G1 X166.7 Y89.363 E65.54429
G1 X166.736 Y89.769 E65.59852
G1 X166.756 Y90.053 E65.63639
G1 X166.783 Y90.699 E65.72241
G1 X166.793 Y91.501 E65.82912
G1 X166.792 Y132.401 E71.27048
G1 X166.781 Y133.16 E71.37146
G1 X166.741 Y133.959 E71.4779
G1 X166.712 Y134.303 E71.52383
G1 X166.509 Y135.693 E71.71071
G1 X166.482 Y135.822 E71.72825
G1 X166.318 Y136.503 E71.82144
G1 X166.246 Y136.766 E71.85772
G1 X165.87 Y137.903 E72.01704
G1 X165.833 Y137.998 E72.0306
G1 X165.579 Y138.598 E72.11729
G1 X165.464 Y138.85 E72.15414
G1 X164.853 Y140.009 E72.32845
G1 X164.8 Y140.097 E72.34211
G1 X164.492 Y140.582 E72.41855
G1 X164.34 Y140.808 E72.45478
G1 X163.586 Y141.806 E72.62119
G1 X163.505 Y141.902 E72.6379
G1 X163.124 Y142.331 E72.71424
G1 X162.929 Y142.54 E72.75227
G1 X162.247 Y143.214 E72.87983
G1 X161.774 Y143.619 E72.96268
G1 X161.555 Y143.797 E73.00022
G1 X160.787 Y144.37 E73.1277
G1 X160.233 Y144.726 E73.21531
G1 X159.831 Y144.968 E73.27774
G1 X158.99 Y145.427 E73.4052
G1 X158.283 Y145.747 E73.50845
G1 X157.924 Y145.895 E73.56011
G1 X157.023 Y146.223 E73.68768
G1 X156.265 Y146.436 E73.79243
G1 X155.904 Y146.524 E73.84186
G1 X154.963 Y146.712 E73.96953
G1 X154.204 Y146.805 E74.07126
G1 X153.835 Y146.838 E74.12055
G1 X153.043 Y146.882 E74.22608
G1 X151.901 Y146.905 E74.37804
G1 X151.669 Y146.907 E74.40891
G1 X116.328 Y146.907 E79.11069
G1 X113.741 Y146.944 E79.4549
G1 X111.212 Y147.051 E79.79166
G1 X108.748 Y147.226 E80.1203
G1 X106.237 Y147.475 E80.45601
G1 X103.72 Y147.797 E80.7936
G1 X102.079 Y148.046 E81.01442
G1 X101.573 Y148.128 E81.08261
G1 X100.859 Y148.221 E81.17841
G1 X100.492 Y148.257 E81.22747
G1 X99.537 Y148.311 E81.35472
G1 X98.548 Y148.324 E81.48631
G1 X59.183 Y148.323 E86.72345
G1 X58.512 Y148.314 E86.81273
G1 X57.835 Y148.285 E86.90288
G1 X57.545 Y148.264 E86.94156
G1 X57.089 Y148.222 E87.00249
G1 X56.14 Y148.083 E87.13009
G1 X55.481 Y147.938 E87.21986
G1 X55.21 Y147.87 E87.25703
G1 X54.154 Y147.551 E87.40379
G1 X53.946 Y147.477 E87.43317
G1 X52.887 Y147.039 E87.58563
G1 X52.65 Y146.927 E87.6205
G1 X51.478 Y146.288 E87.7981
G1 X51.385 Y146.23 E87.81268
G1 X50.882 Y145.897 E87.89293
G1 X50.676 Y145.753 E87.92637
G1 X49.873 Y145.138 E88.06094
G1 X49.786 Y145.065 E88.07605
G1 X49.123 Y144.463 E88.19519
G1 X48.908 Y144.252 E88.23527
G1 X48.252 Y143.552 E88.3629
G1 X47.879 Y143.096 E88.44127
G1 X47.709 Y142.877 E88.47816
G1 X47.153 Y142.095 E88.60581
G1 X46.852 Y141.607 E88.68209
G1 X46.617 Y141.203 E88.74427
G1 X46.17 Y140.355 E88.8718
G1 X45.854 Y139.625 E88.97763
G1 X45.713 Y139.266 E89.02895
G1 X45.4 Y138.36 E89.15647
G1 X45.223 Y137.696 E89.2479
G1 X45.147 Y137.373 E89.29204
G1 X45.051 Y136.929 E89.35248
G1 X44.87 Y135.657 E89.52341
G1 X44.847 Y135.389 E89.55919
G1 X44.807 Y134.629 E89.66044
G1 X44.784 Y133.444 E89.81813
G1 X44.782 Y133.221 E89.8478
G1 X44.783 Y89.918 E95.60885
G1 X44.793 Y89.237 E95.69946
G1 X44.804 Y88.88 E95.74698
G1 X44.81 Y88.749 E95.76443
G1 X44.84 Y88.29 E95.82562
G1 X44.862 Y88.034 E95.85981
G1 X45.049 Y86.734 E96.03454
G1 X45.108 Y86.443 E96.07404
G1 X45.219 Y85.951 E96.14114
G1 X45.571 Y84.77 E96.30509
G1 X45.678 Y84.471 E96.34734
G1 X45.85 Y84.021 E96.41144
G1 X46.379 Y82.876 E96.57924
G1 X46.534 Y82.584 E96.62322
G1 X47.019 Y81.757 E96.75077
G1 X47.47 Y81.105 E96.85624
G1 X47.771 Y80.701 E96.92327
G1 X48.376 Y79.957 E97.05085
G1 X48.918 Y79.384 E97.15578
G1 X48.991 Y79.312 E97.16942
G1 X49.319 Y79.001 E97.22955
G1 X49.511 Y78.826 E97.26412
G1 X50.481 Y78.034 E97.43072
G1 X50.566 Y77.972 E97.44472
G1 X51.033 Y77.648 E97.52033
G0 F6000 X51.582 Y78.484
G1 F1200 X51.806 Y78.337 E97.55598
G1 X52.934 Y77.693 E97.72879
G1 X53.054 Y77.634 E97.74658
G1 X53.471 Y77.44 E97.80776
G1 X53.69 Y77.344 E97.83958
G1 X54.881 Y76.906 E98.0084
G1 X55.004 Y76.869 E98.02549
G1 X55.493 Y76.735 E98.09295
G1 X55.71 Y76.681 E98.1227
G1 X56.608 Y76.498 E98.24462
G1 X57.225 Y76.42 E98.32736
G1 X57.573 Y76.386 E98.37388
G1 X58.441 Y76.337 E98.48954
G1 X59.416 Y76.324 E98.61927
G1 X98.768 Y76.325 E103.85468
G1 X99.439 Y76.334 E103.94396
G1 X100.056 Y76.36 E104.02612
G1 X101.571 Y76.471 E104.22821
G1 X102.201 Y76.525 E104.31234
G1 X104.736 Y76.67 E104.65015
G1 X107.286 Y76.744 E104.98954
G1 X109.803 Y76.746 E105.3244
G1 X112.318 Y76.676 E105.65913
G1 X114.865 Y76.534 E105.99851
G1 X117.386 Y76.321 E106.3351
G1 X119.905 Y76.037 E106.67235
G1 X122.411 Y75.682 E107.00908
G1 X124.943 Y75.249 E107.35083
G1 X125.446 Y75.152 E107.41898
G1 X125.703 Y75.105 E107.45374
G1 X125.965 Y75.061 E107.48909
G1 X126.874 Y74.949 E107.61094
G1 X127.408 Y74.92 E107.68208
G1 X127.727 Y74.911 E107.72454
G1 X128.023 Y74.907 E107.76392
G1 X131.786 Y74.907 E108.26456
G1 X132.654 Y74.919 E108.38005
G1 X133.569 Y74.974 E108.502
G1 X134.475 Y75.107 E108.62382
G1 X134.988 Y75.219 E108.69368
G1 X135.839 Y75.427 E108.81023
G1 X138.358 Y76.008 E109.15416
G1 X140.83 Y76.506 E109.48964
G1 X143.347 Y76.936 E109.82936
G1 X145.799 Y77.286 E110.15888
G1 X148.352 Y77.577 E110.50073
G1 X150.886 Y77.794 E110.83909
G1 X153.326 Y77.931 E111.16422
G1 X153.663 Y77.955 E111.20917
G1 X154.002 Y77.985 E111.25445
G1 X155.248 Y78.171 E111.42205
G1 X155.617 Y78.249 E111.47223
G1 X156.504 Y78.477 E111.59407
G1 X157.106 Y78.681 E111.67863
G1 X157.485 Y78.822 E111.73243
G1 X158.329 Y79.179 E111.85435
G1 X158.86 Y79.449 E111.9336
G1 X159.193 Y79.631 E111.98409
G1 X159.977 Y80.105 E112.10598
G1 X160.555 Y80.519 E112.20056
G1 X160.948 Y80.821 E112.2665
G1 X161.649 Y81.411 E112.3884
G1 X162.151 Y81.903 E112.48192
G1 X162.212 Y81.967 E112.49368
G1 X162.506 Y82.288 E112.55159
G1 X162.677 Y82.483 E112.58609
G1 X163.316 Y83.289 E112.72294
G1 X163.397 Y83.402 E112.74143
G1 X163.73 Y83.895 E112.82058
G1 X163.867 Y84.111 E112.85461
G1 X164.391 Y85.039 E112.9964
G1 X164.428 Y85.113 E113.0074
G1 X164.707 Y85.717 E113.09592
G1 X164.831 Y86.01 E113.13825
G1 X165.25 Y87.192 E113.30509
G1 X165.374 Y87.654 E113.36873
G1 X165.45 Y87.964 E113.41119
G1 X165.629 Y88.862 E113.53301
G1 X165.693 Y89.355 E113.59915
G1 X165.705 Y89.468 E113.61427
G1 X165.738 Y89.839 E113.66382
G1 X165.758 Y90.123 E113.7017
G1 X165.783 Y90.713 E113.78026
G1 X165.793 Y91.501 E113.88511
G1 X165.792 Y132.386 E119.32447
G1 X165.781 Y133.145 E119.42546
G1 X165.745 Y133.875 E119.5227
G1 X165.716 Y134.219 E119.56863
G1 X165.53 Y135.488 E119.73926
G1 X165.503 Y135.617 E119.75679
G1 X165.353 Y136.239 E119.84192
G1 X165.281 Y136.502 E119.87819
G1 X164.938 Y137.54 E120.02363
G1 X164.901 Y137.635 E120.0372
G1 X164.669 Y138.183 E120.11637
G1 X164.554 Y138.435 E120.15322
G1 X163.997 Y139.493 E120.31229
G1 X163.944 Y139.581 E120.32596
G1 X163.662 Y140.024 E120.39582
G1 X163.51 Y140.25 E120.43206
G1 X162.822 Y141.161 E120.58394
G1 X162.741 Y141.257 E120.60065
G1 X162.393 Y141.649 E120.67039
G1 X162.198 Y141.858 E120.70842
G1 X161.545 Y142.5 E120.83025
