;FLAVOR:Marlin
;TIME:12226
;Filament used: 36.8114m
;Layer height: 0.32
;MINX:63.298
;MINY:63.298
;MINZ:0.32
;MAXX:156.702
;MAXY:156.702
;MAXZ:64.32
;Generated with Cura_SteamEngine 4.12.1
M140 S60
M105
M190 S60
M104 S200
M105
M109 S200
M82 ;absolute extrusion mode
; Ender 3 Custom Start G-code
G92 E0 ; Reset Extruder
G28 ; Home all axes
G29 ; bed level adjust
G1 Z2.0 F3000 ; Move Z Axis up little to prevent scratching of Heat Bed
G1 X0.1 Y20 Z0.3 F5000.0 ; Move to start position
G1 X0.1 Y200.0 Z0.3 F1500.0 E15 ; Draw the first line
G1 X0.4 Y200.0 Z0.3 F5000.0 ; Move to side a little
G1 X0.4 Y20 Z0.3 F1500.0 E30 ; Draw the second line
G92 E0 ; Reset Extruder
G1 Z2.0 F3000 ; Move Z Axis up little to prevent scratching of Heat Bed
G1 X5 Y20 Z0.3 F5000.0 ; Move over to prevent blob squish
G92 E0
G92 E0
G1 F1500 E-6.5
;LAYER_COUNT:201
;LAYER:0
M107
G0 F6000 X83.42 Y72.221 Z0.32
;TYPE:SKIRT
G1 F1500 E0
G1 F1200 X84.086 Y71.503 E0.10423
G1 X84.808 Y70.841 E0.20849
G1 X85.581 Y70.239 E0.31277
G1 X86.385 Y69.713 E0.41502
G1 X86.567 Y69.604 E0.4376
G1 X87.428 Y69.136 E0.5419
G1 X88.323 Y68.739 E0.64611
G1 X89.248 Y68.416 E0.75039
G1 X90.499 Y68.109 E0.88749
G1 X93.067 Y67.622 E1.16568
G1 X95.487 Y67.093 E1.42933
G1 X97.919 Y66.49 E1.69601
G1 X100.344 Y65.813 E1.96398
G1 X102.723 Y65.078 E2.22899
G1 X104.924 Y64.329 E2.47644
G1 X105.911 Y63.981 E2.58783
G1 X106.847 Y63.693 E2.69206
G1 X107.804 Y63.482 E2.79636
G1 X108.774 Y63.35 E2.90055
G1 X110.028 Y63.298 E3.03413
G1 X110.222 Y63.3 E3.05478
G1 X111.2 Y63.35 E3.15901
G1 X112.171 Y63.479 E3.26326
G1 X113.128 Y63.688 E3.36752
G1 X114.123 Y63.994 E3.47831
G1 X114.75 Y64.217 E3.54914
G1 X117.209 Y65.057 E3.82571
G1 X119.566 Y65.789 E4.08839
G1 X121.947 Y66.454 E4.3515
G1 X124.417 Y67.069 E4.62242
G1 X126.833 Y67.598 E4.88565
G1 X128.503 Y67.923 E5.06672
G1 X129.46 Y68.101 E5.17033
G1 X130.415 Y68.319 E5.27458
G1 X131.349 Y68.615 E5.37887
G1 X132.256 Y68.986 E5.48316
G1 X133.327 Y69.542 E5.6116
G1 X133.503 Y69.645 E5.6333
G1 X134.328 Y70.174 E5.73761
G1 X135.106 Y70.768 E5.84179
G1 X135.834 Y71.424 E5.94609
G1 X136.638 Y72.293 E6.07209
G1 X136.828 Y72.519 E6.10352
G1 X138.503 Y74.45 E6.37558
G1 X140.172 Y76.265 E6.63802
G1 X141.916 Y78.059 E6.90431
G1 X143.72 Y79.811 E7.17196
G1 X145.538 Y81.479 E7.43456
G1 X147.035 Y82.786 E7.64607
G1 X147.779 Y83.42 E7.7501
G1 X148.497 Y84.086 E7.85434
G1 X149.159 Y84.808 E7.95859
G1 X149.761 Y85.581 E8.06287
G1 X150.257 Y86.335 E8.15893
G1 X150.366 Y86.515 E8.18132
G1 X150.838 Y87.373 E8.28555
G1 X151.24 Y88.267 E8.38988
G1 X151.567 Y89.19 E8.4941
G1 X151.892 Y90.499 E8.63765
G1 X152.382 Y93.089 E8.9182
G1 X152.907 Y95.487 E9.17947
G1 X153.51 Y97.919 E9.44615
G1 X154.187 Y100.344 E9.71412
G1 X154.922 Y102.723 E9.97913
G1 X155.657 Y104.884 E10.22207
G1 X156.018 Y105.906 E10.33743
G1 X156.306 Y106.842 E10.44166
G1 X156.517 Y107.799 E10.54596
G1 X156.649 Y108.77 E10.65026
G1 X156.702 Y110.084 E10.79022
G1 X156.699 Y110.283 E10.8114
G1 X156.644 Y111.261 E10.91566
G1 X156.51 Y112.231 E11.01988
G1 X156.297 Y113.187 E11.12412
G1 X156.005 Y114.128 E11.22899
G1 X155.774 Y114.776 E11.30221
G1 X154.946 Y117.2 E11.57484
G1 X154.208 Y119.577 E11.83974
G1 X153.546 Y121.947 E12.10164
G1 X152.932 Y124.412 E12.37201
G1 X152.402 Y126.833 E12.63579
G1 X152.068 Y128.549 E12.82185
G1 X151.899 Y129.46 E12.92047
G1 X151.681 Y130.415 E13.02472
G1 X151.385 Y131.349 E13.129
G1 X151.014 Y132.256 E13.2333
G1 X150.458 Y133.327 E13.36174
G1 X150.355 Y133.503 E13.38344
G1 X149.826 Y134.328 E13.48775
G1 X149.232 Y135.106 E13.59193
G1 X148.576 Y135.834 E13.69623
G1 X147.707 Y136.638 E13.82223
G1 X147.481 Y136.828 E13.85366
G1 X145.55 Y138.503 E14.12572
G1 X143.734 Y140.173 E14.38831
G1 X141.941 Y141.916 E14.65445
G1 X140.189 Y143.72 E14.9221
G1 X138.521 Y145.538 E15.18469
G1 X137.21 Y147.04 E15.39689
G1 X136.561 Y147.8 E15.50325
G1 X135.895 Y148.518 E15.60749
G1 X135.172 Y149.179 E15.71175
G1 X134.398 Y149.78 E15.81605
G1 X133.178 Y150.543 E15.9692
G1 X133 Y150.64 E15.99077
G1 X132.121 Y151.073 E16.09506
G1 X131.211 Y151.433 E16.19922
G1 X130.273 Y151.718 E16.30356
G1 X129.49 Y151.894 E16.38898
G1 X126.911 Y152.382 E16.66834
G1 X124.513 Y152.907 E16.92961
G1 X122.081 Y153.51 E17.19629
G1 X119.656 Y154.187 E17.46425
G1 X117.277 Y154.922 E17.72927
G1 X115.076 Y155.671 E17.97672
G1 X114.089 Y156.019 E18.0881
G1 X113.153 Y156.307 E18.19233
G1 X112.196 Y156.518 E18.29664
G1 X111.226 Y156.65 E18.40083
G1 X109.914 Y156.702 E18.54058
G1 X109.716 Y156.699 E18.56165
G1 X108.738 Y156.644 E18.66591
G1 X107.768 Y156.509 E18.77014
G1 X106.812 Y156.296 E18.87439
G1 X105.872 Y156.005 E18.97912
G1 X105.224 Y155.774 E19.05234
G1 X102.8 Y154.946 E19.32496
G1 X100.423 Y154.208 E19.58987
G1 X98.053 Y153.546 E19.85177
G1 X95.583 Y152.931 E20.12268
G1 X93.167 Y152.402 E20.38591
G1 X91.497 Y152.077 E20.56699
G1 X90.54 Y151.899 E20.67059
G1 X89.585 Y151.681 E20.77485
G1 X88.651 Y151.385 E20.87913
G1 X87.744 Y151.014 E20.98343
G1 X86.637 Y150.437 E21.1163
G1 X86.459 Y150.332 E21.13829
G1 X85.636 Y149.8 E21.24259
G1 X84.86 Y149.203 E21.3468
G1 X84.134 Y148.545 E21.45108
G1 X83.355 Y147.699 E21.57348
G1 X83.17 Y147.479 E21.60407
G1 X81.497 Y145.55 E21.87584
G1 X79.827 Y143.734 E22.13842
G1 X78.084 Y141.941 E22.40457
G1 X76.28 Y140.189 E22.67222
G1 X74.462 Y138.521 E22.93481
G1 X72.957 Y137.207 E23.14746
G1 X72.219 Y136.578 E23.25066
G1 X71.501 Y135.912 E23.35489
G1 X70.839 Y135.19 E23.45915
G1 X70.238 Y134.417 E23.56336
G1 X69.662 Y133.53 E23.67593
G1 X69.555 Y133.348 E23.6984
G1 X69.094 Y132.484 E23.80263
G1 X68.704 Y131.585 E23.90692
G1 X68.389 Y130.657 E24.01123
G1 X68.111 Y129.504 E24.13746
G1 X67.625 Y126.944 E24.4148
G1 X67.093 Y124.513 E24.67966
G1 X66.488 Y122.071 E24.94742
G1 X65.819 Y119.675 E25.21219
G1 X65.074 Y117.268 E25.48036
G1 X64.342 Y115.112 E25.72269
G1 X63.981 Y114.089 E25.83815
G1 X63.693 Y113.153 E25.94238
G1 X63.482 Y112.196 E26.04669
G1 X63.35 Y111.226 E26.15088
G1 X63.298 Y109.914 E26.29063
G1 X63.301 Y109.716 E26.3117
G1 X63.356 Y108.738 E26.41596
G1 X63.491 Y107.768 E26.52019
G1 X63.704 Y106.812 E26.62444
G1 X63.995 Y105.872 E26.72917
G1 X64.226 Y105.224 E26.80239
G1 X65.054 Y102.8 E27.07502
G1 X65.792 Y100.423 E27.33992
G1 X66.454 Y98.053 E27.60182
G1 X67.069 Y95.583 E27.87273
G1 X67.598 Y93.167 E28.13597
G1 X67.932 Y91.451 E28.32203
G1 X68.101 Y90.54 E28.42065
G1 X68.319 Y89.585 E28.5249
G1 X68.615 Y88.651 E28.62918
G1 X68.986 Y87.744 E28.73348
G1 X69.542 Y86.673 E28.86192
G1 X69.645 Y86.497 E28.88362
G1 X70.174 Y85.672 E28.98793
G1 X70.768 Y84.894 E29.09211
G1 X71.424 Y84.166 E29.19641
G1 X72.293 Y83.362 E29.32241
G1 X72.519 Y83.172 E29.35384
G1 X74.45 Y81.497 E29.6259
G1 X76.266 Y79.827 E29.88849
G1 X78.059 Y78.084 E30.15463
G1 X79.811 Y76.28 E30.42228
G1 X81.479 Y74.462 E30.68487
G1 X82.786 Y72.965 E30.89638
G1 X83.42 Y72.221 E31.00042
G0 F6000 X84.029 Y72.741
G1 F1200 X84.673 Y72.047 E31.10119
G1 X85.373 Y71.41 E31.20192
G1 X86.125 Y70.835 E31.30267
G1 X86.796 Y70.399 E31.38784
G1 X86.978 Y70.29 E31.41042
G1 X87.81 Y69.839 E31.51115
G1 X88.677 Y69.459 E31.6119
G1 X89.573 Y69.154 E31.71264
G1 X90.648 Y68.895 E31.83032
G1 X93.244 Y68.403 E32.11154
G1 X95.674 Y67.872 E32.37627
G1 X98.117 Y67.266 E32.64417
G1 X100.552 Y66.586 E32.91325
G1 X102.953 Y65.844 E33.18072
G1 X105.195 Y65.082 E33.43274
G1 X106.177 Y64.735 E33.54359
G1 X107.082 Y64.458 E33.64433
G1 X108.007 Y64.259 E33.74503
G1 X108.946 Y64.138 E33.8458
G1 X110.019 Y64.098 E33.96008
G1 X110.213 Y64.1 E33.98073
G1 X111.159 Y64.149 E34.08155
G1 X112.096 Y64.279 E34.18223
G1 X113.019 Y64.487 E34.28293
G1 X113.855 Y64.748 E34.37614
G1 X114.477 Y64.969 E34.4464
G1 X116.965 Y65.819 E34.72623
G1 X119.315 Y66.549 E34.98813
G1 X121.791 Y67.24 E35.26173
G1 X124.222 Y67.846 E35.52839
G1 X126.683 Y68.384 E35.7965
G1 X128.316 Y68.702 E35.97357
G1 X129.314 Y68.888 E36.08162
G1 X130.236 Y69.1 E36.18231
G1 X131.137 Y69.389 E36.28302
G1 X132.01 Y69.754 E36.38373
G1 X132.923 Y70.233 E36.49346
G1 X133.099 Y70.336 E36.51517
G1 X133.895 Y70.848 E36.6159
G1 X134.645 Y71.425 E36.71661
G1 X135.343 Y72.064 E36.81733
G1 X136.025 Y72.807 E36.92468
G1 X136.206 Y73.023 E36.95467
G1 X137.91 Y74.986 E37.23133
G1 X139.592 Y76.816 E37.49588
G1 X141.368 Y78.643 E37.76706
G1 X143.151 Y80.373 E38.03148
G1 X145.017 Y82.087 E38.30115
G1 X146.554 Y83.428 E38.51825
G1 X147.259 Y84.029 E38.61684
G1 X147.953 Y84.673 E38.71761
G1 X148.59 Y85.373 E38.81834
G1 X149.165 Y86.125 E38.9191
G1 X149.572 Y86.75 E38.99848
G1 X149.681 Y86.93 E39.02088
G1 X150.137 Y87.759 E39.12158
G1 X150.521 Y88.624 E39.2223
G1 X150.83 Y89.518 E39.32298
G1 X151.106 Y90.648 E39.44678
G1 X151.602 Y93.266 E39.73038
G1 X152.128 Y95.674 E39.99271
G1 X152.734 Y98.117 E40.26061
G1 X153.414 Y100.552 E40.52968
G1 X154.156 Y102.953 E40.79715
G1 X154.916 Y105.189 E41.04851
G1 X155.264 Y106.173 E41.15959
G1 X155.541 Y107.078 E41.26033
G1 X155.741 Y108.003 E41.36105
G1 X155.862 Y108.941 E41.46171
G1 X155.902 Y110.072 E41.58216
G1 X155.899 Y110.271 E41.60334
G1 X155.844 Y111.216 E41.70409
G1 X155.711 Y112.152 E41.80471
G1 X155.498 Y113.075 E41.90553
G1 X155.251 Y113.859 E41.99302
G1 X155.031 Y114.478 E42.06294
G1 X154.187 Y116.947 E42.34065
G1 X153.445 Y119.335 E42.6068
G1 X152.762 Y121.783 E42.87729
G1 X152.154 Y124.222 E43.14483
G1 X151.616 Y126.683 E43.41294
G1 X151.3 Y128.303 E43.58861
G1 X151.112 Y129.314 E43.69806
G1 X150.9 Y130.236 E43.79875
G1 X150.611 Y131.137 E43.89946
G1 X150.246 Y132.01 E44.00017
G1 X149.767 Y132.923 E44.1099
G1 X149.664 Y133.099 E44.13161
G1 X149.152 Y133.895 E44.23234
G1 X148.575 Y134.645 E44.33306
G1 X147.936 Y135.343 E44.43377
G1 X147.193 Y136.025 E44.54112
G1 X146.977 Y136.206 E44.57111
G1 X145.014 Y137.91 E44.84777
G1 X143.183 Y139.593 E45.11247
G1 X141.357 Y141.368 E45.3835
G1 X139.627 Y143.151 E45.64792
G1 X137.913 Y145.017 E45.91759
G1 X136.56 Y146.568 E46.13665
G1 X135.952 Y147.28 E46.2363
G1 X135.308 Y147.973 E46.33699
G1 X134.607 Y148.609 E46.43773
G1 X133.855 Y149.184 E46.53848
G1 X132.795 Y149.841 E46.67121
G1 X132.617 Y149.938 E46.69279
G1 X131.768 Y150.355 E46.79346
G1 X130.886 Y150.699 E46.89422
G1 X129.979 Y150.967 E46.99488
G1 X129.341 Y151.108 E47.06442
G1 X126.734 Y151.602 E47.34683
G1 X124.326 Y152.128 E47.60916
G1 X121.883 Y152.734 E47.87706
G1 X119.448 Y153.414 E48.14614
G1 X117.047 Y154.156 E48.41361
G1 X114.805 Y154.918 E48.66563
G1 X113.823 Y155.265 E48.77648
G1 X112.918 Y155.542 E48.87721
G1 X111.993 Y155.741 E48.97792
G1 X111.054 Y155.862 E49.07868
G1 X109.926 Y155.902 E49.19881
G1 X109.728 Y155.899 E49.21989
G1 X108.784 Y155.844 E49.32053
G1 X107.847 Y155.711 E49.42126
G1 X106.924 Y155.498 E49.52208
G1 X106.141 Y155.251 E49.60946
G1 X105.522 Y155.031 E49.67938
G1 X103.053 Y154.187 E49.95709
G1 X100.665 Y153.445 E50.22324
G1 X98.209 Y152.76 E50.49462
G1 X95.778 Y152.154 E50.76127
G1 X93.317 Y151.616 E51.02939
G1 X91.684 Y151.298 E51.20646
G1 X90.686 Y151.112 E51.3145
G1 X89.764 Y150.9 E51.4152
G1 X88.863 Y150.611 E51.5159
G1 X87.99 Y150.246 E51.61661
G1 X87.044 Y149.748 E51.7304
G1 X86.866 Y149.643 E51.75239
G1 X86.071 Y149.128 E51.85321
G1 X85.324 Y148.548 E51.95387
G1 X84.628 Y147.907 E52.05457
G1 X83.968 Y147.186 E52.15861
G1 X83.769 Y146.948 E52.19163
G1 X82.09 Y145.014 E52.46421
G1 X80.407 Y143.183 E52.72891
G1 X78.632 Y141.357 E52.99994
G1 X76.849 Y139.627 E53.26436
G1 X74.983 Y137.913 E53.53403
G1 X73.432 Y136.56 E53.75309
G1 X72.739 Y135.969 E53.85003
G1 X72.045 Y135.325 E53.95079
G1 X71.409 Y134.625 E54.05145
G1 X70.833 Y133.873 E54.15227
G1 X70.352 Y133.124 E54.24701
G1 X70.245 Y132.942 E54.26948
G1 X69.8 Y132.107 E54.37019
G1 X69.428 Y131.237 E54.47089
G1 X69.13 Y130.339 E54.57159
G1 X68.897 Y129.355 E54.67922
G1 X68.406 Y126.767 E54.95958
G1 X67.872 Y124.326 E55.22553
G1 X67.263 Y121.874 E55.49443
G1 X66.592 Y119.466 E55.76048
G1 X65.84 Y117.037 E56.03111
G1 X65.082 Y114.805 E56.28199
G1 X64.735 Y113.823 E56.39284
G1 X64.458 Y112.918 E56.49358
G1 X64.259 Y111.993 E56.59428
G1 X64.138 Y111.054 E56.69504
G1 X64.098 Y109.926 E56.81518
G1 X64.101 Y109.728 E56.83625
G1 X64.156 Y108.784 E56.93689
G1 X64.289 Y107.847 E57.03762
G1 X64.502 Y106.924 E57.13844
G1 X64.749 Y106.141 E57.22583
G1 X64.969 Y105.522 E57.29574
G1 X65.813 Y103.053 E57.57346
G1 X66.555 Y100.665 E57.8396
G1 X67.24 Y98.209 E58.11098
G1 X67.846 Y95.778 E58.37763
G1 X68.384 Y93.317 E58.64575
G1 X68.702 Y91.684 E58.82282
G1 X68.888 Y90.686 E58.93087
G1 X69.1 Y89.764 E59.03156
G1 X69.389 Y88.863 E59.13227
G1 X69.754 Y87.99 E59.23297
G1 X70.233 Y87.077 E59.34271
G1 X70.336 Y86.901 E59.36441
G1 X70.848 Y86.105 E59.46515
G1 X71.425 Y85.355 E59.56586
G1 X72.064 Y84.657 E59.66658
G1 X72.807 Y83.975 E59.77392
G1 X73.023 Y83.794 E59.80392
G1 X74.986 Y82.09 E60.08058
G1 X76.817 Y80.407 E60.34527
G1 X78.643 Y78.632 E60.61631
G1 X80.373 Y76.849 E60.88072
G1 X82.087 Y74.983 E61.15039
G1 X83.44 Y73.432 E61.36945
G1 X84.029 Y72.741 E61.46609
G0 F6000 X84.638 Y73.26
G1 F1200 X85.259 Y72.592 E61.56316
G1 X85.937 Y71.982 E61.66023
G1 X86.665 Y71.434 E61.75721
G1 X87.207 Y71.086 E61.82577
G1 X87.389 Y70.977 E61.84835
G1 X88.192 Y70.543 E61.9455
G1 X89.029 Y70.181 E62.04255
G1 X89.894 Y69.894 E62.13955
G1 X90.797 Y69.681 E62.2383
G1 X93.387 Y69.19 E62.51887
G1 X95.86 Y68.649 E62.7883
G1 X98.346 Y68.033 E63.06089
G1 X100.751 Y67.362 E63.32664
G1 X103.205 Y66.603 E63.60003
G1 X105.516 Y65.817 E63.85983
G1 X106.443 Y65.49 E63.96446
G1 X107.316 Y65.224 E64.06159
G1 X108.208 Y65.036 E64.15861
G1 X109.113 Y64.927 E64.25563
G1 X110.011 Y64.898 E64.35126
G1 X110.205 Y64.9 E64.37191
G1 X111.116 Y64.949 E64.46901
G1 X112.019 Y65.078 E64.56609
G1 X112.907 Y65.285 E64.66314
G1 X113.586 Y65.501 E64.73897
G1 X114.248 Y65.737 E64.81377
G1 X116.712 Y66.578 E65.09088
G1 X119.105 Y67.321 E65.35756
G1 X121.56 Y68.007 E65.62887
G1 X124.035 Y68.624 E65.90035
G1 X126.533 Y69.17 E66.17249
G1 X128.156 Y69.486 E66.34848
G1 X129.167 Y69.674 E66.45792
G1 X130.056 Y69.88 E66.55505
G1 X130.923 Y70.163 E66.65212
G1 X131.761 Y70.521 E66.74911
G1 X132.519 Y70.923 E66.84043
G1 X132.695 Y71.026 E66.86213
G1 X133.461 Y71.521 E66.9592
G1 X134.181 Y72.081 E67.05628
G1 X134.849 Y72.701 E67.15328
G1 X135.412 Y73.321 E67.24242
G1 X135.608 Y73.555 E67.2749
G1 X137.317 Y75.523 E67.55232
G1 X139.013 Y77.368 E67.81904
G1 X140.785 Y79.191 E68.08963
G1 X142.619 Y80.971 E68.36164
G1 X144.474 Y82.675 E68.62973
G1 X146.029 Y84.032 E68.84939
G1 X146.74 Y84.638 E68.94882
G1 X147.408 Y85.259 E69.0459
G1 X148.018 Y85.937 E69.14297
G1 X148.566 Y86.665 E69.23995
G1 X148.888 Y87.164 E69.30316
G1 X148.997 Y87.344 E69.32555
G1 X149.435 Y88.144 E69.42262
G1 X149.801 Y88.979 E69.51966
G1 X150.092 Y89.843 E69.61669
G1 X150.32 Y90.797 E69.72109
G1 X150.814 Y93.408 E70.00391
G1 X151.351 Y95.86 E70.27107
G1 X151.967 Y98.346 E70.54366
G1 X152.637 Y100.747 E70.80897
G1 X153.397 Y103.205 E71.0828
G1 X154.181 Y105.509 E71.34183
G1 X154.509 Y106.439 E71.44679
G1 X154.775 Y107.312 E71.54392
G1 X154.963 Y108.204 E71.64094
G1 X155.073 Y109.109 E71.73797
G1 X155.102 Y110.06 E71.83924
G1 X155.099 Y110.259 E71.86042
G1 X155.045 Y111.169 E71.95744
G1 X154.912 Y112.071 E72.05448
G1 X154.7 Y112.958 E72.15155
G1 X154.497 Y113.591 E72.2223
G1 X154.278 Y114.205 E72.29168
G1 X153.425 Y116.703 E72.57262
G1 X152.676 Y119.116 E72.84153
G1 X151.993 Y121.56 E73.11162
G1 X151.376 Y124.035 E73.3831
G1 X150.83 Y126.533 E73.65525
G1 X150.514 Y128.156 E73.83123
G1 X150.326 Y129.167 E73.94068
G1 X150.12 Y130.056 E74.0378
G1 X149.837 Y130.923 E74.13487
G1 X149.479 Y131.761 E74.23186
G1 X149.077 Y132.519 E74.32318
G1 X148.974 Y132.695 E74.34488
G1 X148.479 Y133.461 E74.44195
G1 X147.919 Y134.181 E74.53903
G1 X147.299 Y134.849 E74.63604
G1 X146.679 Y135.412 E74.72517
G1 X146.445 Y135.608 E74.75766
G1 X144.495 Y137.301 E75.03251
G1 X142.613 Y139.03 E75.30451
G1 X140.809 Y140.786 E75.57246
G1 X139.029 Y142.619 E75.8444
G1 X137.325 Y144.474 E76.11249
G1 X135.957 Y146.042 E76.33396
G1 X135.344 Y146.76 E76.43444
G1 X134.722 Y147.427 E76.53151
G1 X134.044 Y148.037 E76.62858
G1 X133.315 Y148.585 E76.72564
G1 X132.412 Y149.138 E76.83834
G1 X132.234 Y149.235 E76.85992
