;FLAVOR:Marlin
;TIME:6656
;Filament used: 16.9205m
;Layer height: 0.32
;MINX:37.351
;MINY:37.358
;MINZ:0.32
;MAXX:182.652
;MAXY:182.641
;MAXZ:15.04
;Generated with Cura_SteamEngine 4.12.1
M140 S60
M105
M190 S60
M104 S200
M105
M109 S200
M82 ;absolute extrusion mode
; Ender 3 Custom Start G-code
G92 E0 ; Reset Extruder
G28 ; Home all axes
G29 ; bed level adjust
G1 Z2.0 F3000 ; Move Z Axis up little to prevent scratching of Heat Bed
G1 X0.1 Y20 Z0.3 F5000.0 ; Move to start position
G1 X0.1 Y200.0 Z0.3 F1500.0 E15 ; Draw the first line
G1 X0.4 Y200.0 Z0.3 F5000.0 ; Move to side a little
G1 X0.4 Y20 Z0.3 F1500.0 E30 ; Draw the second line
G92 E0 ; Reset Extruder
G1 Z2.0 F3000 ; Move Z Axis up little to prevent scratching of Heat Bed
G1 X5 Y20 Z0.3 F5000.0 ; Move over to prevent blob squish
G92 E0
G92 E0
G1 F1500 E-6.5
;LAYER_COUNT:47
;LAYER:0
M107
G0 F6000 X58.421 Y58.845 Z0.32
;TYPE:SKIRT
G1 F1500 E0
G1 F1200 X59.494 Y57.778 E0.20132
G1 X59.793 Y57.491 E0.25646
G1 X61.277 Y56.114 E0.52579
G1 X61.933 Y55.521 E0.64344
G1 X62.168 Y55.314 E0.6851
G1 X62.606 Y54.939 E0.76181
G1 X63.909 Y53.849 E0.98782
G1 X64.886 Y53.054 E1.1554
G1 X65.218 Y52.794 E1.2115
G1 X66.924 Y51.5 E1.49637
G1 X67.604 Y51 E1.60866
G1 X67.875 Y50.806 E1.653
G1 X68.282 Y50.524 E1.71888
G1 X69.585 Y49.635 E1.92873
G1 X70.706 Y48.893 E2.10758
G1 X70.976 Y48.72 E2.15024
G1 X71.312 Y48.51 E2.20296
G1 X72.99 Y47.485 E2.46456
G1 X73.651 Y47.093 E2.5668
G1 X73.945 Y46.925 E2.61185
G1 X74.439 Y46.65 E2.68707
G1 X75.942 Y45.832 E2.91472
G1 X77.115 Y45.218 E3.09086
G1 X77.485 Y45.033 E3.1459
G1 X79.339 Y44.14 E3.41968
G1 X80.142 Y43.767 E3.53747
G1 X80.429 Y43.639 E3.57928
G1 X80.907 Y43.432 E3.64858
G1 X82.589 Y42.725 E3.89132
G1 X83.549 Y42.337 E4.02908
G1 X83.855 Y42.218 E4.07276
G1 X84.286 Y42.057 E4.13397
G1 X86.05 Y41.415 E4.38371
G1 X86.869 Y41.129 E4.49912
G1 X87.18 Y41.025 E4.54275
G1 X87.684 Y40.864 E4.61314
G1 X89.177 Y40.404 E4.82098
G1 X90.499 Y40.017 E5.00425
G1 X90.815 Y39.929 E5.04789
G1 X91.109 Y39.852 E5.08832
G1 X92.965 Y39.379 E5.34313
G1 X93.831 Y39.17 E5.46166
G1 X94.151 Y39.097 E5.50532
G1 X94.711 Y38.978 E5.58149
G1 X96.446 Y38.629 E5.81694
G1 X97.493 Y38.434 E5.95863
G1 X97.827 Y38.377 E6.0037
G1 X98.267 Y38.307 E6.06298
G1 X100.108 Y38.029 E6.31068
G1 X100.97 Y37.911 E6.42643
G1 X101.288 Y37.872 E6.46906
G1 X101.876 Y37.808 E6.54775
G1 X103.557 Y37.642 E6.77248
G1 X104.81 Y37.537 E6.93976
G1 X105.205 Y37.509 E6.99244
G1 X107.334 Y37.402 E7.27604
G1 X108.18 Y37.371 E7.38867
G1 X108.502 Y37.364 E7.43152
G1 X109.096 Y37.358 E7.51055
G1 X110.89 Y37.359 E7.74923
G1 X111.838 Y37.373 E7.87536
G1 X112.137 Y37.381 E7.91515
G1 X112.789 Y37.407 E8.00197
G1 X114.401 Y37.487 E8.21669
G1 X115.454 Y37.554 E8.35707
G1 X115.742 Y37.576 E8.39549
G1 X116.304 Y37.626 E8.47056
G1 X118.057 Y37.803 E8.70496
G1 X119.179 Y37.933 E8.85523
G1 X119.476 Y37.971 E8.89507
G1 X119.929 Y38.035 E8.95593
G1 X121.748 Y38.31 E9.20069
G1 X122.631 Y38.455 E9.31973
G1 X122.959 Y38.514 E9.36407
G1 X123.489 Y38.616 E9.43588
G1 X125.248 Y38.972 E9.67464
G1 X126.179 Y39.174 E9.80138
G1 X126.451 Y39.236 E9.8385
G1 X127.087 Y39.39 E9.92556
G1 X128.707 Y39.803 E10.14798
G1 X129.695 Y40.069 E10.2841
G1 X129.985 Y40.151 E10.32419
G1 X130.517 Y40.309 E10.39803
G1 X132.223 Y40.837 E10.63562
G1 X133.141 Y41.134 E10.76398
G1 X133.446 Y41.237 E10.80681
G1 X134.094 Y41.466 E10.89824
G1 X135.72 Y42.059 E11.12851
G1 X136.596 Y42.392 E11.25319
G1 X136.863 Y42.497 E11.29136
G1 X137.316 Y42.682 E11.35646
G1 X138.929 Y43.363 E11.58939
G1 X139.818 Y43.752 E11.71849
G1 X140.075 Y43.868 E11.756
G1 X140.738 Y44.177 E11.85332
G1 X142.414 Y44.984 E12.1008
G1 X143.145 Y45.348 E12.20944
G1 X143.442 Y45.501 E12.25389
G1 X143.881 Y45.736 E12.32013
G1 X145.499 Y46.618 E12.5653
G1 X146.392 Y47.122 E12.70172
G1 X146.658 Y47.277 E12.74268
G1 X147.134 Y47.562 E12.81649
G1 X148.68 Y48.506 E13.05748
G1 X149.452 Y48.993 E13.17892
G1 X149.725 Y49.17 E13.2222
G1 X150.126 Y49.438 E13.28637
G1 X151.596 Y50.442 E13.5232
G1 X152.491 Y51.072 E13.66881
G1 X152.741 Y51.253 E13.70988
G1 X153.159 Y51.564 E13.77919
G1 X154.608 Y52.662 E14.02106
G1 X155.311 Y53.209 E14.13957
G1 X155.566 Y53.412 E14.18293
G1 X155.949 Y53.727 E14.2489
G1 X157.229 Y54.801 E14.4712
G1 X158.141 Y55.589 E14.63155
G1 X158.384 Y55.805 E14.67481
G1 X158.718 Y56.11 E14.73498
G1 X160.12 Y57.411 E14.98944
G1 X160.755 Y58.017 E15.10622
G1 X160.982 Y58.239 E15.14846
G1 X161.316 Y58.576 E15.21158
G1 X162.558 Y59.851 E15.44839
G1 X163.386 Y60.726 E15.60866
G1 X163.598 Y60.956 E15.65027
G1 X163.853 Y61.24 E15.70105
G1 X165.117 Y62.672 E15.95517
G1 X165.682 Y63.332 E16.07075
G1 X165.872 Y63.559 E16.11013
G1 X166.176 Y63.934 E16.17436
G1 X167.296 Y65.341 E16.41361
G1 X168.032 Y66.294 E16.57381
G1 X168.278 Y66.623 E16.62846
G1 X169.54 Y68.375 E16.91572
G1 X170.052 Y69.108 E17.03468
G1 X170.229 Y69.369 E17.07663
G1 X170.478 Y69.746 E17.13674
G1 X171.356 Y71.106 E17.3521
G1 X172.051 Y72.217 E17.52645
G1 X172.205 Y72.47 E17.56586
G1 X172.458 Y72.898 E17.632
G1 X173.425 Y74.575 E17.88954
G1 X173.805 Y75.256 E17.9933
G1 X173.945 Y75.514 E18.03235
G1 X174.214 Y76.026 E18.10929
G1 X174.999 Y77.56 E18.33855
G1 X175.491 Y78.551 E18.48575
G1 X175.641 Y78.863 E18.5318
G1 X175.842 Y79.3 E18.5958
G1 X176.609 Y81.002 E18.84416
G1 X176.964 Y81.82 E18.9628
G1 X177.076 Y82.087 E19.00132
G1 X177.265 Y82.555 E19.06846
G1 X177.928 Y84.247 E19.31023
G1 X178.296 Y85.227 E19.4495
G1 X178.399 Y85.51 E19.48957
G1 X178.582 Y86.039 E19.56404
G1 X179.179 Y87.818 E19.81369
G1 X179.432 Y88.609 E19.92418
G1 X179.521 Y88.901 E19.96479
G1 X179.659 Y89.374 E20.03034
G1 X180.145 Y91.104 E20.26941
G1 X180.44 Y92.215 E20.42234
G1 X180.523 Y92.543 E20.46735
G1 X180.603 Y92.885 E20.51408
G1 X181.032 Y94.77 E20.77128
G1 X181.215 Y95.627 E20.88786
G1 X181.273 Y95.915 E20.92695
G1 X181.377 Y96.469 E21.00194
G1 X181.677 Y98.175 E21.23239
G1 X181.861 Y99.316 E21.38615
G1 X181.909 Y99.642 E21.42999
G1 X181.959 Y100.017 E21.48032
G1 X182.177 Y101.753 E21.71309
G1 X182.292 Y102.782 E21.85084
G1 X182.324 Y103.099 E21.89323
G1 X182.367 Y103.61 E21.96145
G1 X182.484 Y105.162 E22.16852
G1 X182.568 Y106.556 E22.35431
G1 X182.584 Y106.895 E22.39947
G1 X182.595 Y107.256 E22.44752
G1 X182.642 Y109.143 E22.69864
G1 X182.652 Y109.984 E22.81054
G1 X182.651 Y110.328 E22.8563
G1 X182.642 Y110.891 E22.93121
G1 X182.597 Y112.651 E23.16544
G1 X182.557 Y113.654 E23.29899
G1 X182.542 Y113.946 E23.33789
G1 X182.499 Y114.605 E23.42575
G1 X182.368 Y116.352 E23.65882
G1 X182.285 Y117.288 E23.78383
G1 X182.253 Y117.604 E23.82609
G1 X182.202 Y118.044 E23.88502
G1 X181.973 Y119.862 E24.1288
G1 X181.826 Y120.915 E24.27025
G1 X181.776 Y121.242 E24.31426
G1 X181.696 Y121.719 E24.37861
G1 X181.407 Y123.357 E24.59989
G1 X181.203 Y124.434 E24.74572
G1 X181.151 Y124.696 E24.78126
G1 X181.034 Y125.237 E24.8549
G1 X180.628 Y127.003 E25.09598
G1 X180.392 Y127.974 E25.22892
G1 X180.313 Y128.283 E25.27135
G1 X180.169 Y128.813 E25.34442
G1 X179.663 Y130.608 E25.59254
G1 X179.411 Y131.456 E25.71023
G1 X179.325 Y131.735 E25.74907
G1 X179.166 Y132.223 E25.81736
G1 X178.593 Y133.925 E26.05628
G1 X178.238 Y134.932 E26.19833
G1 X178.128 Y135.232 E26.24084
G1 X177.943 Y135.716 E26.30978
G1 X177.342 Y137.25 E26.52897
G1 X176.938 Y138.243 E26.67159
G1 X176.803 Y138.562 E26.71767
G1 X176.613 Y138.993 E26.78034
G1 X175.86 Y140.658 E27.02345
G1 X175.435 Y141.564 E27.15659
G1 X175.303 Y141.835 E27.19669
G1 X175.021 Y142.4 E27.2807
G1 X174.226 Y143.947 E27.5121
G1 X173.785 Y144.78 E27.6375
G1 X173.625 Y145.073 E27.68191
G1 X173.4 Y145.471 E27.74274
G1 X172.564 Y146.921 E27.96541
G1 X171.969 Y147.919 E28.11999
G1 X171.812 Y148.175 E28.15995
G1 X171.503 Y148.663 E28.23679
G1 X170.504 Y150.21 E28.48179
G1 X170.017 Y150.943 E28.59887
G1 X169.816 Y151.236 E28.64614
G1 X169.583 Y151.565 E28.69978
G1 X168.499 Y153.071 E28.94664
G1 X167.777 Y154.041 E29.10751
G1 X167.498 Y154.404 E29.16842
G1 X167.392 Y154.54 E29.19136
G1 X166.222 Y156.007 E29.44101
G1 X165.64 Y156.718 E29.56325
G1 X165.427 Y156.971 E29.60725
G1 X165.096 Y157.353 E29.67449
G1 X163.916 Y158.687 E29.91144
G1 X163.147 Y159.531 E30.06334
G1 X162.955 Y159.737 E30.10081
G1 X162.616 Y160.092 E30.16611
G1 X161.483 Y161.255 E30.38212
G1 X160.681 Y162.054 E30.53274
G1 X160.491 Y162.239 E30.56802
G1 X160.1 Y162.609 E30.63963
G1 X158.85 Y163.768 E30.86642
G1 X157.823 Y164.689 E31.04995
G1 X157.522 Y164.95 E31.10295
G1 X155.972 Y166.252 E31.37226
G1 X155.291 Y166.807 E31.48914
G1 X155.066 Y166.985 E31.52731
G1 X154.568 Y167.372 E31.61122
G1 X153.418 Y168.243 E31.80314
G1 X152.171 Y169.155 E32.00868
G1 X151.803 Y169.416 E32.0687
G1 X150.29 Y170.45 E32.31251
G1 X149.454 Y171.006 E32.44608
G1 X149.17 Y171.189 E32.49103
G1 X148.595 Y171.548 E32.58121
G1 X147.131 Y172.441 E32.80936
G1 X146.28 Y172.944 E32.94088
G1 X146.017 Y173.095 E32.98122
G1 X145.555 Y173.353 E33.05162
G1 X144.062 Y174.167 E33.27785
G1 X143.123 Y174.662 E33.41907
G1 X142.84 Y174.807 E33.46138
G1 X142.372 Y175.037 E33.53076
G1 X140.822 Y175.782 E33.75955
G1 X139.641 Y176.327 E33.9326
G1 X139.275 Y176.488 E33.98579
G1 X137.344 Y177.304 E34.26469
G1 X136.496 Y177.647 E34.38639
G1 X136.243 Y177.746 E34.42253
G1 X135.743 Y177.934 E34.4936
G1 X134.069 Y178.542 E34.73054
G1 X133.025 Y178.904 E34.87755
G1 X132.731 Y179.002 E34.91878
G1 X132.244 Y179.157 E34.98677
G1 X130.524 Y179.687 E35.22622
G1 X129.603 Y179.957 E35.35391
G1 X129.313 Y180.038 E35.39396
G1 X128.925 Y180.141 E35.44737
G1 X127.122 Y180.599 E35.69486
G1 X126.001 Y180.866 E35.84817
G1 X125.678 Y180.938 E35.8922
G1 X125.317 Y181.014 E35.94128
G1 X123.406 Y181.4 E36.20066
G1 X122.64 Y181.544 E36.30435
G1 X122.315 Y181.601 E36.34825
G1 X121.712 Y181.697 E36.42948
G1 X120.024 Y181.95 E36.65656
G1 X118.971 Y182.094 E36.79796
G1 X118.657 Y182.133 E36.84005
G1 X118.137 Y182.19 E36.90965
G1 X116.411 Y182.363 E37.14043
G1 X115.398 Y182.451 E37.27571
G1 X115.102 Y182.473 E37.31519
G1 X114.629 Y182.501 E37.37823
G1 X112.813 Y182.591 E37.62013
G1 X111.647 Y182.631 E37.77535
G1 X111.341 Y182.637 E37.81606
G1 X110.919 Y182.641 E37.87221
G1 X108.995 Y182.641 E38.12818
G1 X108.206 Y182.63 E38.23316
G1 X107.876 Y182.621 E38.27708
G1 X107.282 Y182.596 E38.35618
G1 X105.547 Y182.508 E38.5873
G1 X104.565 Y182.446 E38.7182
G1 X104.241 Y182.421 E38.76144
G1 X103.662 Y182.369 E38.83878
G1 X101.829 Y182.186 E39.08385
G1 X100.945 Y182.085 E39.20223
G1 X100.63 Y182.045 E39.24447
G1 X100.085 Y181.968 E39.3177
G1 X98.314 Y181.7 E39.55599
G1 X97.322 Y181.536 E39.68976
G1 X97.011 Y181.48 E39.7318
G1 X96.522 Y181.386 E39.79805
G1 X94.656 Y181.009 E40.05132
G1 X93.825 Y180.829 E40.16444
G1 X93.529 Y180.761 E40.20485
G1 X92.998 Y180.631 E40.27758
G1 X91.237 Y180.181 E40.51939
G1 X90.264 Y179.918 E40.65348
G1 X89.966 Y179.833 E40.69471
G1 X89.503 Y179.695 E40.75899
G1 X87.656 Y179.126 E41.01611
G1 X86.847 Y178.864 E41.12924
G1 X86.539 Y178.76 E41.17249
G1 X86.058 Y178.59 E41.24036
G1 X84.502 Y178.023 E41.46069
G1 X83.413 Y177.609 E41.61569
G1 X83.157 Y177.508 E41.6523
G1 X82.583 Y177.274 E41.73477
G1 X80.937 Y176.58 E41.97242
G1 X80.084 Y176.207 E42.09628
G1 X79.791 Y176.074 E42.13909
G1 X79.38 Y175.881 E42.1995
G1 X77.644 Y175.043 E42.45596
G1 X76.959 Y174.702 E42.55776
G1 X76.693 Y174.566 E42.5975
G1 X75.951 Y174.173 E42.70921
G1 X74.609 Y173.443 E42.91246
G1 X73.628 Y172.892 E43.06215
G1 X73.341 Y172.726 E43.10626
G1 X72.985 Y172.513 E43.16145
G1 X71.356 Y171.516 E43.41554
G1 X70.602 Y171.04 E43.53417
G1 X70.356 Y170.881 E43.57314
G1 X69.754 Y170.479 E43.66945
G1 X68.306 Y169.491 E43.90266
G1 X67.566 Y168.971 E44.02299
G1 X67.322 Y168.796 E44.06293
G1 X66.876 Y168.464 E44.13691
G1 X65.478 Y167.403 E44.3704
G1 X64.58 Y166.7 E44.52212
G1 X64.356 Y166.52 E44.56035
G1 X63.984 Y166.214 E44.62443
G1 X62.566 Y165.024 E44.87072
G1 X61.934 Y164.479 E44.98174
G1 X61.681 Y164.256 E45.02661
G1 X61.269 Y163.879 E45.10091
G1 X59.959 Y162.662 E45.33879
G1 X59.168 Y161.905 E45.48445
G1 X58.677 Y161.416 E45.57665
G1 X57.405 Y160.113 E45.81891
G1 X56.751 Y159.424 E45.94529
G1 X56.557 Y159.215 E45.98323
G1 X56.152 Y158.766 E46.06367
G1 X54.982 Y157.438 E46.29914
G1 X54.289 Y156.63 E46.44076
G1 X54.07 Y156.367 E46.48629
G1 X53.761 Y155.986 E46.55155
G1 X52.719 Y154.68 E46.77383
G1 X52.072 Y153.846 E46.91426
G1 X51.885 Y153.599 E46.95548
G1 X51.574 Y153.175 E47.02543
G1 X50.635 Y151.869 E47.23943
G1 X49.918 Y150.841 E47.40618
G1 X49.734 Y150.57 E47.44976
G1 X49.461 Y150.155 E47.51584
G1 X48.539 Y148.731 E47.74154
G1 X47.997 Y147.866 E47.87734
G1 X47.842 Y147.612 E47.91693
G1 X47.574 Y147.157 E47.98718
G1 X46.675 Y145.599 E48.22649
G1 X46.191 Y144.732 E48.35859
G1 X46.053 Y144.479 E48.39694
G1 X45.731 Y143.867 E48.48894
G1 X44.934 Y142.31 E48.72164
G1 X44.545 Y141.526 E48.83808
G1 X44.395 Y141.213 E48.88426
G1 X44.147 Y140.676 E48.96295
G1 X43.475 Y139.183 E49.18077
G1 X42.97 Y138.018 E49.3497
G1 X42.809 Y137.629 E49.40571
G1 X42.09 Y135.804 E49.66667
G1 X41.716 Y134.812 E49.80772
G1 X41.622 Y134.553 E49.84437
G1 X41.45 Y134.06 E49.91384
G1 X40.935 Y132.524 E50.12937
G1 X40.542 Y131.295 E50.30103
G1 X40.459 Y131.023 E50.33887
G1 X40.312 Y130.521 E50.40846
G1 X39.854 Y128.897 E50.63295
G1 X39.584 Y127.886 E50.77216
G1 X39.509 Y127.587 E50.81317
G1 X39.394 Y127.107 E50.87884
G1 X38.987 Y125.315 E51.12332
G1 X38.768 Y124.283 E51.26368
G1 X38.713 Y124.005 E51.30138
G1 X38.614 Y123.477 E51.37285
G1 X38.292 Y121.649 E51.61979
G1 X38.154 Y120.795 E51.73488
G1 X38.107 Y120.48 E51.77725
G1 X38.046 Y120.026 E51.8382
G1 X37.835 Y118.345 E52.06359
G1 X37.707 Y117.191 E52.21806
G1 X37.678 Y116.899 E52.2571
G1 X37.628 Y116.32 E52.33442
G1 X37.489 Y114.455 E52.58323
G1 X37.436 Y113.584 E52.69932
G1 X37.421 Y113.275 E52.74048
G1 X37.405 Y112.797 E52.80411
G1 X37.362 Y110.981 E53.04578
G1 X37.351 Y109.886 E53.19146
G1 X37.351 Y109.579 E53.23231
G1 X37.359 Y109.111 E53.29458
G1 X37.406 Y107.23 E53.54491
G1 X37.441 Y106.342 E53.66314
G1 X37.455 Y106.052 E53.70176
G1 X37.49 Y105.52 E53.7727
G1 X37.621 Y103.778 E54.00511
G1 X37.729 Y102.591 E54.16368
G1 X37.762 Y102.281 E54.20515
G1 X37.812 Y101.849 E54.26301
G1 X38.035 Y100.074 E54.50101
G1 X38.167 Y99.124 E54.62862
G1 X38.214 Y98.813 E54.67046
G1 X38.295 Y98.329 E54.73575
G1 X38.611 Y96.548 E54.97639
G1 X38.801 Y95.555 E55.1109
G1 X38.858 Y95.271 E55.14944
G1 X38.982 Y94.701 E55.22704
G1 X39.399 Y92.876 E55.4761
G1 X39.592 Y92.075 E55.58572
G1 X39.692 Y91.688 E55.63889
G1 X39.798 Y91.303 E55.69202
G1 X40.315 Y89.471 E55.94527
G1 X40.593 Y88.535 E56.07517
G1 X40.692 Y88.22 E56.1191
G1 X40.856 Y87.715 E56.18974
G1 X41.39 Y86.121 E56.41339
G1 X41.722 Y85.172 E56.54715
G1 X41.836 Y84.859 E56.59147
G1 X42.048 Y84.305 E56.67038
G1 X42.715 Y82.607 E56.91309
G1 X43.042 Y81.807 E57.02807
G1 X43.16 Y81.529 E57.06825
G1 X43.449 Y80.871 E57.16386
G1 X44.178 Y79.258 E57.39936
G1 X44.555 Y78.453 E57.51762
G1 X44.682 Y78.189 E57.55659
G1 X44.934 Y77.686 E57.63144
G1 X45.743 Y76.113 E57.86677
G1 X46.265 Y75.134 E58.01437
G1 X46.398 Y74.892 E58.05111
G1 X46.647 Y74.45 E58.1186
G1 X47.569 Y72.855 E58.36371
G1 X48.014 Y72.108 E58.47938
G1 X48.173 Y71.848 E58.51993
G1 X48.477 Y71.367 E58.59563
G1 X49.383 Y69.966 E58.8176
G1 X50.136 Y68.84 E58.99781
G1 X50.374 Y68.498 E59.05325
G1 X51.567 Y66.838 E59.32521
G1 X52.102 Y66.114 E59.44498
G1 X52.288 Y65.869 E59.4859
G1 X52.602 Y65.466 E59.55387
G1 X53.554 Y64.271 E59.75714
G1 X54.526 Y63.09 E59.96063
G1 X54.789 Y62.782 E60.01451
G1 X56.188 Y61.195 E60.29597
G1 X56.744 Y60.582 E60.40608
G1 X56.946 Y60.365 E60.44552
G1 X57.33 Y59.963 E60.51948
G1 X58.421 Y58.845 E60.7273
G0 F6000 X59.136 Y59.543
G1 F1200 X60.198 Y58.488 E60.92646
G1 X60.473 Y58.223 E60.97727
G1 X61.947 Y56.856 E61.24472
G1 X62.603 Y56.263 E61.36237
G1 X62.819 Y56.072 E61.40073
G1 X63.247 Y55.706 E61.47565
G1 X64.541 Y54.625 E61.69997
G1 X65.518 Y53.83 E61.86755
G1 X65.822 Y53.59 E61.91908
G1 X67.375 Y52.411 E62.17849
G1 X68.197 Y51.806 E62.31427
G1 X68.446 Y51.628 E62.35499
G1 X68.846 Y51.35 E62.4198
G1 X70.149 Y50.461 E62.62966
G1 X71.257 Y49.728 E62.8064
G1 X71.506 Y49.568 E62.84578
