;FLAVOR:Marlin
;TIME:4821
;Filament used: 10.2635m
;Layer height: 0.32
;MINX:52.954
;MINY:61.546
;MINZ:0.32
;MAXX:158.029
;MAXY:161.091
;MAXZ:70.08
;Generated with Cura_SteamEngine 4.12.1
M140 S60
M105
M190 S60
M104 S200
M105
M109 S200
M82 ;absolute extrusion mode
; Ender 3 Custom Start G-code
G92 E0 ; Reset Extruder
G28 ; Home all axes
G29 ; bed level adjust
G1 Z2.0 F3000 ; Move Z Axis up little to prevent scratching of Heat Bed
G1 X0.1 Y20 Z0.3 F5000.0 ; Move to start position
G1 X0.1 Y200.0 Z0.3 F1500.0 E15 ; Draw the first line
G1 X0.4 Y200.0 Z0.3 F5000.0 ; Move to side a little
G1 X0.4 Y20 Z0.3 F1500.0 E30 ; Draw the second line
G92 E0 ; Reset Extruder
G1 Z2.0 F3000 ; Move Z Axis up little to prevent scratching of Heat Bed
G1 X5 Y20 Z0.3 F5000.0 ; Move over to prevent blob squish
G92 E0
G92 E0
G1 F1500 E-6.5
;LAYER_COUNT:219
;LAYER:0
M107
G0 F6000 X74.906 Y64.084 Z0.32
;TYPE:SKIRT
G1 F1500 E0
G1 F1200 X75.447 Y63.53 E0.10302
G1 X76.043 Y63.036 E0.20601
G1 X76.687 Y62.605 E0.3091
G1 X77.371 Y62.243 E0.41206
G1 X78.089 Y61.954 E0.51503
G1 X78.834 Y61.74 E0.61815
G1 X79.596 Y61.604 E0.72113
G1 X80.529 Y61.546 E0.8455
G1 X150.529 Y61.546 E10.15834
G1 X151.302 Y61.586 E10.26132
G1 X152.067 Y61.705 E10.36432
G1 X152.816 Y61.903 E10.46739
G1 X153.54 Y62.177 E10.57037
G1 X154.233 Y62.524 E10.67348
G1 X154.885 Y62.941 E10.77645
G1 X155.491 Y63.423 E10.87946
G1 X156.045 Y63.964 E10.98248
G1 X156.539 Y64.56 E11.08547
G1 X156.97 Y65.204 E11.18857
G1 X157.332 Y65.888 E11.29153
G1 X157.621 Y66.606 E11.3945
G1 X157.835 Y67.351 E11.49762
G1 X157.971 Y68.113 E11.6006
G1 X158.029 Y69.046 E11.72496
G1 X158.029 Y139.046 E21.0378
G1 X157.989 Y139.819 E21.14078
G1 X157.87 Y140.584 E21.24378
G1 X157.672 Y141.333 E21.34685
G1 X157.398 Y142.057 E21.44984
G1 X157.051 Y142.75 E21.55295
G1 X156.634 Y143.402 E21.65591
G1 X156.152 Y144.008 E21.75893
G1 X155.611 Y144.562 E21.86195
G1 X155.015 Y145.056 E21.96494
G1 X154.371 Y145.487 E22.06803
G1 X153.687 Y145.849 E22.17099
G1 X152.969 Y146.138 E22.27396
G1 X152.224 Y146.352 E22.37708
G1 X151.462 Y146.488 E22.48006
G1 X150.529 Y146.546 E22.60443
G1 X148.529 Y146.546 E22.87051
G1 X147.756 Y146.506 E22.97349
G1 X146.991 Y146.387 E23.07649
G1 X146.242 Y146.189 E23.17956
G1 X145.518 Y145.915 E23.28255
G1 X144.825 Y145.568 E23.38566
G1 X144.173 Y145.151 E23.48862
G1 X143.567 Y144.669 E23.59164
G1 X143.013 Y144.128 E23.69466
G1 X142.519 Y143.532 E23.79764
G1 X142.088 Y142.888 E23.90074
G1 X141.726 Y142.204 E24.0037
G1 X141.437 Y141.486 E24.10667
G1 X141.223 Y140.741 E24.20979
G1 X141.087 Y139.979 E24.31277
G1 X141.031 Y139.23 E24.4127
G1 X140.954 Y136.081 E24.83177
G1 X140.734 Y133.112 E25.22785
G1 X140.37 Y130.154 E25.62435
G1 X139.867 Y127.255 E26.0158
G1 X139.212 Y124.34 E26.41328
G1 X138.422 Y121.485 E26.80738
G1 X137.49 Y118.665 E27.20252
G1 X136.422 Y115.895 E27.59748
G1 X135.215 Y113.173 E27.99362
G1 X133.883 Y110.525 E28.38797
G1 X132.423 Y107.95 E28.78179
G1 X130.832 Y105.435 E29.17771
G1 X129.122 Y103.009 E29.57259
G1 X127.293 Y100.665 E29.96814
G1 X125.35 Y98.413 E30.36385
G1 X123.307 Y96.267 E30.75804
G1 X121.162 Y94.225 E31.15205
G1 X118.902 Y92.275 E31.54917
G1 X116.567 Y90.453 E31.9432
G1 X114.147 Y88.749 E32.33697
G1 X111.631 Y87.155 E32.73322
G1 X109.045 Y85.69 E33.12864
G1 X106.404 Y84.361 E33.52198
G1 X103.673 Y83.151 E33.91938
G1 X100.916 Y82.087 E34.31254
G1 X98.102 Y81.156 E34.70687
G1 X95.227 Y80.361 E35.10371
G1 X92.304 Y79.703 E35.50232
G1 X89.42 Y79.205 E35.89169
G1 X86.453 Y78.839 E36.28941
G1 X83.498 Y78.622 E36.68361
G1 X80.342 Y78.543 E37.10362
G1 X79.57 Y78.483 E37.20663
G1 X78.809 Y78.345 E37.30953
G1 X78.065 Y78.129 E37.4126
G1 X77.348 Y77.837 E37.51559
G1 X76.664 Y77.473 E37.61868
G1 X76.022 Y77.04 E37.7217
G1 X75.428 Y76.543 E37.82474
G1 X74.888 Y75.988 E37.92776
G1 X74.409 Y75.38 E38.03074
G1 X73.994 Y74.726 E38.13378
G1 X73.65 Y74.033 E38.23671
G1 X73.378 Y73.307 E38.33986
G1 X73.183 Y72.558 E38.44283
G1 X73.066 Y71.793 E38.54579
G1 X73.029 Y71.045 E38.64542
G1 X73.029 Y69.046 E38.91137
G1 X73.069 Y68.273 E39.01435
G1 X73.188 Y67.508 E39.11735
G1 X73.386 Y66.759 E39.22042
G1 X73.66 Y66.035 E39.32341
G1 X74.007 Y65.342 E39.42652
G1 X74.424 Y64.69 E39.52948
G1 X74.906 Y64.084 E39.6325
G0 F6000 X75.893 Y64.49
G1 F1200 X76.426 Y64.005 E39.72837
G1 X77.009 Y63.581 E39.82428
G1 X77.636 Y63.225 E39.9202
G1 X78.298 Y62.941 E40.01604
G1 X78.988 Y62.731 E40.11199
G1 X79.697 Y62.6 E40.20791
G1 X80.529 Y62.546 E40.31884
G1 X150.529 Y62.546 E49.63168
G1 X151.249 Y62.586 E49.72761
G1 X151.96 Y62.705 E49.82352
G1 X152.653 Y62.903 E49.91941
G1 X153.32 Y63.176 E50.01529
G1 X153.953 Y63.521 E50.1112
G1 X154.544 Y63.934 E50.20712
G1 X155.085 Y64.41 E50.30299
G1 X155.57 Y64.943 E50.39886
G1 X155.994 Y65.526 E50.49477
G1 X156.35 Y66.153 E50.5907
G1 X156.634 Y66.815 E50.68653
G1 X156.844 Y67.505 E50.78249
G1 X156.975 Y68.214 E50.87841
G1 X157.029 Y69.046 E50.98933
G1 X157.029 Y139.046 E60.30217
G1 X156.989 Y139.766 E60.39811
G1 X156.87 Y140.477 E60.49401
G1 X156.672 Y141.17 E60.5899
G1 X156.399 Y141.837 E60.68578
G1 X156.054 Y142.47 E60.78169
G1 X155.641 Y143.061 E60.87762
G1 X155.165 Y143.602 E60.97348
G1 X154.632 Y144.087 E61.06936
G1 X154.049 Y144.511 E61.16526
G1 X153.422 Y144.867 E61.26119
G1 X152.76 Y145.151 E61.35702
G1 X152.07 Y145.361 E61.45298
G1 X151.361 Y145.492 E61.5489
G1 X150.529 Y145.546 E61.65982
G1 X148.529 Y145.546 E61.92591
G1 X147.809 Y145.506 E62.02184
G1 X147.098 Y145.387 E62.11775
G1 X146.405 Y145.189 E62.21364
G1 X145.738 Y144.916 E62.30952
G1 X145.105 Y144.571 E62.40543
G1 X144.514 Y144.158 E62.50135
G1 X143.973 Y143.682 E62.59722
G1 X143.488 Y143.149 E62.6931
G1 X143.064 Y142.566 E62.789
G1 X142.708 Y141.939 E62.88493
G1 X142.424 Y141.277 E62.98076
G1 X142.214 Y140.587 E63.07672
G1 X142.083 Y139.878 E63.17264
G1 X142.031 Y139.206 E63.26231
G1 X141.953 Y136.023 E63.6859
G1 X141.731 Y133.02 E64.08652
G1 X141.362 Y130.022 E64.48838
G1 X140.845 Y127.049 E64.88985
G1 X140.183 Y124.097 E65.29234
G1 X139.38 Y121.196 E65.6928
G1 X138.434 Y118.331 E66.0942
G1 X137.349 Y115.518 E66.49532
G1 X136.12 Y112.749 E66.89836
G1 X134.761 Y110.045 E67.30098
G1 X133.285 Y107.443 E67.69897
G1 X131.663 Y104.879 E68.10261
G1 X129.916 Y102.401 E68.50598
G1 X128.075 Y100.041 E68.90419
G1 X126.095 Y97.746 E69.30745
G1 X124.014 Y95.56 E69.70898
G1 X121.83 Y93.48 E70.11023
G1 X119.539 Y91.504 E70.51274
G1 X117.162 Y89.65 E70.91379
G1 X114.695 Y87.912 E71.31527
G1 X112.148 Y86.298 E71.71643
G1 X109.516 Y84.808 E72.11881
G1 X106.829 Y83.456 E72.519
G1 X104.058 Y82.227 E72.92228
G1 X101.244 Y81.142 E73.32352
G1 X98.403 Y80.202 E73.72164
G1 X95.465 Y79.39 E74.12717
G1 X92.497 Y78.721 E74.53194
G1 X89.562 Y78.215 E74.92818
G1 X86.548 Y77.843 E75.3322
G1 X83.555 Y77.622 E75.73148
G1 X80.367 Y77.543 E76.15574
G1 X79.649 Y77.485 E76.25158
G1 X78.941 Y77.348 E76.34751
G1 X78.253 Y77.133 E76.44341
G1 X77.593 Y76.844 E76.53927
G1 X76.969 Y76.483 E76.63518
G1 X76.388 Y76.056 E76.7311
G1 X75.859 Y75.566 E76.82704
G1 X75.387 Y75.021 E76.92295
G1 X74.979 Y74.428 E77.01872
G1 X74.638 Y73.792 E77.11473
G1 X74.37 Y73.123 E77.21061
G1 X74.178 Y72.428 E77.30653
G1 X74.064 Y71.717 E77.40233
G1 X74.029 Y71.045 E77.49186
G1 X74.029 Y69.046 E77.7578
G1 X74.069 Y68.326 E77.85374
G1 X74.188 Y67.615 E77.94965
G1 X74.386 Y66.922 E78.04554
G1 X74.659 Y66.255 E78.14142
G1 X75.004 Y65.622 E78.23733
G1 X75.417 Y65.031 E78.33325
G1 X75.893 Y64.49 E78.42912
G0 F6000 X76.408 Y65.404
G1 F1200 X76.876 Y64.934 E78.51736
G1 X77.397 Y64.525 E78.60548
G1 X77.964 Y64.181 E78.69371
G1 X78.568 Y63.907 E78.78195
G1 X79.201 Y63.709 E78.87019
G1 X79.852 Y63.588 E78.95828
G1 X80.529 Y63.546 E79.04853
G1 X150.529 Y63.546 E88.36136
G1 X151.191 Y63.586 E88.4496
G1 X151.843 Y63.705 E88.53777
G1 X152.476 Y63.902 E88.62597
G1 X153.081 Y64.174 E88.71422
G1 X153.649 Y64.516 E88.80243
G1 X154.171 Y64.925 E88.89065
G1 X154.641 Y65.393 E88.9789
G1 X155.05 Y65.914 E89.06702
G1 X155.394 Y66.481 E89.15525
G1 X155.668 Y67.085 E89.24349
G1 X155.866 Y67.718 E89.33172
G1 X155.987 Y68.369 E89.41982
G1 X156.029 Y69.046 E89.51006
G1 X156.029 Y139.046 E98.8229
G1 X155.989 Y139.708 E98.91113
G1 X155.87 Y140.36 E98.99931
G1 X155.673 Y140.993 E99.0875
G1 X155.401 Y141.598 E99.17575
G1 X155.059 Y142.166 E99.26396
G1 X154.65 Y142.688 E99.35219
G1 X154.182 Y143.158 E99.44043
G1 X153.661 Y143.567 E99.52855
G1 X153.094 Y143.911 E99.61678
G1 X152.49 Y144.185 E99.70502
G1 X151.857 Y144.383 E99.79326
G1 X151.206 Y144.504 E99.88135
G1 X150.529 Y144.546 E99.97159
G1 X148.529 Y144.546 E100.23767
G1 X147.867 Y144.506 E100.32591
G1 X147.215 Y144.387 E100.41408
G1 X146.582 Y144.19 E100.50228
G1 X145.977 Y143.918 E100.59053
G1 X145.409 Y143.576 E100.67874
G1 X144.887 Y143.167 E100.76696
G1 X144.417 Y142.699 E100.85521
G1 X144.008 Y142.178 E100.94333
G1 X143.664 Y141.611 E101.03156
G1 X143.39 Y141.007 E101.1198
G1 X143.192 Y140.374 E101.20804
G1 X143.071 Y139.723 E101.29613
G1 X143.031 Y139.181 E101.36843
G1 X142.952 Y135.985 E101.79376
G1 X142.726 Y132.925 E102.20197
G1 X142.35 Y129.873 E102.61108
G1 X141.824 Y126.843 E103.02022
G1 X141.159 Y123.877 E103.42462
G1 X140.333 Y120.895 E103.83628
G1 X139.375 Y117.993 E104.24286
G1 X138.27 Y115.128 E104.65139
G1 X137.022 Y112.315 E105.06081
G1 X135.647 Y109.582 E105.46783
G1 X134.141 Y106.926 E105.87404
G1 X132.491 Y104.317 E106.28473
G1 X130.73 Y101.819 E106.69135
G1 X128.837 Y99.392 E107.10084
G1 X126.832 Y97.068 E107.50919
G1 X124.732 Y94.863 E107.9143
G1 X122.507 Y92.744 E108.32308
G1 X120.175 Y90.732 E108.73284
G1 X117.743 Y88.836 E109.1431
G1 X115.256 Y87.083 E109.54791
G1 X112.665 Y85.442 E109.95594
G1 X109.995 Y83.93 E110.36416
G1 X107.237 Y82.542 E110.77493
G1 X104.452 Y81.308 E111.18019
G1 X101.59 Y80.203 E111.58835
G1 X98.68 Y79.241 E111.9961
G1 X95.724 Y78.423 E112.40415
G1 X92.691 Y77.74 E112.81777
G1 X89.71 Y77.226 E113.22021
G1 X86.642 Y76.847 E113.63148
G1 X83.591 Y76.623 E114.03848
G1 X80.392 Y76.543 E114.46421
G1 X79.732 Y76.487 E114.55234
G1 X79.083 Y76.351 E114.64055
G1 X78.455 Y76.139 E114.72874
G1 X77.857 Y75.852 E114.81698
G1 X77.298 Y75.496 E114.90515
G1 X76.786 Y75.074 E114.99342
G1 X76.328 Y74.595 E115.08159
G1 X75.931 Y74.063 E115.16991
G1 X75.601 Y73.488 E115.25811
G1 X75.343 Y72.878 E115.34622
G1 X75.16 Y72.24 E115.43453
G1 X75.056 Y71.586 E115.52263
G1 X75.029 Y71.045 E115.59469
G1 X75.029 Y69.046 E115.86064
G1 X75.069 Y68.384 E115.94887
G1 X75.188 Y67.732 E116.03705
G1 X75.385 Y67.099 E116.12525
G1 X75.657 Y66.494 E116.2135
G1 X75.999 Y65.926 E116.30171
G1 X76.408 Y65.404 E116.38993
G0 F6000 X76.993 Y66.263
G1 F1200 X77.394 Y65.817 E116.46972
G1 X77.851 Y65.429 E116.54948
G1 X78.356 Y65.105 E116.62931
G1 X78.899 Y64.851 E116.70906
G1 X79.472 Y64.672 E116.78892
G1 X80.062 Y64.57 E116.86858
G1 X80.529 Y64.546 E116.93079
G1 X150.529 Y64.546 E126.24363
G1 X151.127 Y64.586 E126.32337
G1 X151.715 Y64.705 E126.40318
G1 X152.282 Y64.901 E126.483
G1 X152.817 Y65.171 E126.56272
G1 X153.312 Y65.51 E126.64254
G1 X153.758 Y65.911 E126.72233
G1 X154.146 Y66.368 E126.80209
G1 X154.47 Y66.873 E126.88192
G1 X154.724 Y67.416 E126.96167
G1 X154.903 Y67.989 E127.04154
G1 X155.005 Y68.579 E127.12119
G1 X155.029 Y69.046 E127.18341
G1 X155.029 Y139.046 E136.49624
G1 X154.989 Y139.644 E136.57598
G1 X154.87 Y140.232 E136.65579
G1 X154.674 Y140.799 E136.73561
G1 X154.404 Y141.334 E136.81533
G1 X154.065 Y141.829 E136.89515
G1 X153.664 Y142.275 E136.97495
G1 X153.207 Y142.663 E137.0547
G1 X152.702 Y142.987 E137.13453
G1 X152.159 Y143.241 E137.21428
G1 X151.586 Y143.42 E137.29415
G1 X150.996 Y143.522 E137.3738
G1 X150.529 Y143.546 E137.43602
G1 X148.529 Y143.546 E137.7021
G1 X147.931 Y143.506 E137.78183
G1 X147.343 Y143.387 E137.86165
G1 X146.776 Y143.191 E137.94146
G1 X146.241 Y142.921 E138.02119
G1 X145.746 Y142.582 E138.10101
G1 X145.3 Y142.181 E138.1808
G1 X144.912 Y141.724 E138.26056
G1 X144.588 Y141.219 E138.34038
G1 X144.334 Y140.676 E138.42013
G1 X144.155 Y140.103 E138.5
G1 X144.053 Y139.513 E138.57966
G1 X144.03 Y139.157 E138.62712
G1 X143.951 Y135.928 E139.05684
G1 X143.72 Y132.81 E139.47279
G1 X143.342 Y129.741 E139.88418
G1 X142.807 Y126.657 E140.3006
G1 X142.124 Y123.615 E140.71539
G1 X141.291 Y120.606 E141.13077
G1 X140.318 Y117.66 E141.54353
G1 X139.19 Y114.734 E141.96073
G1 X137.933 Y111.9 E142.37319
G1 X136.537 Y109.126 E142.78634
G1 X134.988 Y106.394 E143.20416
G1 X133.328 Y103.77 E143.61725
G1 X131.527 Y101.214 E144.03324
G1 X129.608 Y98.754 E144.44832
G1 X127.586 Y96.41 E144.86017
G1 X125.429 Y94.145 E145.27628
G1 X123.165 Y91.99 E145.69212
G1 X120.822 Y89.968 E146.10387
G1 X118.361 Y88.048 E146.51913
G1 X115.794 Y86.24 E146.93685
G1 X113.182 Y84.586 E147.34817
G1 X110.467 Y83.048 E147.7633
G1 X107.669 Y81.64 E148.18002
G1 X104.828 Y80.381 E148.59344
G1 X101.917 Y79.258 E149.00854
G1 X98.975 Y78.284 E149.42084
G1 X95.964 Y77.452 E149.83644
G1 X92.904 Y76.762 E150.25376
G1 X89.836 Y76.233 E150.66796
G1 X86.757 Y75.853 E151.0807
G1 X83.649 Y75.624 E151.49531
G1 X80.417 Y75.544 E151.92543
G1 X79.82 Y75.489 E152.00519
G1 X79.235 Y75.355 E152.08503
G1 X78.674 Y75.145 E152.16472
G1 X78.145 Y74.862 E152.24454
G1 X77.659 Y74.511 E152.3243
G1 X77.223 Y74.098 E152.4042
G1 X76.847 Y73.632 E152.48386
G1 X76.536 Y73.119 E152.56367
G1 X76.295 Y72.57 E152.64344
G1 X76.13 Y71.993 E152.72328
G1 X76.043 Y71.4 E152.80302
G1 X76.029 Y71.045 E152.85028
G1 X76.029 Y69.046 E153.11623
G1 X76.069 Y68.448 E153.19597
G1 X76.188 Y67.86 E153.27578
G1 X76.384 Y67.293 E153.35559
G1 X76.654 Y66.758 E153.43532
G1 X76.993 Y66.263 E153.51514
G0 F6000 X77.983 Y66.645
G1 F1200 X78.374 Y66.288 E153.58558
G1 X78.814 Y65.995 E153.65591
G1 X79.293 Y65.772 E153.7262
G1 X79.8 Y65.623 E153.79651
G1 X80.529 Y65.546 E153.89403
G1 X150.529 Y65.546 E163.20687
G1 X151.056 Y65.586 E163.27718
G1 X151.571 Y65.705 E163.34751
G1 X152.063 Y65.9 E163.41792
G1 X152.519 Y66.167 E163.48822
G1 X152.93 Y66.5 E163.55859
G1 X153.287 Y66.891 E163.62903
G1 X153.58 Y67.331 E163.69936
G1 X153.803 Y67.81 E163.76965
G1 X153.952 Y68.317 E163.83996
G1 X154.029 Y69.046 E163.93748
G1 X154.029 Y139.046 E173.25032
G1 X153.989 Y139.573 E173.32064
G1 X153.87 Y140.088 E173.39096
G1 X153.675 Y140.58 E173.46137
G1 X153.408 Y141.036 E173.53167
G1 X153.075 Y141.447 E173.60204
G1 X152.684 Y141.804 E173.67248
G1 X152.244 Y142.097 E173.74281
G1 X151.765 Y142.32 E173.81311
G1 X151.258 Y142.469 E173.88341
G1 X150.529 Y142.546 E173.98094
G1 X148.529 Y142.546 E174.24702
G1 X148.002 Y142.506 E174.31733
G1 X147.487 Y142.387 E174.38765
G1 X146.995 Y142.192 E174.45806
G1 X146.539 Y141.925 E174.52836
G1 X146.128 Y141.592 E174.59874
G1 X145.771 Y141.201 E174.66918
G1 X145.478 Y140.761 E174.73951
G1 X145.255 Y140.282 E174.8098
G1 X145.106 Y139.775 E174.8801
G1 X145.03 Y139.132 E174.96624
G1 X144.95 Y135.87 E175.40035
G1 X144.718 Y132.738 E175.81818
G1 X144.328 Y129.569 E176.24296
G1 X143.79 Y126.471 E176.66129
G1 X143.094 Y123.371 E177.08399
G1 X142.252 Y120.329 E177.50391
G1 X141.257 Y117.315 E177.92618
G1 X140.113 Y114.35 E178.34899
G1 X138.842 Y111.483 E178.76622
G1 X137.41 Y108.637 E179.19008
G1 X135.85 Y105.885 E179.61094
G1 X134.156 Y103.209 E180.0323
G1 X132.332 Y100.619 E180.45374
G1 X130.389 Y98.13 E180.87383
G1 X128.321 Y95.732 E181.29511
G1 X126.137 Y93.438 E181.7165
G1 X123.843 Y91.254 E182.13789
G1 X121.459 Y89.197 E182.5568
G1 X118.942 Y87.234 E182.98146
G1 X116.369 Y85.422 E183.40014
G1 X113.692 Y83.726 E183.82175
G1 X110.921 Y82.157 E184.2454
G1 X108.11 Y80.742 E184.66409
G1 X105.204 Y79.454 E185.08698
G1 X102.263 Y78.319 E185.50638
G1 X99.257 Y77.325 E185.92759
G1 X96.198 Y76.479 E186.34984
G1 X93.098 Y75.78 E186.77262
G1 X90.004 Y75.247 E187.19031
G1 X86.851 Y74.858 E187.61297
G1 X83.685 Y74.625 E188.03532
G1 X80.442 Y74.544 E188.4669
G1 X79.916 Y74.491 E188.53723
G1 X79.404 Y74.359 E188.60758
G1 X78.917 Y74.152 E188.67798
G1 X78.468 Y73.874 E188.74824
G1 X78.065 Y73.531 E188.81864
G1 X77.719 Y73.131 E188.88901
G1 X77.437 Y72.684 E188.95932
G1 X77.225 Y72.199 E189.02974
G1 X77.089 Y71.689 E189.09996
G1 X77.029 Y71.045 E189.18601
G1 X77.029 Y69.046 E189.45196
