;FLAVOR:Marlin
;TIME:720
;Filament used: 1.24438m
;Layer height: 0.32
;MINX:87.987
;MINY:87.048
;MINZ:0.32
;MAXX:132.013
;MAXY:132.952
;MAXZ:9.92
;Generated with Cura_SteamEngine 4.12.1
M140 S60
M105
M190 S60
M104 S200
M105
M109 S200
M82 ;absolute extrusion mode
; Ender 3 Custom Start G-code
G92 E0 ; Reset Extruder
G28 ; Home all axes
G29 ; bed level adjust
G1 Z2.0 F3000 ; Move Z Axis up little to prevent scratching of Heat Bed
G1 X0.1 Y20 Z0.3 F5000.0 ; Move to start position
G1 X0.1 Y200.0 Z0.3 F1500.0 E15 ; Draw the first line
G1 X0.4 Y200.0 Z0.3 F5000.0 ; Move to side a little
G1 X0.4 Y20 Z0.3 F1500.0 E30 ; Draw the second line
G92 E0 ; Reset Extruder
G1 Z2.0 F3000 ; Move Z Axis up little to prevent scratching of Heat Bed
G1 X5 Y20 Z0.3 F5000.0 ; Move over to prevent blob squish
G92 E0
G92 E0
G1 F1500 E-6.5
;LAYER_COUNT:31
;LAYER:0
M107
G0 F6000 X91.026 Y107.456 Z0.32
;TYPE:SKIRT
G1 F1500 E0
G1 F1200 X91.655 Y106.996 E0.08294
G1 X92.328 Y106.602 E0.16594
G1 X93.038 Y106.28 E0.24891
G1 X93.777 Y106.032 E0.33188
G1 X94.537 Y105.861 E0.41479
G1 X95.311 Y105.769 E0.49775
G1 X95.821 Y105.752 E0.55206
G1 X106.813 Y105.752 E1.72196
G1 X106.813 Y94.882 E2.87889
G1 X106.853 Y94.104 E2.9618
G1 X106.972 Y93.333 E3.04483
G1 X107.17 Y92.579 E3.1278
G1 X107.444 Y91.85 E3.21069
G1 X107.791 Y91.152 E3.29365
G1 X108.208 Y90.493 E3.37665
G1 X108.691 Y89.881 E3.45963
G1 X109.039 Y89.508 E3.51393
G1 X109.273 Y89.274 E3.54915
G1 X109.852 Y88.752 E3.63212
G1 X110.481 Y88.292 E3.71506
G1 X111.154 Y87.898 E3.79806
G1 X111.864 Y87.576 E3.88104
G1 X112.603 Y87.328 E3.964
G1 X113.363 Y87.157 E4.04691
G1 X114.137 Y87.065 E4.12987
G1 X114.647 Y87.048 E4.18418
G1 X116.179 Y87.048 E4.34723
G1 X116.957 Y87.088 E4.43015
G1 X117.728 Y87.207 E4.51318
G1 X118.482 Y87.405 E4.59615
G1 X119.211 Y87.679 E4.67904
G1 X119.414 Y87.78 E4.70317
G1 X119.864 Y87.576 E4.75576
G1 X120.603 Y87.328 E4.83872
G1 X121.363 Y87.157 E4.92163
G1 X122.137 Y87.065 E5.00459
G1 X122.647 Y87.048 E5.0589
G1 X124.179 Y87.048 E5.22196
G1 X124.957 Y87.088 E5.30487
G1 X125.728 Y87.207 E5.3879
G1 X126.482 Y87.405 E5.47087
G1 X127.211 Y87.679 E5.55376
G1 X127.909 Y88.026 E5.63672
G1 X128.568 Y88.443 E5.71973
G1 X129.18 Y88.926 E5.8027
G1 X129.553 Y89.274 E5.857
G1 X129.787 Y89.508 E5.89222
G1 X130.309 Y90.087 E5.97519
G1 X130.769 Y90.716 E6.05813
G1 X131.163 Y91.389 E6.14113
G1 X131.485 Y92.099 E6.22411
G1 X131.733 Y92.838 E6.30707
G1 X131.904 Y93.598 E6.38998
G1 X131.996 Y94.372 E6.47294
G1 X132.013 Y94.882 E6.52725
G1 X132.013 Y125.118 E9.74534
G1 X131.973 Y125.896 E9.82826
G1 X131.854 Y126.667 E9.91129
G1 X131.656 Y127.421 E9.99426
G1 X131.382 Y128.15 E10.07715
G1 X131.035 Y128.848 E10.16011
G1 X130.618 Y129.507 E10.24311
G1 X130.135 Y130.119 E10.32609
G1 X129.787 Y130.492 E10.38038
G1 X129.553 Y130.726 E10.41561
G1 X128.974 Y131.248 E10.49858
G1 X128.345 Y131.708 E10.58151
G1 X127.672 Y132.102 E10.66452
G1 X126.962 Y132.424 E10.74749
G1 X126.223 Y132.672 E10.83046
G1 X125.463 Y132.843 E10.91337
G1 X124.689 Y132.935 E10.99633
G1 X124.179 Y132.952 E11.05064
G1 X95.943 Y132.952 E14.05586
G1 X95.165 Y132.912 E14.13878
G1 X94.394 Y132.793 E14.22181
G1 X93.64 Y132.595 E14.30478
G1 X92.911 Y132.321 E14.38767
G1 X92.213 Y131.974 E14.47063
G1 X91.554 Y131.557 E14.55363
G1 X90.942 Y131.074 E14.63661
G1 X90.569 Y130.726 E14.6909
G1 X90.335 Y130.492 E14.72613
G1 X89.813 Y129.913 E14.8091
G1 X89.353 Y129.284 E14.89204
G1 X88.959 Y128.611 E14.97504
G1 X88.637 Y127.901 E15.05801
G1 X88.389 Y127.162 E15.14098
G1 X88.218 Y126.402 E15.22389
G1 X88.126 Y125.628 E15.30685
G1 X88.109 Y125.118 E15.36116
G1 X88.109 Y123.586 E15.52421
G1 X88.149 Y122.808 E15.60712
G1 X88.268 Y122.037 E15.69016
G1 X88.466 Y121.283 E15.77313
G1 X88.74 Y120.554 E15.85602
G1 X89.087 Y119.856 E15.93898
G1 X89.348 Y119.444 E15.99089
G1 X89.231 Y119.284 E16.01198
G1 X88.837 Y118.611 E16.09499
G1 X88.515 Y117.901 E16.17796
G1 X88.267 Y117.162 E16.26093
G1 X88.096 Y116.402 E16.34384
G1 X88.004 Y115.628 E16.42679
G1 X87.987 Y115.118 E16.48111
G1 X87.987 Y113.586 E16.64416
G1 X88.027 Y112.808 E16.72707
G1 X88.146 Y112.037 E16.8101
G1 X88.344 Y111.283 E16.89308
G1 X88.618 Y110.554 E16.97596
G1 X88.965 Y109.856 E17.05893
G1 X89.382 Y109.197 E17.14193
G1 X89.865 Y108.585 E17.22491
G1 X90.213 Y108.212 E17.2792
G1 X90.447 Y107.978 E17.31442
G1 X91.026 Y107.456 E17.3974
G0 F6000 X91.562 Y108.051
G1 F1200 X92.16 Y107.621 E17.47579
G1 X92.802 Y107.259 E17.55423
G1 X93.48 Y106.968 E17.63276
G1 X94.185 Y106.752 E17.71124
G1 X94.909 Y106.613 E17.7897
G1 X95.821 Y106.552 E17.88698
G1 X107.613 Y106.552 E19.14203
G1 X107.613 Y94.882 E20.3841
G1 X107.653 Y94.146 E20.46255
G1 X107.772 Y93.418 E20.54106
G1 X107.97 Y92.708 E20.61951
G1 X108.243 Y92.023 E20.698
G1 X108.589 Y91.372 E20.77646
G1 X109.003 Y90.762 E20.85493
G1 X109.605 Y90.074 E20.95223
G1 X109.839 Y89.84 E20.98745
G1 X110.388 Y89.347 E21.06598
G1 X110.986 Y88.917 E21.14437
G1 X111.628 Y88.555 E21.22282
G1 X112.306 Y88.264 E21.30134
G1 X113.011 Y88.048 E21.37982
G1 X113.735 Y87.909 E21.45829
G1 X114.647 Y87.848 E21.55557
G1 X116.179 Y87.848 E21.71862
G1 X116.915 Y87.888 E21.79707
G1 X117.643 Y88.007 E21.87558
G1 X118.353 Y88.205 E21.95403
G1 X119.038 Y88.478 E22.03252
G1 X119.412 Y88.677 E22.07761
G1 X119.628 Y88.555 E22.10401
G1 X120.306 Y88.264 E22.18254
G1 X121.011 Y88.048 E22.26101
G1 X121.735 Y87.909 E22.33948
G1 X122.647 Y87.848 E22.43676
G1 X124.179 Y87.848 E22.59982
G1 X124.915 Y87.888 E22.67827
G1 X125.643 Y88.007 E22.75678
G1 X126.353 Y88.205 E22.83523
G1 X127.038 Y88.478 E22.91371
G1 X127.689 Y88.824 E22.99218
G1 X128.299 Y89.238 E23.07064
G1 X128.987 Y89.84 E23.16794
G1 X129.221 Y90.074 E23.20316
G1 X129.714 Y90.623 E23.2817
G1 X130.144 Y91.221 E23.36009
G1 X130.506 Y91.863 E23.43853
G1 X130.797 Y92.541 E23.51706
G1 X131.013 Y93.246 E23.59554
G1 X131.152 Y93.97 E23.674
G1 X131.213 Y94.882 E23.77128
G1 X131.213 Y125.118 E26.98938
G1 X131.173 Y125.854 E27.06782
G1 X131.054 Y126.582 E27.14634
G1 X130.856 Y127.292 E27.22479
G1 X130.583 Y127.977 E27.30327
G1 X130.237 Y128.628 E27.38174
G1 X129.823 Y129.238 E27.4602
G1 X129.221 Y129.926 E27.5575
G1 X128.987 Y130.16 E27.59272
G1 X128.438 Y130.653 E27.67125
G1 X127.84 Y131.083 E27.74965
G1 X127.198 Y131.445 E27.82809
G1 X126.52 Y131.736 E27.90662
G1 X125.815 Y131.952 E27.98509
G1 X125.091 Y132.091 E28.06356
G1 X124.179 Y132.152 E28.16084
G1 X95.943 Y132.152 E31.16607
G1 X95.207 Y132.112 E31.24452
G1 X94.479 Y131.993 E31.32303
G1 X93.769 Y131.795 E31.40148
G1 X93.084 Y131.522 E31.47996
G1 X92.433 Y131.176 E31.55843
G1 X91.823 Y130.762 E31.63689
G1 X91.135 Y130.16 E31.73419
G1 X90.901 Y129.926 E31.76941
G1 X90.408 Y129.377 E31.84795
G1 X89.978 Y128.779 E31.92634
G1 X89.616 Y128.137 E32.00478
G1 X89.325 Y127.459 E32.08331
G1 X89.109 Y126.754 E32.16179
G1 X88.97 Y126.03 E32.24025
G1 X88.909 Y125.118 E32.33754
G1 X88.909 Y123.586 E32.50059
G1 X88.949 Y122.85 E32.57904
G1 X89.068 Y122.122 E32.65755
G1 X89.266 Y121.412 E32.736
G1 X89.539 Y120.727 E32.81448
G1 X89.885 Y120.076 E32.89295
G1 X90.299 Y119.466 E32.97141
G1 X90.332 Y119.428 E32.97677
G1 X90.286 Y119.377 E32.98408
G1 X89.856 Y118.779 E33.06247
G1 X89.494 Y118.137 E33.14092
G1 X89.203 Y117.459 E33.21944
G1 X88.987 Y116.754 E33.29792
G1 X88.848 Y116.03 E33.37639
G1 X88.787 Y115.118 E33.47367
G1 X88.787 Y113.586 E33.63672
G1 X88.827 Y112.85 E33.71517
G1 X88.946 Y112.122 E33.79369
G1 X89.144 Y111.412 E33.87214
G1 X89.417 Y110.727 E33.95062
G1 X89.763 Y110.076 E34.02908
G1 X90.177 Y109.466 E34.10755
G1 X90.779 Y108.778 E34.20485
G1 X91.013 Y108.544 E34.24007
G1 X91.562 Y108.051 E34.3186
G0 F6000 X92.095 Y108.649
G1 F1200 X92.662 Y108.251 E34.39233
G1 X93.271 Y107.921 E34.46605
G1 X93.914 Y107.663 E34.53979
G1 X94.582 Y107.481 E34.61348
G1 X95.267 Y107.378 E34.68721
G1 X95.821 Y107.352 E34.74624
G1 X108.413 Y107.352 E36.08643
G1 X108.413 Y94.882 E37.41365
G1 X108.453 Y94.191 E37.48731
G1 X108.572 Y93.508 E37.5611
G1 X108.77 Y92.845 E37.63475
G1 X109.042 Y92.208 E37.70847
G1 X109.386 Y91.607 E37.78217
G1 X109.797 Y91.049 E37.85593
G1 X110.17 Y90.639 E37.91492
G1 X110.404 Y90.405 E37.95015
G1 X110.921 Y89.945 E38.0238
G1 X111.488 Y89.547 E38.09753
G1 X112.097 Y89.217 E38.17125
G1 X112.74 Y88.959 E38.24499
G1 X113.408 Y88.777 E38.31868
G1 X114.093 Y88.674 E38.3924
G1 X114.647 Y88.648 E38.45143
G1 X116.179 Y88.648 E38.61449
G1 X116.87 Y88.688 E38.68816
G1 X117.553 Y88.807 E38.76194
G1 X118.216 Y89.005 E38.83559
G1 X118.853 Y89.277 E38.90931
G1 X119.415 Y89.598 E38.97819
G1 X119.488 Y89.547 E38.98767
G1 X120.097 Y89.217 E39.06139
G1 X120.74 Y88.959 E39.13513
G1 X121.408 Y88.777 E39.20882
G1 X122.093 Y88.674 E39.28255
G1 X122.647 Y88.648 E39.34157
G1 X124.179 Y88.648 E39.50463
G1 X124.87 Y88.688 E39.5783
G1 X125.553 Y88.807 E39.65208
G1 X126.216 Y89.005 E39.72573
G1 X126.853 Y89.277 E39.79945
G1 X127.454 Y89.621 E39.87315
G1 X128.012 Y90.032 E39.94691
G1 X128.422 Y90.405 E40.00591
G1 X128.656 Y90.639 E40.04113
G1 X129.116 Y91.156 E40.11478
G1 X129.514 Y91.723 E40.18851
G1 X129.844 Y92.332 E40.26223
G1 X130.102 Y92.975 E40.33597
G1 X130.284 Y93.643 E40.40966
G1 X130.387 Y94.328 E40.48339
G1 X130.413 Y94.882 E40.54241
G1 X130.413 Y125.118 E43.76051
G1 X130.373 Y125.809 E43.83417
G1 X130.254 Y126.492 E43.90796
G1 X130.056 Y127.155 E43.98161
G1 X129.784 Y127.792 E44.05533
G1 X129.44 Y128.393 E44.12903
G1 X129.029 Y128.951 E44.20279
G1 X128.656 Y129.361 E44.26178
G1 X128.422 Y129.595 E44.297
G1 X127.905 Y130.055 E44.37066
G1 X127.338 Y130.453 E44.44439
G1 X126.729 Y130.783 E44.51811
G1 X126.086 Y131.041 E44.59185
G1 X125.418 Y131.223 E44.66554
G1 X124.733 Y131.326 E44.73926
G1 X124.179 Y131.352 E44.79829
G1 X95.943 Y131.352 E47.80352
G1 X95.252 Y131.312 E47.87719
G1 X94.569 Y131.193 E47.95097
G1 X93.906 Y130.995 E48.02462
G1 X93.269 Y130.723 E48.09834
G1 X92.668 Y130.379 E48.17204
G1 X92.11 Y129.968 E48.2458
G1 X91.7 Y129.595 E48.30479
G1 X91.466 Y129.361 E48.34002
G1 X91.006 Y128.844 E48.41367
G1 X90.608 Y128.277 E48.4874
G1 X90.278 Y127.668 E48.56112
G1 X90.02 Y127.025 E48.63486
G1 X89.838 Y126.357 E48.70855
G1 X89.735 Y125.672 E48.78228
G1 X89.709 Y125.118 E48.8413
G1 X89.709 Y123.586 E49.00436
G1 X89.749 Y122.895 E49.07803
G1 X89.868 Y122.212 E49.15181
G1 X90.066 Y121.549 E49.22546
G1 X90.338 Y120.912 E49.29918
G1 X90.682 Y120.311 E49.37288
G1 X91.093 Y119.753 E49.44664
G1 X91.399 Y119.416 E49.49509
G1 X91.344 Y119.361 E49.50337
G1 X90.884 Y118.844 E49.57702
G1 X90.486 Y118.277 E49.65075
G1 X90.156 Y117.668 E49.72447
G1 X89.898 Y117.025 E49.79821
G1 X89.716 Y116.357 E49.8719
G1 X89.613 Y115.672 E49.94563
G1 X89.587 Y115.118 E50.00466
G1 X89.587 Y113.586 E50.16771
G1 X89.627 Y112.895 E50.24138
G1 X89.746 Y112.212 E50.31517
G1 X89.944 Y111.549 E50.38881
G1 X90.216 Y110.912 E50.46253
G1 X90.56 Y110.311 E50.53623
G1 X90.971 Y109.753 E50.60999
G1 X91.344 Y109.343 E50.66899
G1 X91.578 Y109.109 E50.70421
G1 X92.095 Y108.649 E50.77786
G0 F6000 X92.627 Y109.248
G1 F1200 X93.16 Y108.885 E50.8465
G1 X93.733 Y108.59 E50.91509
G1 X94.338 Y108.368 E50.98368
G1 X94.966 Y108.223 E51.05228
G1 X95.821 Y108.152 E51.14359
G1 X109.213 Y108.152 E52.56893
G1 X109.213 Y94.882 E53.98129
G1 X109.253 Y94.239 E54.04986
G1 X109.372 Y93.605 E54.11852
G1 X109.569 Y92.991 E54.18715
G1 X109.84 Y92.406 E54.25577
G1 X110.182 Y91.859 E54.32443
G1 X110.736 Y91.205 E54.41565
G1 X110.97 Y90.971 E54.45087
G1 X111.453 Y90.544 E54.51949
G1 X111.986 Y90.181 E54.58812
G1 X112.559 Y89.886 E54.65672
G1 X113.164 Y89.664 E54.72531
G1 X113.792 Y89.519 E54.79391
G1 X114.647 Y89.448 E54.88522
G1 X116.179 Y89.448 E55.04827
G1 X116.822 Y89.488 E55.11684
G1 X117.456 Y89.607 E55.1855
G1 X118.07 Y89.804 E55.25413
G1 X118.655 Y90.075 E55.32275
G1 X119.202 Y90.417 E55.39141
G1 X119.404 Y90.588 E55.41958
G1 X119.453 Y90.544 E55.42659
G1 X119.986 Y90.181 E55.49522
G1 X120.559 Y89.886 E55.56382
G1 X121.164 Y89.664 E55.63241
G1 X121.792 Y89.519 E55.701
G1 X122.647 Y89.448 E55.79232
G1 X124.179 Y89.448 E55.95537
G1 X124.822 Y89.488 E56.02394
G1 X125.456 Y89.607 E56.0926
G1 X126.07 Y89.804 E56.16123
G1 X126.655 Y90.075 E56.22985
G1 X127.202 Y90.417 E56.29851
G1 X127.856 Y90.971 E56.38973
G1 X128.09 Y91.205 E56.42495
G1 X128.517 Y91.688 E56.49357
G1 X128.88 Y92.221 E56.5622
G1 X129.175 Y92.794 E56.6308
G1 X129.397 Y93.399 E56.69939
G1 X129.542 Y94.027 E56.76798
G1 X129.613 Y94.882 E56.8593
G1 X129.613 Y125.118 E60.07739
G1 X129.573 Y125.761 E60.14596
G1 X129.454 Y126.395 E60.21461
G1 X129.257 Y127.009 E60.28324
G1 X128.986 Y127.594 E60.35186
G1 X128.644 Y128.141 E60.42052
G1 X128.09 Y128.795 E60.51175
G1 X127.856 Y129.029 E60.54697
G1 X127.373 Y129.456 E60.61558
G1 X126.84 Y129.819 E60.68422
G1 X126.267 Y130.114 E60.75281
G1 X125.662 Y130.336 E60.8214
G1 X125.034 Y130.481 E60.89
G1 X124.179 Y130.552 E60.98131
G1 X95.943 Y130.552 E63.98654
G1 X95.3 Y130.512 E64.05511
G1 X94.666 Y130.393 E64.12377
G1 X94.052 Y130.196 E64.1924
G1 X93.467 Y129.925 E64.26102
G1 X92.92 Y129.583 E64.32968
G1 X92.266 Y129.029 E64.4209
G1 X92.032 Y128.795 E64.45612
G1 X91.605 Y128.312 E64.52474
G1 X91.242 Y127.779 E64.59337
G1 X90.947 Y127.206 E64.66197
G1 X90.725 Y126.601 E64.73056
G1 X90.58 Y125.973 E64.79915
G1 X90.509 Y125.118 E64.89047
G1 X90.509 Y123.586 E65.05352
G1 X90.549 Y122.943 E65.12209
G1 X90.668 Y122.309 E65.19075
G1 X90.865 Y121.695 E65.25938
G1 X91.136 Y121.11 E65.328
G1 X91.478 Y120.563 E65.39666
G1 X92.032 Y119.909 E65.48788
G1 X92.266 Y119.675 E65.5231
G1 X92.579 Y119.398 E65.56759
G1 X92.144 Y119.029 E65.6283
G1 X91.91 Y118.795 E65.66352
G1 X91.483 Y118.312 E65.73214
G1 X91.12 Y117.779 E65.80077
G1 X90.825 Y117.206 E65.86936
G1 X90.603 Y116.601 E65.93795
G1 X90.458 Y115.973 E66.00655
G1 X90.387 Y115.118 E66.09787
G1 X90.387 Y113.586 E66.26092
G1 X90.427 Y112.943 E66.32949
G1 X90.546 Y112.309 E66.39814
G1 X90.743 Y111.695 E66.46678
G1 X91.014 Y111.11 E66.53539
G1 X91.356 Y110.563 E66.60406
G1 X91.91 Y109.909 E66.69528
G1 X92.144 Y109.675 E66.7305
G1 X92.627 Y109.248 E66.79912
G0 F6000 X93.156 Y109.851
G1 F1200 X93.651 Y109.524 E66.86226
G1 X94.186 Y109.267 E66.92543
G1 X94.75 Y109.084 E66.98854
G1 X95.333 Y108.979 E67.05159
G1 X95.821 Y108.952 E67.1036
G1 X110.013 Y108.952 E68.61409
G1 X110.013 Y94.882 E70.1116
G1 X110.053 Y94.29 E70.17475
G1 X110.172 Y93.71 E70.23777
G1 X110.368 Y93.15 E70.30091
G1 X110.638 Y92.622 E70.36403
G1 X110.976 Y92.135 E70.42712
G1 X111.302 Y91.771 E70.47913
G1 X111.536 Y91.537 E70.51435
G1 X111.982 Y91.147 E70.57741
G1 X112.477 Y90.82 E70.64055
G1 X113.012 Y90.563 E70.70372
G1 X113.576 Y90.38 E70.76683
G1 X114.159 Y90.275 E70.82988
G1 X114.647 Y90.248 E70.8819
G1 X116.179 Y90.248 E71.04495
G1 X116.771 Y90.288 E71.1081
G1 X117.351 Y90.407 E71.17112
G1 X117.911 Y90.603 E71.23427
G1 X118.439 Y90.873 E71.29739
G1 X118.926 Y91.211 E71.36048
G1 X119.29 Y91.537 E71.41249
G1 X119.413 Y91.66 E71.431
G1 X119.536 Y91.537 E71.44951
G1 X119.982 Y91.147 E71.51257
G1 X120.477 Y90.82 E71.57571
G1 X121.012 Y90.563 E71.63888
G1 X121.576 Y90.38 E71.70199
G1 X122.159 Y90.275 E71.76504
G1 X122.647 Y90.248 E71.81706
G1 X124.179 Y90.248 E71.98011
G1 X124.771 Y90.288 E72.04327
G1 X125.351 Y90.407 E72.10628
G1 X125.911 Y90.603 E72.16943
G1 X126.439 Y90.873 E72.23255
G1 X126.926 Y91.211 E72.29564
G1 X127.29 Y91.537 E72.34765
G1 X127.524 Y91.771 E72.38287
G1 X127.914 Y92.217 E72.44593
G1 X128.241 Y92.712 E72.50907
G1 X128.498 Y93.247 E72.57224
G1 X128.681 Y93.811 E72.63535
G1 X128.786 Y94.394 E72.6984
G1 X128.813 Y94.882 E72.75042
G1 X128.813 Y125.118 E75.96851
G1 X128.773 Y125.71 E76.03166
G1 X128.654 Y126.29 E76.09467
G1 X128.458 Y126.85 E76.15782
G1 X128.188 Y127.378 E76.22094
G1 X127.85 Y127.865 E76.28403
G1 X127.524 Y128.229 E76.33604
G1 X127.29 Y128.463 E76.37126
G1 X126.844 Y128.853 E76.43432
G1 X126.349 Y129.18 E76.49746
G1 X125.814 Y129.437 E76.56063
G1 X125.25 Y129.62 E76.62374
G1 X124.667 Y129.725 E76.68679
G1 X124.179 Y129.752 E76.73881
G1 X95.943 Y129.752 E79.74403
G1 X95.351 Y129.712 E79.80718
G1 X94.771 Y129.593 E79.8702
G1 X94.211 Y129.397 E79.93335
G1 X93.683 Y129.127 E79.99647
G1 X93.196 Y128.789 E80.05956
