;FLAVOR:Marlin
;TIME:4572
;Filament used: 12.9062m
;Layer height: 0.32
;MINX:57.5
;MINY:57.5
;MINZ:0.32
;MAXX:162.5
;MAXY:162.5
;MAXZ:59.84
;Generated with Cura_SteamEngine 5.3.0
M82 ;absolute extrusion mode
; Script based on an original created by tjjfvi (https://github.com/tjjfvi)
; An up-to-date version of the tjjfvi's original script can be found
; here:  https://csi.t6.fyi/
; Note - This script will only work in Cura V4.2 and above!
; --- Global Settings
; layer_height = 0.32
; smooth_spiralized_contours = True
; magic_mesh_surface_mode = normal
; machine_extruder_count = 1
; --- Single Extruder Settings
; speed_z_hop = 5
; retraction_amount = 6.5
; retraction_hop = 0.2
; retraction_hop_enabled = False
; retraction_enable = True
; retraction_speed = 25
; retraction_retract_speed = 25
; retraction_prime_speed = 25
; speed_travel = 150.0

; Ender 3 Custom Start G-code
G92 E0 ; Reset Extruder
G28 ; Home all axes
G29 ; auto bed leveling
M104 S175 ; Start heating up the nozzle most of the way
M190 S60 ; Start heating the bed, wait until target temperature reached
M109 S200 ; Finish heating the nozzle
G1 Z2.0 F3000 ; Move Z Axis up little to prevent scratching of Heat Bed
G1 X0.1 Y20 Z0.3 F5000.0 ; Move to start position
G1 X0.1 Y200.0 Z0.3 F1500.0 E15 ; Draw the first line
G1 X0.4 Y200.0 Z0.3 F5000.0 ; Move to side a little
G1 X0.4 Y20 Z0.3 F1500.0 E30 ; Draw the second line
G92 E0 ; Reset Extruder
G1 Z2.0 F3000 ; Move Z Axis up little to prevent scratching of Heat Bed
G1 X5 Y20 Z0.3 F5000.0 ; Move over to prevent blob squish
G92 E0
G92 E0
G1 F1500 E-6.5
;LAYER_COUNT:188
;LAYER:0
M107
G0 F6000 X62.687 Y62.483 Z0.32
;TYPE:SKIRT
G1 F1500 E0
G1 F1200 X63.371 Y61.873 E0.12193
G1 X64.106 Y61.325 E0.2439
G1 X64.886 Y60.844 E0.36582
G1 X65.704 Y60.432 E0.48767
G1 X66.555 Y60.093 E0.60954
G1 X67.433 Y59.83 E0.73148
G1 X68.33 Y59.644 E0.85335
G1 X69.24 Y59.537 E0.97525
G1 X69.715 Y59.513 E1.03853
G1 X70.33 Y59.5 E1.12037
G1 X149.443 Y59.501 E11.6456
G1 X150.141 Y59.511 E11.73848
G1 X151.056 Y59.564 E11.86041
G1 X151.963 Y59.697 E11.98237
G1 X152.854 Y59.908 E12.10419
G1 X153.724 Y60.196 E12.22611
G1 X154.566 Y60.559 E12.3481
G1 X155.372 Y60.994 E12.46995
G1 X156.138 Y61.497 E12.59186
G1 X156.857 Y62.066 E12.71385
G1 X157.523 Y62.694 E12.83563
G1 X158.132 Y63.379 E12.95758
G1 X158.679 Y64.114 E13.07947
G1 X159.16 Y64.894 E13.20138
G1 X159.571 Y65.713 E13.3233
G1 X159.91 Y66.564 E13.44517
G1 X160.172 Y67.442 E13.56706
G1 X160.357 Y68.34 E13.68904
G1 X160.463 Y69.25 E13.81093
G1 X160.487 Y69.715 E13.87288
G1 X160.5 Y70.33 E13.95471
G1 X160.499 Y149.394 E24.47343
G1 X160.49 Y150.121 E24.57016
G1 X160.439 Y151.036 E24.69208
G1 X160.308 Y151.943 E24.814
G1 X160.099 Y152.835 E24.93589
G1 X159.812 Y153.705 E25.05777
G1 X159.451 Y154.547 E25.17965
G1 X159.018 Y155.355 E25.30161
G1 X158.516 Y156.121 E25.42345
G1 X157.949 Y156.841 E25.54538
G1 X157.321 Y157.509 E25.66735
G1 X156.638 Y158.119 E25.78919
G1 X155.904 Y158.668 E25.91113
G1 X155.125 Y159.15 E26.033
G1 X154.307 Y159.563 E26.15492
G1 X153.456 Y159.903 E26.27683
G1 X152.579 Y160.167 E26.39868
G1 X151.682 Y160.354 E26.52059
G1 X150.772 Y160.462 E26.6425
G1 X150.285 Y160.487 E26.70738
G1 X149.67 Y160.5 E26.78922
G1 X70.572 Y160.499 E37.31246
G1 X69.874 Y160.49 E37.40533
G1 X68.959 Y160.438 E37.52726
G1 X68.052 Y160.307 E37.64918
G1 X67.16 Y160.097 E37.77109
G1 X66.29 Y159.81 E37.89297
G1 X65.448 Y159.449 E38.01486
G1 X64.641 Y159.015 E38.13676
G1 X63.874 Y158.513 E38.25872
G1 X63.155 Y157.945 E38.38062
G1 X62.487 Y157.317 E38.5026
G1 X61.877 Y156.634 E38.62443
G1 X61.329 Y155.9 E38.74629
G1 X60.847 Y155.12 E38.86828
G1 X60.435 Y154.302 E38.99013
G1 X60.095 Y153.451 E39.11205
G1 X59.832 Y152.573 E39.23399
G1 X59.645 Y151.676 E39.35589
G1 X59.538 Y150.766 E39.47779
G1 X59.513 Y150.275 E39.5432
G1 X59.5 Y149.658 E39.6253
G1 X59.501 Y70.532 E50.15227
G1 X59.51 Y69.867 E50.24075
G1 X59.562 Y68.952 E50.36268
G1 X59.694 Y68.045 E50.48462
G1 X59.905 Y67.154 E50.60643
G1 X60.192 Y66.284 E50.72831
G1 X60.554 Y65.442 E50.85025
G1 X60.989 Y64.635 E50.97222
G1 X61.491 Y63.869 E51.09406
G1 X62.059 Y63.15 E51.21596
G1 X62.687 Y62.483 E51.33785
G0 F6000 X61.959 Y61.797
G1 F1200 X62.773 Y61.071 E51.48296
G1 X63.508 Y60.523 E51.60493
G1 X64.361 Y59.993 E51.73853
G1 X65.334 Y59.503 E51.88347
G1 X66.268 Y59.135 E52.01703
G1 X67.146 Y58.872 E52.13896
G1 X68.213 Y58.651 E52.28393
G1 X69.19 Y58.538 E52.41478
G1 X69.694 Y58.513 E52.48191
G1 X70.33 Y58.5 E52.56654
G1 X149.457 Y58.501 E63.09364
G1 X150.155 Y58.511 E63.18652
G1 X151.201 Y58.575 E63.32594
G1 X152.193 Y58.724 E63.45939
G1 X153.084 Y58.935 E63.58121
G1 X154.12 Y59.278 E63.7264
G1 X155.041 Y59.679 E63.86004
G1 X155.921 Y60.158 E63.99333
G1 X156.759 Y60.713 E64.12706
G1 X157.543 Y61.338 E64.26045
G1 X158.209 Y61.966 E64.38223
G1 X158.934 Y62.782 E64.52745
G1 X159.53 Y63.589 E64.66092
G1 X160.054 Y64.445 E64.79445
G1 X160.465 Y65.264 E64.91636
G1 X160.839 Y66.194 E65.04972
G1 X161.13 Y67.156 E65.18343
G1 X161.35 Y68.224 E65.3285
G1 X161.462 Y69.198 E65.45893
G1 X161.487 Y69.694 E65.52501
G1 X161.5 Y70.33 E65.60964
G1 X161.499 Y149.406 E76.12995
G1 X161.49 Y150.133 E76.22668
G1 X161.429 Y151.179 E76.36608
G1 X161.282 Y152.171 E76.49949
G1 X161.073 Y153.063 E76.62138
G1 X160.762 Y154.018 E76.755
G1 X160.37 Y154.941 E76.88841
G1 X159.854 Y155.903 E77.03365
G1 X159.302 Y156.74 E77.16704
G1 X158.735 Y157.46 E77.28896
G1 X158.05 Y158.194 E77.42253
G1 X157.237 Y158.92 E77.56754
G1 X156.503 Y159.469 E77.68949
G1 X155.576 Y160.043 E77.83455
G1 X154.758 Y160.456 E77.95646
G1 X153.827 Y160.832 E78.09004
G1 X152.867 Y161.125 E78.22357
G1 X151.886 Y161.333 E78.35699
G1 X150.823 Y161.461 E78.49943
G1 X150.306 Y161.487 E78.5683
G1 X149.691 Y161.5 E78.65014
G1 X70.559 Y161.499 E89.1779
G1 X69.861 Y161.49 E89.27077
G1 X68.816 Y161.428 E89.41004
G1 X67.909 Y161.297 E89.53196
G1 X66.847 Y161.047 E89.67712
G1 X65.977 Y160.76 E89.799
G1 X64.974 Y160.33 E89.94418
G1 X64.093 Y159.852 E90.07753
G1 X63.254 Y159.298 E90.21129
G1 X62.47 Y158.674 E90.3446
G1 X61.802 Y158.046 E90.46658
G1 X61.131 Y157.3 E90.60007
G1 X60.478 Y156.426 E90.74521
G1 X59.996 Y155.646 E90.8672
G1 X59.506 Y154.673 E91.01214
G1 X59.166 Y153.822 E91.13406
G1 X58.874 Y152.86 E91.26781
G1 X58.666 Y151.88 E91.40109
G1 X58.539 Y150.817 E91.54352
G1 X58.513 Y150.296 E91.61292
G1 X58.5 Y149.658 E91.69782
G1 X58.501 Y70.518 E102.22664
G1 X58.51 Y69.853 E102.31512
G1 X58.572 Y68.808 E102.4544
G1 X58.704 Y67.901 E102.57634
G1 X58.955 Y66.841 E102.72126
G1 X59.273 Y65.889 E102.85479
G1 X59.635 Y65.047 E102.97673
G1 X60.153 Y64.087 E103.12185
G1 X60.706 Y63.249 E103.25543
G1 X61.274 Y62.53 E103.37733
G1 X61.959 Y61.797 E103.5108
G0 F6000 X61.228 Y61.114
G1 F1200 X62.175 Y60.269 E103.67966
G1 X62.91 Y59.721 E103.80163
G1 X63.911 Y59.1 E103.95835
G1 X64.967 Y58.573 E104.11536
G1 X65.981 Y58.177 E104.26019
G1 X66.859 Y57.914 E104.38213
G1 X68.01 Y57.672 E104.5386
G1 X69.14 Y57.539 E104.68998
G1 X69.674 Y57.513 E104.7611
G1 X70.33 Y57.5 E104.8484
G1 X149.471 Y57.501 E115.37736
G1 X150.169 Y57.511 E115.47023
G1 X151.35 Y57.586 E115.62767
G1 X152.342 Y57.735 E115.76112
G1 X153.314 Y57.962 E115.89392
G1 X154.519 Y58.361 E116.06279
G1 X155.44 Y58.762 E116.19643
G1 X156.473 Y59.324 E116.35289
G1 X157.311 Y59.879 E116.48661
G1 X158.229 Y60.61 E116.64273
G1 X158.895 Y61.238 E116.76451
G1 X159.682 Y62.118 E116.92158
G1 X160.383 Y63.067 E117.07854
G1 X160.948 Y63.996 E117.2232
G1 X161.359 Y64.815 E117.34511
G1 X161.767 Y65.821 E117.48954
G1 X162.087 Y66.866 E117.63494
G1 X162.329 Y68.022 E117.79207
G1 X162.461 Y69.148 E117.9429
G1 X162.487 Y69.674 E118.01296
G1 X162.5 Y70.33 E118.10025
G1 X162.499 Y149.418 E128.62216
G1 X162.49 Y150.145 E128.71889
G1 X162.418 Y151.326 E128.8763
G1 X162.256 Y152.399 E129.02068
G1 X162.047 Y153.291 E129.14256
G1 X161.713 Y154.328 E129.2875
G1 X161.251 Y155.414 E129.44452
G1 X160.689 Y156.454 E129.60179
G1 X160.088 Y157.359 E129.74632
G1 X159.521 Y158.079 E129.86825
G1 X158.716 Y158.94 E130.02506
G1 X157.836 Y159.721 E130.1816
G1 X157.102 Y160.27 E130.30354
G1 X156.027 Y160.936 E130.47178
G1 X155.209 Y161.349 E130.59369
G1 X154.201 Y161.759 E130.73847
G1 X153.074 Y162.103 E130.89523
G1 X152.006 Y162.326 E131.04039
G1 X150.873 Y162.46 E131.19217
G1 X150.327 Y162.487 E131.2649
G1 X149.712 Y162.5 E131.34674
G1 X70.546 Y162.499 E141.87903
G1 X69.848 Y162.49 E141.9719
G1 X68.673 Y162.418 E142.12851
G1 X67.766 Y162.287 E142.25043
G1 X66.534 Y161.997 E142.41882
G1 X65.664 Y161.71 E142.5407
G1 X64.497 Y161.209 E142.70966
G1 X63.616 Y160.731 E142.84301
G1 X62.631 Y160.08 E143.00009
G1 X61.785 Y159.403 E143.14424
G1 X61.117 Y158.775 E143.26622
G1 X60.33 Y157.899 E143.42289
G1 X59.627 Y156.952 E143.5798
G1 X59.145 Y156.172 E143.70178
G1 X58.577 Y155.044 E143.86981
G1 X58.237 Y154.193 E143.99172
G1 X57.917 Y153.15 E144.13687
G1 X57.673 Y151.999 E144.2934
G1 X57.54 Y150.867 E144.44504
G1 X57.513 Y150.316 E144.51843
G1 X57.5 Y149.658 E144.60599
G1 X57.501 Y70.504 E155.13668
G1 X57.51 Y69.839 E155.22516
G1 X57.582 Y68.664 E155.38178
G1 X57.714 Y67.757 E155.50372
G1 X57.982 Y66.611 E155.6603
G1 X58.354 Y65.494 E155.81693
G1 X58.716 Y64.652 E155.93886
G1 X59.318 Y63.536 E156.10756
G1 X59.921 Y62.629 E156.25246
G1 X60.543 Y61.847 E156.38539
G1 X61.228 Y61.114 E156.51887
G1 F1500 E150.01887
;MESH:box.stl
G0 F6000 X106.523 Y91.779
G0 X110.132 Y95.008
;TYPE:WALL-INNER
G1 F1500 E156.51887
G1 F1200 X109.567 Y94.968 E156.59422
G1 X109.303 Y94.914 E156.63007
G1 X108.648 Y94.691 E156.72213
G1 X108.009 Y94.259 E156.82474
G1 X107.503 Y93.701 E156.92496
G1 X107.174 Y93.036 E157.02367
G1 X107.018 Y92.411 E157.10937
G1 X107.005 Y91.689 E157.20544
G1 X107.17 Y90.983 E157.3019
G1 X107.442 Y90.419 E157.3852
G1 X107.594 Y90.196 E157.4211
G1 X108.002 Y89.753 E157.50123
G1 X108.494 Y89.399 E157.58187
G1 X109.068 Y89.142 E157.66554
G1 X109.775 Y89.006 E157.76132
G1 X110.064 Y89.003 E157.79977
G1 X110.603 Y89.047 E157.87172
G1 X110.929 Y89.135 E157.91664
G1 X111.696 Y89.499 E158.02959
G1 X111.935 Y89.689 E158.07021
G1 X112.502 Y90.298 E158.18092
G1 X112.818 Y90.952 E158.27755
G1 X112.979 Y91.57 E158.36251
G1 X112.997 Y92.276 E158.45647
G1 X112.838 Y93.009 E158.55626
G1 X112.488 Y93.717 E158.66133
G1 X111.953 Y94.289 E158.76553
G1 X111.381 Y94.671 E158.85704
G1 X110.92 Y94.861 E158.92337
G1 X110.132 Y95.008 E159.03002
G1 F1500 E152.53002
G0 F6000 X109.101 Y95.268
G0 X107.7 Y94.629
G0 X94.788 Y107.902
G0 X92.907 Y112.867
G1 F1500 E159.03002
G1 F1200 X92.242 Y112.987 E159.11992
G1 X91.988 Y113 E159.15375
G1 X91.424 Y112.956 E159.22902
G1 X90.648 Y112.691 E159.33811
G1 X90.168 Y112.371 E159.41486
G1 X89.967 Y112.208 E159.44929
G1 X89.507 Y111.706 E159.53987
G1 X89.178 Y111.044 E159.63822
G1 X89.022 Y110.419 E159.72393
G1 X89.008 Y109.698 E159.81987
G1 X89.153 Y109.023 E159.91172
G1 X89.458 Y108.392 E160.00496
G1 X89.657 Y108.124 E160.04937
G1 X90.021 Y107.74 E160.11976
G1 X90.482 Y107.402 E160.19581
G1 X91.071 Y107.137 E160.28174
G1 X91.879 Y106.989 E160.39102
G1 X92.544 Y107.039 E160.47974
G1 X92.886 Y107.111 E160.52624
G1 X93.654 Y107.483 E160.63977
G1 X93.905 Y107.651 E160.67995
G1 X94.414 Y108.204 E160.77995
G1 X94.554 Y108.411 E160.81319
G1 X94.829 Y108.981 E160.89739
G1 X94.979 Y109.575 E160.9789
G1 X94.994 Y110.156 E161.05622
G1 X94.971 Y110.413 E161.09055
G1 X94.839 Y110.997 E161.1702
G1 X94.573 Y111.554 E161.25232
G1 X94.424 Y111.782 E161.28856
G1 X93.978 Y112.265 E161.37602
G1 X93.402 Y112.662 E161.46909
G1 X92.907 Y112.867 E161.54037
G1 F1500 E155.04037
G0 F6000 X93.513 Y113.048
G0 X94.998 Y111.778
G0 X125.002 Y111.778
G0 X127.421 Y112.956
G1 F1500 E161.54037
G1 F1200 X126.647 Y112.688 E161.64934
G1 X126.029 Y112.279 E161.74794
G1 X125.601 Y111.812 E161.83221
G1 X125.427 Y111.553 E161.87373
G1 X125.165 Y111.006 E161.95442
G1 X125.019 Y110.407 E162.03644
G1 X125.006 Y109.672 E162.13424
G1 X125.17 Y108.983 E162.22847
G1 X125.448 Y108.409 E162.31332
G1 X125.589 Y108.202 E162.34664
G1 X126.01 Y107.746 E162.42921
G1 X126.513 Y107.387 E162.51142
G1 X126.976 Y107.18 E162.5789
G1 X127.221 Y107.108 E162.61287
G1 X127.889 Y106.991 E162.70309
G1 X128.524 Y107.037 E162.78779
G1 X128.938 Y107.134 E162.84436
G1 X129.689 Y107.499 E162.95545
G1 X129.939 Y107.693 E162.99755
G1 X130.496 Y108.293 E163.10647
G1 X130.83 Y108.986 E163.20882
G1 X130.977 Y109.582 E163.29049
G1 X130.998 Y110.281 E163.38352
G1 X130.825 Y111.037 E163.4867
G1 X130.543 Y111.608 E163.57143
G1 X130.349 Y111.87 E163.6148
G1 X130.035 Y112.207 E163.67608
G1 X129.838 Y112.366 E163.70976
G1 X129.396 Y112.663 E163.78061
G1 X128.925 Y112.86 E163.84853
G1 X128.243 Y112.987 E163.94082
G1 X127.988 Y113 E163.97479
G1 X127.421 Y112.956 E164.05045
G1 F1500 E157.55045
G0 F6000 X127.163 Y113.291
G0 X128.309 Y113.463
G0 X148 Y113.463
G0 X148.5 Y148.5
G1 F1500 E164.05045
G1 F1200 X148.499 Y71.5 E174.29458
G1 X71.501 Y71.501 E184.53843
G1 X71.5 Y148.5 E194.78242
G1 X148.5 Y148.5 E205.02654
G0 F6000 X148.93 Y148.93
G0 X149.5 Y149.5
;TYPE:WALL-OUTER
G1 F1200 X149.499 Y70.5 E215.53674
G1 X70.501 Y70.501 E226.04668
G1 X70.5 Y149.5 E236.55675
G1 X149.5 Y149.5 E247.06695
G1 F1500 E240.56695
G0 F6000 X148.93 Y148.93
G0 X148 Y113.291
G0 X130.985 Y111.81
G0 X128.063 Y112.004
G1 F1500 E247.06695
G1 F1200 X127.64 Y111.971 E247.1234
G1 X127.103 Y111.792 E247.19871
G1 X126.68 Y111.509 E247.26642
G1 X126.335 Y111.135 E247.33411
G1 X126.111 Y110.664 E247.4035
G1 X126.022 Y110.305 E247.45271
G1 X126.009 Y109.797 E247.52031
G1 X126.114 Y109.321 E247.58516
G1 X126.346 Y108.852 E247.65477
G1 X126.667 Y108.508 E247.71737
G1 X126.99 Y108.272 E247.77059
G1 X127.372 Y108.096 E247.82655
G1 X127.931 Y107.997 E247.90207
G1 X128.505 Y108.039 E247.97864
G1 X129.211 Y108.376 E248.08272
G1 X129.661 Y108.857 E248.17035
G1 X129.879 Y109.31 E248.23724
G1 X129.982 Y109.704 E248.29142
G1 X129.995 Y110.195 E248.35676
G1 X129.888 Y110.663 E248.42063
G1 X129.662 Y111.14 E248.49085
G1 X129.321 Y111.509 E248.5577
G1 X128.897 Y111.789 E248.6253
G1 X128.622 Y111.904 E248.66495
G1 X128.063 Y112.004 E248.7405
G1 F1500 E242.2405
G0 F6000 X127.163 Y113.291
G0 X124.527 Y109.76
G0 X110.034 Y95.484
G0 X109.634 Y93.97
G1 F1500 E248.7405
G1 F1200 X109.093 Y93.787 E248.81649
G1 X108.677 Y93.506 E248.88327
G1 X108.337 Y93.136 E248.95013
G1 X108.123 Y92.696 E249.01522
G1 X108.016 Y92.29 E249.07108
G1 X108.009 Y91.795 E249.13694
G1 X108.11 Y91.342 E249.19869
G1 X108.332 Y90.873 E249.26772
G1 X108.669 Y90.506 E249.33401
G1 X108.983 Y90.276 E249.38579
G1 X109.375 Y90.097 E249.44312
G1 X109.937 Y89.996 E249.51909
G1 X110.523 Y90.046 E249.59734
G1 X111.202 Y90.373 E249.6976
G1 X111.665 Y90.863 E249.78729
G1 X111.886 Y91.328 E249.85578
G1 X111.979 Y91.7 E249.9068
G1 X111.995 Y92.191 E249.97216
G1 X111.886 Y92.671 E250.03764
G1 X111.666 Y93.131 E250.10548
G1 X111.329 Y93.502 E250.17216
G1 X110.935 Y93.769 E250.23548
G1 X110.617 Y93.906 E250.28155
G1 X110.08 Y93.999 E250.35405
G1 X109.634 Y93.97 E250.41351
G1 F1500 E243.91351
G0 F6000 X109.187 Y95.297
G0 X107.7 Y94.629
G0 X94.788 Y107.902
G0 X92.063 Y112.004
G1 F1500 E250.41351
G1 F1200 X91.639 Y111.971 E250.47009
G1 X91.102 Y111.791 E250.54544
G1 X90.681 Y111.51 E250.61278
G1 X90.336 Y111.133 E250.68077
G1 X90.123 Y110.695 E250.74557
G1 X90.017 Y110.297 E250.80036
G1 X90.011 Y109.778 E250.86942
G1 X90.121 Y109.311 E250.93325
G1 X90.338 Y108.861 E250.99971
G1 X90.695 Y108.483 E251.06888
G1 X90.977 Y108.28 E251.11511
G1 X91.366 Y108.098 E251.17225
G1 X91.929 Y107.996 E251.24837
G1 X92.518 Y108.042 E251.32697
G1 X93.214 Y108.379 E251.42985
G1 X93.663 Y108.861 E251.51749
G1 X93.886 Y109.328 E251.58634
G1 X93.985 Y109.717 E251.63974
G1 X93.99 Y110.213 E251.70573
G1 X93.887 Y110.676 E251.76883
G1 X93.664 Y111.138 E251.83708
G1 X93.322 Y111.504 E251.90373
G1 X92.912 Y111.782 E251.96963
G1 X92.62 Y111.905 E252.01178
G1 X92.063 Y112.004 E252.08705
G1 F1500 E245.58705
G0 F6000 X91.602 Y113.373
G0 X90.303 Y113.037
G0 X71.981 Y113.035
G0 X72.401 Y147.6
;TYPE:SKIN
G1 F1500 E252.08705
G1 F1200 X72.401 Y72.402 E262.09143
G1 X147.599 Y72.4 E272.09581
G1 X147.6 Y147.6 E282.10046
