;FLAVOR:Marlin
;TIME:13428
;Filament used: 32.0495m
;Layer height: 0.32
;MINX:18.512
;MINY:39.179
;MINZ:0.32
;MAXX:203.169
;MAXY:182.731
;MAXZ:180.16
;Generated with Cura_SteamEngine 4.12.1
M140 S60
M105
M190 S60
M104 S200
M105
M109 S200
M82 ;absolute extrusion mode
; Ender 3 Custom Start G-code
G92 E0 ; Reset Extruder
G28 ; Home all axes
G29 ; bed level adjust
G1 Z2.0 F3000 ; Move Z Axis up little to prevent scratching of Heat Bed
G1 X0.1 Y20 Z0.3 F5000.0 ; Move to start position
G1 X0.1 Y200.0 Z0.3 F1500.0 E15 ; Draw the first line
G1 X0.4 Y200.0 Z0.3 F5000.0 ; Move to side a little
G1 X0.4 Y20 Z0.3 F1500.0 E30 ; Draw the second line
G92 E0 ; Reset Extruder
G1 Z2.0 F3000 ; Move Z Axis up little to prevent scratching of Heat Bed
G1 X5 Y20 Z0.3 F5000.0 ; Move over to prevent blob squish
G92 E0
G92 E0
G1 F1500 E-6.5
;LAYER_COUNT:563
;LAYER:0
M107
G0 F6000 X44.619 Y55.576 Z0.32
;TYPE:SKIRT
G1 F1500 E0
G1 F1200 X45.469 Y54.908 E0.14383
G1 X45.976 Y54.497 E0.23066
G1 X46.843 Y53.815 E0.37741
G1 X47.133 Y53.593 E0.426
G1 X47.837 Y53.073 E0.54244
G1 X49.196 Y52.101 E0.76473
G1 X50.044 Y51.514 E0.90194
G1 X50.255 Y51.372 E0.93578
G1 X50.799 Y51.014 E1.02242
G1 X52.321 Y50.04 E1.26282
G1 X53.107 Y49.552 E1.3859
G1 X53.349 Y49.405 E1.42357
G1 X53.691 Y49.205 E1.47628
G1 X55.412 Y48.218 E1.74023
G1 X56.113 Y47.829 E1.84689
G1 X56.376 Y47.687 E1.88665
G1 X56.924 Y47.401 E1.96889
G1 X58.374 Y46.663 E2.18535
G1 X59.33 Y46.192 E2.32713
G1 X59.615 Y46.056 E2.36914
G1 X60.101 Y45.833 E2.44028
G1 X61.761 Y45.091 E2.68219
G1 X62.648 Y44.709 E2.81067
G1 X62.933 Y44.591 E2.85171
G1 X63.285 Y44.45 E2.90216
G1 X64.94 Y43.803 E3.13857
G1 X65.81 Y43.477 E3.26217
G1 X66.113 Y43.368 E3.30501
G1 X66.842 Y43.118 E3.40754
G1 X68.471 Y42.576 E3.63595
G1 X69.316 Y42.307 E3.75393
G1 X69.611 Y42.217 E3.79496
G1 X70.052 Y42.09 E3.85601
G1 X71.957 Y41.56 E4.11908
G1 X72.736 Y41.355 E4.22625
G1 X73.029 Y41.281 E4.26645
G1 X73.518 Y41.166 E4.33329
G1 X75.378 Y40.747 E4.58694
G1 X76.221 Y40.569 E4.70157
G1 X76.517 Y40.51 E4.74172
G1 X77.023 Y40.417 E4.81017
G1 X78.893 Y40.091 E5.06271
G1 X79.703 Y39.961 E5.17185
G1 X80.028 Y39.913 E5.21556
G1 X80.586 Y39.839 E5.29044
G1 X82.393 Y39.617 E5.53265
G1 X83.288 Y39.519 E5.65244
G1 X83.589 Y39.49 E5.69267
G1 X84.063 Y39.451 E5.75594
G1 X85.949 Y39.313 E6.00753
G1 X86.87 Y39.259 E6.13027
G1 X87.195 Y39.245 E6.17355
G1 X87.666 Y39.23 E6.23624
G1 X89.446 Y39.188 E6.47312
G1 X90.33 Y39.179 E6.59073
G1 X90.632 Y39.179 E6.63091
G1 X91.121 Y39.187 E6.69598
G1 X92.878 Y39.231 E6.9298
G1 X93.822 Y39.267 E7.05548
G1 X94.145 Y39.284 E7.09852
G1 X94.582 Y39.312 E7.15677
G1 X96.362 Y39.443 E7.39423
G1 X97.261 Y39.52 E7.51427
G1 X97.579 Y39.551 E7.55677
G1 X97.972 Y39.595 E7.60939
G1 X99.6 Y39.793 E7.82757
G1 X100.724 Y39.945 E7.97847
G1 X100.998 Y39.985 E8.01531
G1 X101.472 Y40.062 E8.0792
G1 X103.178 Y40.353 E8.30944
G1 X104.162 Y40.535 E8.44258
G1 X104.667 Y40.638 E8.51114
G1 X106.475 Y41.036 E8.75744
G1 X107.515 Y41.279 E8.89953
G1 X107.838 Y41.36 E8.94383
G1 X108.171 Y41.448 E8.98966
G1 X109.977 Y41.941 E9.23872
G1 X110.984 Y42.231 E9.37814
G1 X111.289 Y42.323 E9.42052
G1 X112.131 Y42.59 E9.53804
G1 X113.422 Y43.015 E9.71886
G1 X114.201 Y43.282 E9.82842
G1 X114.489 Y43.385 E9.86911
G1 X115.506 Y43.762 E10.01341
G1 X116.664 Y44.207 E10.17845
G1 X117.496 Y44.538 E10.29758
G1 X117.784 Y44.657 E10.33904
G1 X118.733 Y45.063 E10.47636
G1 X119.955 Y45.603 E10.6541
G1 X120.561 Y45.878 E10.74264
G1 X120.854 Y46.016 E10.78573
G1 X122.068 Y46.606 E10.9653
G1 X123.09 Y47.121 E11.11756
G1 X123.98 Y47.583 E11.25097
G1 X124.229 Y47.716 E11.28852
G1 X125.028 Y48.154 E11.40975
G1 X125.831 Y48.605 E11.53227
G1 X127.001 Y49.284 E11.71225
G1 X127.265 Y49.441 E11.75311
G1 X128.095 Y49.952 E11.88278
G1 X128.997 Y50.521 E12.02467
G1 X129.875 Y51.088 E12.16372
G1 X130.138 Y51.263 E12.20574
G1 X131.114 Y51.93 E12.36302
G1 X131.868 Y52.458 E12.48548
G1 X132.816 Y53.141 E12.64093
G1 X133.045 Y53.31 E12.67879
G1 X133.888 Y53.949 E12.81952
G1 X134.705 Y54.584 E12.95719
G1 X135.526 Y55.237 E13.09675
G1 X135.753 Y55.422 E13.13571
G1 X136.71 Y56.222 E13.30166
G1 X137.285 Y56.717 E13.4026
G1 X138.247 Y57.562 E13.57294
G1 X138.493 Y57.783 E13.61694
G1 X139.272 Y58.505 E13.75824
G1 X141.234 Y60.304 E14.11239
G1 X143.086 Y61.905 E14.43808
G1 X145.017 Y63.483 E14.76985
G1 X146.98 Y64.998 E15.09975
G1 X148.952 Y66.432 E15.42413
G1 X151.032 Y67.856 E15.7595
G1 X153.11 Y69.194 E16.08831
G1 X155.218 Y70.469 E16.41606
G1 X157.344 Y71.673 E16.74112
G1 X159.566 Y72.85 E17.07564
G1 X161.775 Y73.942 E17.40348
G1 X164.02 Y74.974 E17.7322
G1 X166.292 Y75.94 E18.06066
G1 X168.611 Y76.851 E18.39213
G1 X170.956 Y77.696 E18.72375
G1 X173.271 Y78.457 E19.04795
G1 X175.643 Y79.163 E19.3772
G1 X178.037 Y79.803 E19.70689
G1 X181.002 Y80.497 E20.11201
G1 X191.71 Y82.82 E21.56975
G1 X192.431 Y82.987 E21.66821
G1 X193.395 Y83.252 E21.80122
G1 X194.335 Y83.592 E21.93421
G1 X195.245 Y84.007 E22.06727
G1 X196.118 Y84.493 E22.2002
G1 X196.95 Y85.047 E22.33318
G1 X197.736 Y85.666 E22.46628
G1 X198.469 Y86.346 E22.5993
G1 X199.145 Y87.082 E22.73226
G1 X199.761 Y87.87 E22.86532
G1 X200.311 Y88.705 E22.99835
G1 X200.793 Y89.581 E23.13137
G1 X201.204 Y90.492 E23.26433
G1 X201.54 Y91.434 E23.39739
G1 X201.8 Y92.399 E23.53035
G1 X201.982 Y93.382 E23.66335
G1 X202.083 Y94.338 E23.79125
G1 X202.142 Y95.228 E23.90991
G1 X203.137 Y115.763 E26.64511
G1 X203.169 Y116.642 E26.76213
G1 X203.164 Y117.642 E26.89517
G1 X203.08 Y118.638 E27.02815
G1 X202.915 Y119.624 E27.16115
G1 X202.673 Y120.594 E27.29415
G1 X202.354 Y121.542 E27.42722
G1 X201.96 Y122.461 E27.56025
G1 X201.494 Y123.345 E27.6932
G1 X200.958 Y124.189 E27.82622
G1 X200.357 Y124.988 E27.95923
G1 X199.694 Y125.737 E28.09231
G1 X198.974 Y126.43 E28.22526
G1 X198.2 Y127.063 E28.35828
G1 X197.378 Y127.632 E28.49129
G1 X196.513 Y128.134 E28.62434
G1 X195.611 Y128.565 E28.75734
G1 X194.708 Y128.912 E28.88604
G1 X193.635 Y129.276 E29.03679
G1 X183.478 Y132.531 E30.45577
G1 X181.038 Y133.351 E30.79823
G1 X178.757 Y134.191 E31.12162
G1 X176.445 Y135.116 E31.45291
G1 X174.16 Y136.107 E31.78427
G1 X171.932 Y137.149 E32.1115
G1 X169.698 Y138.271 E32.44409
G1 X167.546 Y139.429 E32.76921
G1 X165.412 Y140.658 E33.09684
G1 X163.273 Y141.971 E33.43075
G1 X161.199 Y143.325 E33.76027
G1 X159.195 Y144.718 E34.08497
G1 X157.169 Y146.212 E34.41987
G1 X155.244 Y147.718 E34.74503
G1 X153.333 Y149.301 E35.07517
G1 X151.486 Y150.922 E35.40211
G1 X149.646 Y152.63 E35.73612
G1 X147.909 Y154.338 E36.06021
G1 X146.173 Y156.144 E36.39349
G1 X144.395 Y158.103 E36.74546
G1 X143.945 Y158.613 E36.83594
G1 X143.047 Y159.607 E37.01416
G1 X142.74 Y159.937 E37.07412
G1 X141.845 Y160.878 E37.2469
G1 X141.492 Y161.239 E37.31407
G1 X140.534 Y162.198 E37.49441
G1 X140.271 Y162.454 E37.54324
G1 X139.294 Y163.383 E37.7226
G1 X138.943 Y163.709 E37.78633
G1 X138.024 Y164.545 E37.95162
G1 X137.781 Y164.76 E37.99478
G1 X136.587 Y165.79 E38.20457
G1 X136.242 Y166.08 E38.26453
G1 X135.304 Y166.85 E38.42598
G1 X134.92 Y167.157 E38.49139
G1 X133.937 Y167.923 E38.65719
G1 X133.475 Y168.274 E38.73438
G1 X132.314 Y169.133 E38.92652
G1 X132.069 Y169.309 E38.96666
G1 X131.068 Y170.012 E39.12939
G1 X130.594 Y170.336 E39.20578
G1 X129.486 Y171.075 E39.38296
G1 X129.228 Y171.243 E39.42392
G1 X128.044 Y171.99 E39.61017
G1 X127.548 Y172.292 E39.68743
G1 X126.451 Y172.947 E39.85741
G1 X126.188 Y173.1 E39.89789
G1 X124.942 Y173.803 E40.08823
G1 X124.476 Y174.058 E40.1589
G1 X123.348 Y174.658 E40.32888
G1 X123.08 Y174.796 E40.36898
G1 X121.81 Y175.432 E40.55795
G1 X121.298 Y175.68 E40.63363
G1 X120.114 Y176.236 E40.80766
G1 X119.825 Y176.367 E40.84987
G1 X118.592 Y176.907 E41.02895
G1 X118.036 Y177.143 E41.10931
G1 X116.861 Y177.625 E41.27827
G1 X116.583 Y177.735 E41.31805
G1 X115.283 Y178.231 E41.50316
G1 X114.722 Y178.438 E41.58272
G1 X113.557 Y178.851 E41.74716
G1 X113.259 Y178.952 E41.78902
G1 X111.89 Y179.398 E41.98058
G1 X111.266 Y179.591 E42.06747
G1 X110.123 Y179.933 E42.2262
G1 X109.823 Y180.019 E42.26772
G1 X108.545 Y180.366 E42.4439
G1 X107.88 Y180.538 E42.53528
G1 X106.718 Y180.824 E42.69449
G1 X106.409 Y180.896 E42.7367
G1 X105.04 Y181.195 E42.92313
G1 X104.437 Y181.319 E43.00503
G1 X103.175 Y181.563 E43.17604
G1 X102.876 Y181.617 E43.21646
G1 X101.621 Y181.827 E43.38575
G1 X100.93 Y181.935 E43.47879
G1 X99.688 Y182.112 E43.6457
G1 X99.385 Y182.151 E43.68634
G1 X98.037 Y182.309 E43.86691
G1 X97.312 Y182.384 E43.96388
G1 X96.196 Y182.488 E44.113
G1 X95.876 Y182.514 E44.15571
G1 X94.495 Y182.606 E44.33984
G1 X93.813 Y182.643 E44.43071
G1 X92.619 Y182.694 E44.58971
G1 X92.306 Y182.703 E44.63137
G1 X90.973 Y182.726 E44.80874
G1 X90.076 Y182.731 E44.92807
G1 X89.296 Y182.727 E45.03185
G1 X88.765 Y182.717 E45.1025
G1 X87.45 Y182.674 E45.27755
G1 X86.643 Y182.638 E45.38502
G1 X85.528 Y182.576 E45.53359
G1 X85.198 Y182.553 E45.5776
G1 X83.846 Y182.441 E45.75808
G1 X83.074 Y182.368 E45.86125
G1 X82.016 Y182.256 E46.00279
G1 X81.702 Y182.218 E46.04487
G1 X80.271 Y182.029 E46.23691
G1 X79.581 Y181.929 E46.32966
G1 X78.435 Y181.749 E46.484
G1 X78.138 Y181.698 E46.52409
G1 X76.84 Y181.461 E46.69963
G1 X76.081 Y181.313 E46.80251
G1 X74.927 Y181.073 E46.95932
G1 X74.613 Y181.004 E47.00209
G1 X73.38 Y180.714 E47.17061
G1 X72.863 Y180.588 E47.2414
G1 X71.379 Y180.201 E47.44544
G1 X71.084 Y180.12 E47.48614
G1 X70.02 Y179.813 E47.63347
G1 X69.079 Y179.529 E47.76424
G1 X68.118 Y179.228 E47.89821
G1 X67.813 Y179.128 E47.94092
G1 X66.534 Y178.69 E48.12078
G1 X65.782 Y178.421 E48.22703
G1 X64.719 Y178.029 E48.37776
G1 X64.428 Y177.918 E48.4192
G1 X63.381 Y177.502 E48.56908
G1 X62.492 Y177.135 E48.69704
G1 X61.4 Y176.67 E48.85494
G1 X61.107 Y176.541 E48.89754
G1 X60.006 Y176.037 E49.05863
G1 X59.222 Y175.666 E49.17402
G1 X58.174 Y175.156 E49.32908
G1 X57.888 Y175.012 E49.37168
G1 X56.784 Y174.438 E49.53723
G1 X56.017 Y174.027 E49.65299
G1 X55.057 Y173.499 E49.79876
G1 X54.793 Y173.349 E49.83915
G1 X53.717 Y172.722 E50.00484
G1 X52.931 Y172.251 E50.12674
G1 X51.946 Y171.643 E50.28074
G1 X51.69 Y171.48 E50.32112
G1 X50.765 Y170.877 E50.46802
G1 X50.079 Y170.419 E50.57776
G1 X48.971 Y169.658 E50.75659
G1 X48.715 Y169.478 E50.79822
G1 X47.905 Y168.89 E50.93138
G1 X47.024 Y168.236 E51.07736
G1 X46.126 Y167.551 E51.22762
G1 X45.877 Y167.356 E51.2697
G1 X45.028 Y166.673 E51.41466
G1 X44.22 Y166.006 E51.55405
G1 X43.412 Y165.324 E51.69472
G1 X43.186 Y165.128 E51.73452
G1 X42.314 Y164.354 E51.88964
G1 X41.507 Y163.619 E52.03486
G1 X40.811 Y162.971 E52.16138
G1 X40.578 Y162.748 E52.20428
G1 X39.715 Y161.901 E52.36516
G1 X39.034 Y161.217 E52.49357
G1 X38.213 Y160.369 E52.6506
G1 X38.003 Y160.147 E52.69125
G1 X37.354 Y159.443 E52.81864
G1 X36.573 Y158.576 E52.97389
G1 X35.867 Y157.773 E53.11614
G1 X35.665 Y157.536 E53.15757
G1 X34.944 Y156.673 E53.30718
G1 X34.412 Y156.022 E53.41903
G1 X33.593 Y154.992 E53.5941
G1 X33.407 Y154.752 E53.6345
G1 X32.722 Y153.844 E53.78582
G1 X32.118 Y153.02 E53.92174
G1 X31.531 Y152.202 E54.05569
G1 X31.353 Y151.947 E54.09706
G1 X30.748 Y151.058 E54.24012
G1 X30.081 Y150.048 E54.40115
G1 X29.545 Y149.218 E54.5326
G1 X29.375 Y148.947 E54.57516
G1 X28.793 Y147.99 E54.72418
G1 X28.219 Y147.021 E54.87401
G1 X27.701 Y146.123 E55.01193
G1 X27.543 Y145.84 E55.05505
G1 X27.045 Y144.921 E55.19412
G1 X26.489 Y143.866 E55.35277
G1 X26.08 Y143.069 E55.47195
G1 X25.935 Y142.778 E55.51521
G1 X25.394 Y141.65 E55.68165
G1 X24.962 Y140.72 E55.81807
G1 X24.534 Y139.771 E55.95657
G1 X24.407 Y139.479 E55.99894
G1 X23.978 Y138.457 E56.1464
G1 X23.547 Y137.397 E56.29863
G1 X23.186 Y136.478 E56.42999
G1 X23.072 Y136.176 E56.47294
G1 X22.704 Y135.16 E56.6167
G1 X22.315 Y134.045 E56.77381
G1 X22.007 Y133.128 E56.9025
G1 X21.914 Y132.843 E56.94239
G1 X21.634 Y131.938 E57.06842
G1 X21.26 Y130.67 E57.2443
G1 X20.992 Y129.722 E57.37537
G1 X20.908 Y129.408 E57.41861
G1 X20.642 Y128.358 E57.56271
G1 X20.354 Y127.165 E57.72599
G1 X20.16 Y126.324 E57.84082
G1 X20.089 Y125.999 E57.88507
G1 X19.889 Y125.013 E58.01892
G1 X19.639 Y123.696 E58.19727
G1 X19.469 Y122.732 E58.3275
G1 X19.42 Y122.435 E58.36754
G1 X19.265 Y121.402 E58.50651
G1 X19.101 Y120.212 E58.66633
G1 X19.014 Y119.513 E58.76004
G1 X18.975 Y119.165 E58.80663
G1 X18.849 Y117.841 E58.98357
G1 X18.824 Y117.541 E59.02362
G1 X18.771 Y117.031 E59.09184
G1 X18.692 Y116.167 E59.20726
G1 X18.648 Y115.476 E59.29938
G1 X18.636 Y115.133 E59.34504
G1 X18.575 Y113.963 E59.50091
G1 X18.52 Y112.606 E59.68159
G1 X18.512 Y111.888 E59.77712
G1 X18.517 Y111.591 E59.81664
G1 X18.519 Y109.676 E60.07142
G1 X18.527 Y108.998 E60.16162
G1 X18.543 Y108.496 E60.22844
G1 X18.648 Y106.485 E60.49635
G1 X18.713 Y105.44 E60.63565
G1 X18.779 Y104.718 E60.7321
G1 X19.03 Y102.293 E61.05645
G1 X19.085 Y101.815 E61.12046
G1 X19.13 Y101.463 E61.16768
G1 X19.191 Y101.047 E61.22361
G1 X19.559 Y98.69 E61.54099
G1 X19.617 Y98.339 E61.58832
G1 X19.684 Y97.968 E61.63847
G1 X19.799 Y97.388 E61.71714
G1 X20.232 Y95.303 E62.00045
G1 X20.334 Y94.833 E62.06443
G1 X20.414 Y94.488 E62.11155
G1 X20.589 Y93.785 E62.20793
G1 X21.084 Y91.883 E62.4694
G1 X21.231 Y91.341 E62.54412
G1 X21.365 Y90.881 E62.60786
G1 X22.212 Y88.178 E62.98471
G1 X22.29 Y87.939 E63.01816
G1 X22.412 Y87.581 E63.06847
G1 X22.646 Y86.936 E63.15976
G1 X23.469 Y84.724 E63.47375
G1 X23.474 Y84.726 E63.47447
G1 X23.673 Y84.2 E63.54929
G1 X24.126 Y83.121 E63.70498
G1 X24.871 Y81.392 E63.95545
G1 X25.079 Y80.936 E64.02213
G1 X25.464 Y80.133 E64.14061
G1 X26.239 Y78.561 E64.37378
G1 X26.349 Y78.33 E64.40782
G1 X26.669 Y77.702 E64.50159
G1 X27.4 Y76.361 E64.70478
G1 X27.952 Y75.376 E64.855
G1 X28.059 Y75.177 E64.88506
G1 X28.406 Y74.571 E64.97797
G1 X29.2 Y73.274 E65.18029
G1 X29.882 Y72.178 E65.35202
G1 X30.269 Y71.573 E65.44757
G1 X30.951 Y70.573 E65.60861
G1 X31.71 Y69.484 E65.78521
G1 X31.921 Y69.172 E65.83532
G1 X32.331 Y68.599 E65.92905
G1 X33.241 Y67.403 E66.12899
G1 X33.759 Y66.738 E66.24114
G1 X34.092 Y66.294 E66.31497
G1 X34.537 Y65.737 E66.40982
G1 X35.476 Y64.625 E66.60345
G1 X36.037 Y63.968 E66.71839
G1 X36.357 Y63.584 E66.78489
G1 X36.822 Y63.056 E66.8785
G1 X37.892 Y61.909 E67.08718
G1 X38.351 Y61.426 E67.17583
G1 X38.82 Y60.92 E67.26762
G1 X39.3 Y60.429 E67.35897
G1 X40.275 Y59.486 E67.53943
G1 X40.566 Y59.199 E67.5938
G1 X41.436 Y58.359 E67.75469
G1 X41.941 Y57.898 E67.84566
G1 X42.475 Y57.436 E67.93961
G1 X43.249 Y56.758 E68.0765
G1 X44.074 Y56.03 E68.22288
G1 X44.619 Y55.576 E68.31725
G0 F6000 X45.237 Y56.363
G1 F1200 X46.036 Y55.735 E68.45245
G1 X46.749 Y55.159 E68.5744
G1 X47.46 Y54.601 E68.69464
G1 X47.727 Y54.398 E68.73927
G1 X48.58 Y53.77 E68.88019
G1 X49.932 Y52.806 E69.1011
G1 X50.612 Y52.337 E69.211
G1 X50.806 Y52.206 E69.24214
G1 X51.339 Y51.856 E69.32697
G1 X52.848 Y50.89 E69.56534
G1 X53.634 Y50.402 E69.68843
G1 X53.857 Y50.267 E69.72311
G1 X54.189 Y50.072 E69.77433
G1 X55.897 Y49.092 E70.03631
G1 X56.598 Y48.703 E70.14297
G1 X56.84 Y48.573 E70.17952
G1 X57.378 Y48.292 E70.26027
G1 X58.968 Y47.484 E70.49755
G1 X59.771 Y47.089 E70.61661
G1 X60.033 Y46.964 E70.65523
G1 X60.509 Y46.745 E70.72494
G1 X62.009 Y46.074 E70.94356
G1 X63.043 Y45.628 E71.09337
G1 X63.306 Y45.519 E71.13125
G1 X63.649 Y45.381 E71.18043
G1 X65.468 Y44.671 E71.44022
G1 X66.159 Y44.413 E71.53835
G1 X66.439 Y44.313 E71.5779
G1 X67.158 Y44.066 E71.67905
G1 X68.775 Y43.529 E71.90573
G1 X69.62 Y43.26 E72.0237
G1 X69.891 Y43.177 E72.06141
G1 X70.32 Y43.053 E72.12082
G1 X72.211 Y42.527 E72.38195
G1 X72.99 Y42.322 E72.48912
G1 X73.26 Y42.254 E72.52616
G1 X73.739 Y42.141 E72.59164
G1 X75.584 Y41.725 E72.84326
G1 X76.427 Y41.547 E72.95789
G1 X76.7 Y41.493 E72.99491
G1 X77.195 Y41.402 E73.06187
G1 X79.052 Y41.078 E73.31266
G1 X79.862 Y40.948 E73.4218
G1 X80.161 Y40.904 E73.46201
G1 X80.709 Y40.832 E73.53554
G1 X82.502 Y40.611 E73.77589
G1 X83.397 Y40.513 E73.89567
G1 X83.674 Y40.486 E73.9327
G1 X84.136 Y40.448 E73.99437
G1 X86.008 Y40.312 E74.24408
G1 X86.929 Y40.258 E74.36682
G1 X87.227 Y40.244 E74.40651
G1 X87.69 Y40.229 E74.46814
G1 X89.293 Y40.19 E74.68146
G1 X90.34 Y40.179 E74.82076
G1 X90.618 Y40.179 E74.85775
