;FLAVOR:Marlin
;TIME:7933
;Filament used: 23.2838m
;Layer height: 0.32
;MINX:19.854
;MINY:54.2
;MINZ:0.32
;MAXX:200.607
;MAXY:168.756
;MAXZ:49.92
;Generated with Cura_SteamEngine 4.12.1
M140 S60
M105
M190 S60
M104 S200
M105
M109 S200
M82 ;absolute extrusion mode
; Ender 3 Custom Start G-code
G92 E0 ; Reset Extruder
G28 ; Home all axes
G29 ; bed level adjust
G1 Z2.0 F3000 ; Move Z Axis up little to prevent scratching of Heat Bed
G1 X0.1 Y20 Z0.3 F5000.0 ; Move to start position
G1 X0.1 Y200.0 Z0.3 F1500.0 E15 ; Draw the first line
G1 X0.4 Y200.0 Z0.3 F5000.0 ; Move to side a little
G1 X0.4 Y20 Z0.3 F1500.0 E30 ; Draw the second line
G92 E0 ; Reset Extruder
G1 Z2.0 F3000 ; Move Z Axis up little to prevent scratching of Heat Bed
G1 X5 Y20 Z0.3 F5000.0 ; Move over to prevent blob squish
G92 E0
G92 E0
G1 F1500 E-6.5
;LAYER_COUNT:156
;LAYER:0
M107
G0 F6000 X32.09 Y55.721 Z0.32
;TYPE:SKIRT
G1 F1500 E0
G1 F1200 X32.988 Y55.281 E0.13304
G1 X33.918 Y54.914 E0.26605
G1 X34.874 Y54.623 E0.399
G1 X35.851 Y54.409 E0.53206
G1 X36.841 Y54.273 E0.66501
G1 X37.81 Y54.218 E0.79414
G1 X38.696 Y54.202 E0.91203
G1 X38.922 Y54.2 E0.9421
G1 X173.981 Y54.2 E18.91042
G1 X174.848 Y54.211 E19.02577
G1 X175.847 Y54.266 E19.15888
G1 X176.838 Y54.4 E19.29193
G1 X177.814 Y54.613 E19.42483
G1 X178.771 Y54.903 E19.55787
G1 X179.702 Y55.269 E19.69096
G1 X180.6 Y55.708 E19.82394
G1 X181.46 Y56.218 E19.95696
G1 X182.277 Y56.794 E20.08995
G1 X183.045 Y57.434 E20.22295
G1 X183.76 Y58.133 E20.35598
G1 X184.213 Y58.641 E20.44653
G1 X184.912 Y59.468 E20.5906
G1 X185.087 Y59.68 E20.62717
G1 X185.809 Y60.576 E20.78026
G1 X186.378 Y61.301 E20.90287
G1 X186.56 Y61.538 E20.94263
G1 X186.88 Y61.968 E21.01394
G1 X187.874 Y63.33 E21.23826
G1 X188.377 Y64.04 E21.35402
G1 X188.552 Y64.294 E21.39506
G1 X188.839 Y64.722 E21.46362
G1 X189.766 Y66.137 E21.68867
G1 X190.248 Y66.893 E21.80795
G1 X190.417 Y67.167 E21.85078
G1 X190.673 Y67.593 E21.9169
G1 X191.527 Y69.049 E22.14147
G1 X191.99 Y69.862 E22.26594
G1 X192.143 Y70.139 E22.30804
G1 X192.346 Y70.518 E22.36524
G1 X193.197 Y72.149 E22.60999
G1 X193.551 Y72.85 E22.71447
G1 X193.691 Y73.137 E22.75695
G1 X193.91 Y73.601 E22.82522
G1 X194.546 Y74.978 E23.02701
G1 X194.994 Y75.985 E23.17364
G1 X195.12 Y76.278 E23.21607
G1 X195.309 Y76.736 E23.28199
G1 X195.92 Y78.256 E23.49994
G1 X196.264 Y79.147 E23.62701
G1 X196.373 Y79.439 E23.66847
G1 X196.545 Y79.924 E23.73693
G1 X197.1 Y81.527 E23.96262
G1 X197.386 Y82.394 E24.08408
G1 X197.485 Y82.708 E24.12788
G1 X197.583 Y83.038 E24.17368
G1 X198.105 Y84.83 E24.422
G1 X198.316 Y85.593 E24.52732
G1 X198.398 Y85.907 E24.57049
G1 X198.535 Y86.459 E24.64616
G1 X198.89 Y87.952 E24.85033
G1 X199.119 Y88.978 E24.99018
G1 X199.177 Y89.252 E25.02744
G1 X199.277 Y89.758 E25.09606
G1 X199.587 Y91.426 E25.32178
G1 X199.742 Y92.329 E25.44367
G1 X199.789 Y92.628 E25.48394
G1 X199.854 Y93.074 E25.5439
G1 X200.077 Y94.717 E25.76449
G1 X200.196 Y95.698 E25.89596
G1 X200.227 Y95.979 E25.93357
G1 X200.279 Y96.52 E26.00588
G1 X200.414 Y98.122 E26.21976
G1 X200.485 Y99.114 E26.35208
G1 X200.504 Y99.427 E26.3938
G1 X200.525 Y99.907 E26.45772
G1 X200.583 Y101.564 E26.6783
G1 X200.604 Y102.508 E26.80392
G1 X200.607 Y102.825 E26.8461
G1 X200.605 Y103.286 E26.90743
G1 X200.583 Y104.846 E27.11499
G1 X200.554 Y105.92 E27.25793
G1 X200.542 Y106.227 E27.2988
G1 X200.516 Y106.699 E27.36169
G1 X200.405 Y108.418 E27.59087
G1 X200.336 Y109.315 E27.71056
G1 X200.307 Y109.643 E27.75437
G1 X200.258 Y110.105 E27.81617
G1 X200.062 Y111.823 E28.04622
G1 X199.951 Y112.694 E28.16304
G1 X199.906 Y113.012 E28.20576
G1 X199.828 Y113.514 E28.27335
G1 X199.542 Y115.246 E28.5069
G1 X199.388 Y116.103 E28.62274
G1 X199.331 Y116.401 E28.66311
G1 X199.238 Y116.849 E28.72398
G1 X198.882 Y118.498 E28.94842
G1 X198.671 Y119.417 E29.07386
G1 X198.602 Y119.703 E29.113
G1 X198.475 Y120.197 E29.18086
G1 X198.031 Y121.845 E29.40793
G1 X197.775 Y122.75 E29.53306
G1 X197.678 Y123.076 E29.57831
G1 X197.576 Y123.401 E29.62363
G1 X197.076 Y124.955 E29.84081
G1 X196.744 Y125.941 E29.97922
G1 X196.653 Y126.202 E30.016
G1 X196.458 Y126.737 E30.09175
G1 X195.846 Y128.351 E30.3214
G1 X195.533 Y129.146 E30.43507
G1 X195.42 Y129.423 E30.47487
G1 X195.233 Y129.865 E30.53872
G1 X194.533 Y131.47 E30.77167
G1 X194.168 Y132.278 E30.88963
G1 X194.04 Y132.551 E30.92974
G1 X193.848 Y132.949 E30.98853
G1 X193.053 Y134.549 E31.22623
G1 X192.644 Y135.346 E31.34541
G1 X192.514 Y135.593 E31.38254
G1 X192.3 Y135.986 E31.44208
G1 X191.416 Y137.562 E31.68248
G1 X190.994 Y138.292 E31.79466
G1 X190.843 Y138.546 E31.83397
G1 X190.534 Y139.051 E31.91274
G1 X189.675 Y140.419 E32.12764
G1 X189.167 Y141.206 E32.25226
G1 X188.994 Y141.467 E32.29392
G1 X188.721 Y141.867 E32.35835
G1 X187.728 Y143.289 E32.5891
G1 X187.214 Y144.004 E32.70625
G1 X187.037 Y144.243 E32.74582
G1 X186.746 Y144.627 E32.80992
G1 X185.691 Y145.989 E33.03912
G1 X185.128 Y146.696 E33.15936
G1 X184.939 Y146.928 E33.19917
G1 X184.606 Y147.325 E33.26811
G1 X183.619 Y148.478 E33.47003
G1 X182.904 Y149.29 E33.61397
G1 X182.702 Y149.513 E33.654
G1 X182.379 Y149.862 E33.71727
G1 X181.316 Y150.987 E33.92318
G1 X180.556 Y151.769 E34.06826
G1 X180.367 Y151.959 E34.10391
G1 X179.988 Y152.33 E34.17447
G1 X178.758 Y153.505 E34.40078
G1 X178.098 Y154.12 E34.5208
G1 X177.869 Y154.328 E34.56196
G1 X177.511 Y154.644 E34.62548
G1 X176.187 Y155.789 E34.85836
G1 X175.497 Y156.369 E34.97828
G1 X175.25 Y156.571 E35.02073
G1 X174.885 Y156.862 E35.08284
G1 X173.56 Y157.899 E35.30669
G1 X172.82 Y158.461 E35.43031
G1 X172.603 Y158.622 E35.46626
G1 X172.151 Y158.949 E35.54048
G1 X170.746 Y159.94 E35.76922
G1 X170.086 Y160.393 E35.87572
G1 X169.818 Y160.572 E35.9186
G1 X169.328 Y160.889 E35.99624
G1 X168.073 Y161.685 E36.19396
G1 X167.143 Y162.256 E36.33914
G1 X166.908 Y162.397 E36.3756
G1 X166.465 Y162.654 E36.44374
G1 X164.942 Y163.516 E36.67656
G1 X164.196 Y163.925 E36.78975
G1 X163.93 Y164.067 E36.82987
G1 X163.456 Y164.311 E36.90079
G1 X162.104 Y164.991 E37.10213
G1 X161.112 Y165.473 E37.24886
G1 X160.851 Y165.596 E37.28725
G1 X160.426 Y165.789 E37.34935
G1 X158.826 Y166.496 E37.58207
G1 X158.012 Y166.842 E37.69974
G1 X157.758 Y166.947 E37.73631
G1 X157.302 Y167.128 E37.80158
G1 X155.815 Y167.7 E38.01354
G1 X155.002 Y167.999 E38.12878
G1 X154.051 Y168.305 E38.26169
G1 X153.077 Y168.534 E38.39481
G1 X152.089 Y168.685 E38.52778
G1 X151.092 Y168.756 E38.66076
G1 X150.092 Y168.747 E38.7938
G1 X149.096 Y168.658 E38.92684
G1 X148.111 Y168.49 E39.05978
G1 X147.142 Y168.244 E39.19278
G1 X146.195 Y167.921 E39.3259
G1 X145.278 Y167.524 E39.45884
G1 X144.695 Y167.224 E39.54607
G1 X143.779 Y166.722 E39.68503
G1 X143.536 Y166.585 E39.72215
G1 X26.53 Y99.03 E57.69694
G1 X25.956 Y98.688 E57.78584
G1 X25.118 Y98.143 E57.91883
G1 X24.327 Y97.532 E58.0518
G1 X23.587 Y96.86 E58.18479
G1 X22.903 Y96.13 E58.31788
G1 X22.279 Y95.349 E58.45088
G1 X21.72 Y94.52 E58.5839
G1 X21.229 Y93.649 E58.71692
G1 X20.809 Y92.742 E58.8499
G1 X20.463 Y91.804 E58.98291
G1 X20.193 Y90.841 E59.11597
G1 X20.001 Y89.86 E59.24896
G1 X19.888 Y88.867 E59.38192
G1 X19.854 Y87.867 E59.51504
G1 X19.901 Y86.869 E59.64796
G1 X20.027 Y85.877 E59.78099
G1 X20.226 Y84.925 E59.91039
G1 X20.502 Y83.825 E60.06127
G1 X25.826 Y63.96 E62.79739
G1 X26.006 Y63.322 E62.88558
G1 X26.315 Y62.371 E63.01861
G1 X26.7 Y61.448 E63.15167
G1 X27.157 Y60.559 E63.28465
G1 X27.684 Y59.71 E63.41759
G1 X28.277 Y58.905 E63.55061
G1 X28.933 Y58.15 E63.68368
G1 X29.646 Y57.45 E63.81661
G1 X30.414 Y56.809 E63.9497
G1 X31.23 Y56.231 E64.08273
G1 X32.09 Y55.721 E64.21575
G0 F6000 X32.913 Y56.42
G1 F1200 X33.789 Y56.029 E64.34338
G1 X34.694 Y55.712 E64.47095
G1 X35.622 Y55.472 E64.59848
G1 X36.567 Y55.31 E64.72603
G1 X37.828 Y55.218 E64.89424
G1 X38.714 Y55.202 E65.01214
G1 X38.922 Y55.2 E65.03981
G1 X173.981 Y55.2 E83.00813
G1 X174.834 Y55.211 E83.12163
G1 X175.791 Y55.265 E83.24915
G1 X176.741 Y55.399 E83.37679
G1 X177.676 Y55.611 E83.50434
G1 X178.59 Y55.9 E83.63187
G1 X179.477 Y56.265 E83.75948
G1 X180.331 Y56.702 E83.88711
G1 X181.145 Y57.209 E84.01469
G1 X181.914 Y57.782 E84.14228
G1 X182.633 Y58.417 E84.2699
G1 X183.449 Y59.286 E84.42849
G1 X184.148 Y60.113 E84.57255
G1 X184.309 Y60.308 E84.60619
G1 X185.023 Y61.193 E84.75748
G1 X185.592 Y61.918 E84.88009
G1 X185.759 Y62.136 E84.91662
G1 X186.073 Y62.558 E84.9866
G1 X187.058 Y63.908 E85.20893
G1 X187.561 Y64.618 E85.32469
G1 X187.722 Y64.852 E85.36248
G1 X188.003 Y65.271 E85.4296
G1 X188.923 Y66.675 E85.65292
G1 X189.405 Y67.431 E85.7722
G1 X189.561 Y67.682 E85.81152
G1 X189.811 Y68.099 E85.8762
G1 X190.658 Y69.544 E86.09904
G1 X191.121 Y70.357 E86.22351
G1 X191.262 Y70.612 E86.26228
G1 X191.46 Y70.982 E86.31811
G1 X192.304 Y72.6 E86.56089
G1 X192.658 Y73.301 E86.66537
G1 X192.787 Y73.565 E86.70446
G1 X193.002 Y74.02 E86.77141
G1 X193.709 Y75.554 E86.99613
G1 X194.08 Y76.39 E87.11781
G1 X194.196 Y76.66 E87.15691
G1 X194.382 Y77.11 E87.22169
G1 X194.926 Y78.46 E87.41533
G1 X195.331 Y79.507 E87.56468
G1 X195.431 Y79.776 E87.60286
G1 X195.601 Y80.251 E87.66998
G1 X196.095 Y81.676 E87.87063
G1 X196.436 Y82.707 E88.0151
G1 X196.527 Y82.997 E88.05554
G1 X196.623 Y83.318 E88.10012
G1 X197.141 Y85.097 E88.34662
G1 X197.352 Y85.86 E88.45194
G1 X197.428 Y86.148 E88.49157
G1 X197.562 Y86.691 E88.56598
G1 X197.955 Y88.349 E88.79267
G1 X198.143 Y89.195 E88.90797
G1 X198.196 Y89.447 E88.94223
G1 X198.294 Y89.941 E89.00923
G1 X198.572 Y91.43 E89.21075
G1 X198.756 Y92.498 E89.35493
G1 X198.8 Y92.773 E89.39199
G1 X198.863 Y93.209 E89.45059
G1 X199.084 Y94.837 E89.66917
G1 X199.203 Y95.818 E89.80064
G1 X199.232 Y96.077 E89.83531
G1 X199.283 Y96.605 E89.90589
G1 X199.417 Y98.193 E90.1179
G1 X199.488 Y99.185 E90.25022
G1 X199.505 Y99.473 E90.2886
G1 X199.526 Y99.942 E90.35106
G1 X199.583 Y101.586 E90.56991
G1 X199.604 Y102.53 E90.69553
G1 X199.607 Y102.821 E90.73425
G1 X199.605 Y103.272 E90.79425
G1 X199.58 Y104.988 E91.02257
G1 X199.555 Y105.892 E91.14289
G1 X199.543 Y106.175 E91.18057
G1 X199.518 Y106.635 E91.24186
G1 X199.408 Y108.341 E91.4693
G1 X199.339 Y109.238 E91.58899
G1 X199.312 Y109.54 E91.62933
G1 X199.264 Y109.992 E91.6898
G1 X199.07 Y111.697 E91.9181
G1 X198.959 Y112.568 E92.03491
G1 X198.918 Y112.86 E92.07414
G1 X198.841 Y113.352 E92.14039
G1 X198.558 Y115.069 E92.37191
G1 X198.404 Y115.926 E92.48775
G1 X198.351 Y116.2 E92.52488
G1 X198.261 Y116.639 E92.5845
G1 X197.942 Y118.121 E92.78618
G1 X197.696 Y119.193 E92.9325
G1 X197.633 Y119.456 E92.96848
G1 X197.509 Y119.938 E93.0347
G1 X197.069 Y121.573 E93.25996
G1 X196.813 Y122.478 E93.38508
G1 X196.724 Y122.778 E93.42672
G1 X196.624 Y123.094 E93.47081
G1 X196.072 Y124.807 E93.71025
G1 X195.797 Y125.621 E93.82456
G1 X195.713 Y125.861 E93.85839
G1 X195.523 Y126.383 E93.93229
G1 X194.916 Y127.985 E94.16021
G1 X194.603 Y128.78 E94.27388
G1 X194.499 Y129.034 E94.31039
G1 X194.316 Y129.465 E94.37269
G1 X193.621 Y131.058 E94.60391
G1 X193.256 Y131.866 E94.72187
G1 X193.139 Y132.117 E94.75871
G1 X192.952 Y132.505 E94.81601
G1 X192.163 Y134.093 E95.05192
G1 X191.754 Y134.89 E95.1711
G1 X191.635 Y135.116 E95.20508
G1 X191.427 Y135.497 E95.26283
G1 X190.55 Y137.061 E95.50139
G1 X190.128 Y137.791 E95.61357
G1 X189.989 Y138.025 E95.64978
G1 X189.686 Y138.52 E95.72699
G1 X188.835 Y139.877 E95.94009
G1 X188.327 Y140.664 E96.06471
G1 X188.168 Y140.903 E96.1029
G1 X187.9 Y141.295 E96.16608
G1 X186.916 Y142.706 E96.39494
G1 X186.402 Y143.421 E96.51209
G1 X186.239 Y143.641 E96.54852
G1 X185.956 Y144.015 E96.61091
G1 X184.909 Y145.366 E96.83831
G1 X184.346 Y146.073 E96.95855
G1 X184.172 Y146.286 E96.99514
G1 X183.846 Y146.674 E97.06256
G1 X182.747 Y147.957 E97.28731
G1 X182.155 Y148.628 E97.40636
G1 X181.969 Y148.834 E97.44329
G1 X181.652 Y149.175 E97.50523
G1 X180.469 Y150.425 E97.7342
G1 X179.839 Y151.072 E97.85434
G1 X179.666 Y151.246 E97.88698
G1 X179.297 Y151.607 E97.95566
G1 X178.076 Y152.773 E98.18027
G1 X177.416 Y153.388 E98.30029
G1 X177.205 Y153.58 E98.33825
G1 X176.857 Y153.888 E98.40007
G1 X175.544 Y155.023 E98.63097
G1 X174.854 Y155.603 E98.7509
G1 X174.626 Y155.789 E98.79004
G1 X174.268 Y156.075 E98.851
G1 X173.096 Y156.994 E99.04915
G1 X172.215 Y157.664 E99.1964
G1 X172.015 Y157.813 E99.22958
G1 X171.574 Y158.132 E99.30199
G1 X170.18 Y159.116 E99.529
G1 X169.52 Y159.569 E99.6355
G1 X169.273 Y159.733 E99.67494
G1 X168.793 Y160.044 E99.75104
G1 X167.538 Y160.84 E99.94875
G1 X166.621 Y161.403 E100.09191
G1 X166.405 Y161.533 E100.12545
G1 X165.972 Y161.784 E100.19204
G1 X164.462 Y162.639 E100.4229
G1 X163.716 Y163.048 E100.53608
G1 X163.47 Y163.179 E100.57316
G1 X163.006 Y163.418 E100.6426
G1 X161.505 Y164.172 E100.86607
G1 X160.676 Y164.574 E100.98865
G1 X160.436 Y164.687 E101.02394
G1 X160.022 Y164.875 E101.08443
G1 X158.435 Y165.576 E101.31525
G1 X157.621 Y165.922 E101.43292
G1 X157.079 Y166.141 E101.51069
G1 X155.456 Y166.766 E101.74207
G1 X154.658 Y167.06 E101.85521
G1 X153.745 Y167.352 E101.98274
G1 X152.81 Y167.567 E102.11038
G1 X151.861 Y167.703 E102.23793
G1 X150.904 Y167.76 E102.36547
G1 X149.945 Y167.737 E102.49309
G1 X148.992 Y167.634 E102.62062
G1 X148.05 Y167.452 E102.74826
G1 X147.127 Y167.192 E102.87584
G1 X146.229 Y166.856 E103.0034
G1 X145.175 Y166.347 E103.15912
G1 X144.259 Y165.845 E103.29808
G1 X144.036 Y165.719 E103.33216
G1 X27.042 Y98.171 E121.30511
G1 X26.468 Y97.829 E121.394
G1 X25.665 Y97.305 E121.52157
G1 X24.909 Y96.715 E121.64915
G1 X24.205 Y96.064 E121.77672
G1 X23.557 Y95.357 E121.90431
G1 X22.97 Y94.598 E122.03196
G1 X22.449 Y93.793 E122.15953
G1 X21.997 Y92.948 E122.28702
G1 X21.616 Y92.067 E122.41472
G1 X21.311 Y91.158 E122.54228
G1 X21.082 Y90.227 E122.66983
G1 X20.931 Y89.28 E122.79742
G1 X20.86 Y88.324 E122.92495
G1 X20.869 Y87.365 E123.05254
G1 X20.958 Y86.41 E123.18015
G1 X21.196 Y85.167 E123.34852
G1 X21.418 Y84.277 E123.47056
G1 X21.468 Y84.084 E123.49708
G1 X26.788 Y64.231 E126.23152
G1 X26.968 Y63.593 E126.31971
G1 X27.267 Y62.682 E126.44728
G1 X27.64 Y61.799 E126.5748
G1 X28.086 Y60.95 E126.70239
G1 X28.601 Y60.141 E126.82998
G1 X29.182 Y59.378 E126.95757
G1 X29.824 Y58.666 E127.08511
G1 X30.523 Y58.009 E127.21274
G1 X31.275 Y57.414 E127.34031
G1 X32.073 Y56.883 E127.46784
G1 X32.913 Y56.42 E127.59544
G0 F6000 X32.909 Y57.553
G1 F1200 X33.727 Y57.141 E127.71729
G1 X34.578 Y56.802 E127.83916
G1 X35.456 Y56.538 E127.96114
G1 X36.353 Y56.352 E128.08302
G1 X37.263 Y56.244 E128.20493
G1 X37.846 Y56.218 E128.28257
G1 X38.922 Y56.2 E128.42574
G1 X173.981 Y56.2 E146.39407
G1 X174.819 Y56.211 E146.50556
G1 X175.734 Y56.264 E146.6275
G1 X176.641 Y56.397 E146.74946
G1 X177.532 Y56.609 E146.87131
G1 X178.402 Y56.897 E146.99323
G1 X179.243 Y57.26 E147.11509
G1 X180.05 Y57.695 E147.23706
G1 X180.815 Y58.199 E147.35894
G1 X181.534 Y58.767 E147.48084
G1 X182.2 Y59.396 E147.60272
G1 X182.685 Y59.932 E147.69889
G1 X183.384 Y60.759 E147.84295
G1 X183.531 Y60.937 E147.87366
G1 X184.236 Y61.81 E148.02295
G1 X184.805 Y62.535 E148.14556
G1 X185.199 Y63.059 E148.23278
G1 X186.242 Y64.486 E148.46794
G1 X186.745 Y65.196 E148.5837
G1 X186.892 Y65.41 E148.61824
G1 X187.167 Y65.819 E148.68381
G1 X188.08 Y67.212 E148.90539
G1 X188.562 Y67.968 E149.02467
G1 X188.704 Y68.198 E149.06064
G1 X188.948 Y68.605 E149.12377
G1 X189.789 Y70.039 E149.34494
G1 X190.252 Y70.852 E149.46941
G1 X190.381 Y71.085 E149.50484
G1 X190.573 Y71.445 E149.55912
G1 X191.412 Y73.051 E149.80018
G1 X191.766 Y73.752 E149.90466
G1 X191.883 Y73.992 E149.94019
G1 X192.094 Y74.439 E150.00595
G1 X192.795 Y75.96 E150.22876
G1 X193.166 Y76.796 E150.35044
G1 X193.272 Y77.042 E150.38608
G1 X193.454 Y77.484 E150.44967
G1 X194.054 Y78.976 E150.66362
G1 X194.398 Y79.867 E150.79068
G1 X194.489 Y80.112 E150.82546
G1 X194.656 Y80.579 E150.89144
G1 X195.15 Y82.004 E151.09209
G1 X195.486 Y83.021 E151.23458
G1 X195.57 Y83.285 E151.27144
G1 X195.663 Y83.597 E151.31476
G1 X196.177 Y85.363 E151.55945
G1 X196.388 Y86.126 E151.66477
G1 X196.457 Y86.39 E151.70108
G1 X196.589 Y86.922 E151.774
G1 X196.979 Y88.566 E151.99879
G1 X197.167 Y89.412 E152.11409
G1 X197.287 Y90.004 E152.19445
G1 X197.589 Y91.614 E152.41238
