;FLAVOR:Marlin
;TIME:16065
;Filament used: 40.0185m
;Layer height: 0.32
;MINX:17.144
;MINY:69.285
;MINZ:0.32
;MAXX:197.896
;MAXY:183.847
;MAXZ:45.12
;Generated with Cura_SteamEngine 4.12.1
M140 S60
M105
M190 S60
M104 S200
M105
M109 S200
M82 ;absolute extrusion mode
; Ender 3 Custom Start G-code
G92 E0 ; Reset Extruder
G28 ; Home all axes
G29 ; bed level adjust
G1 Z2.0 F3000 ; Move Z Axis up little to prevent scratching of Heat Bed
G1 X0.1 Y20 Z0.3 F5000.0 ; Move to start position
G1 X0.1 Y200.0 Z0.3 F1500.0 E15 ; Draw the first line
G1 X0.4 Y200.0 Z0.3 F5000.0 ; Move to side a little
G1 X0.4 Y20 Z0.3 F1500.0 E30 ; Draw the second line
G92 E0 ; Reset Extruder
G1 Z2.0 F3000 ; Move Z Axis up little to prevent scratching of Heat Bed
G1 X5 Y20 Z0.3 F5000.0 ; Move over to prevent blob squish
G92 E0
G92 E0
G1 F1500 E-6.5
;LAYER_COUNT:141
;LAYER:0
M107
G0 F6000 X30.271 Y70.369 Z0.32
;TYPE:SKIRT
G1 F1500 E0
G1 F1200 X31.2 Y70.001 E0.13294
G1 X32.157 Y69.709 E0.26605
G1 X33.133 Y69.495 E0.39899
G1 X34.124 Y69.359 E0.53206
G1 X35.104 Y69.303 E0.66266
G1 X36.004 Y69.287 E0.78241
G1 X36.226 Y69.285 E0.81195
G1 X171.27 Y69.285 E18.77827
G1 X172.138 Y69.296 E18.89376
G1 X173.137 Y69.351 E19.02687
G1 X174.127 Y69.485 E19.15978
G1 X175.104 Y69.698 E19.29282
G1 X176.061 Y69.988 E19.42585
G1 X176.991 Y70.354 E19.55882
G1 X177.89 Y70.793 E19.69192
G1 X178.75 Y71.302 E19.82487
G1 X179.567 Y71.879 E19.95794
G1 X180.335 Y72.519 E20.09094
G1 X181.049 Y73.218 E20.22388
G1 X181.503 Y73.726 E20.31452
G1 X182.18 Y74.527 E20.45405
G1 X182.344 Y74.725 E20.48825
G1 X183.007 Y75.543 E20.62834
G1 X183.646 Y76.355 E20.76581
G1 X183.84 Y76.609 E20.80833
G1 X184.172 Y77.054 E20.88219
G1 X185.086 Y78.307 E21.08853
G1 X185.678 Y79.142 E21.2247
G1 X185.866 Y79.415 E21.2688
G1 X186.112 Y79.783 E21.32769
G1 X187.059 Y81.227 E21.55743
G1 X187.559 Y82.013 E21.68137
G1 X187.712 Y82.259 E21.71991
G1 X187.941 Y82.64 E21.77905
G1 X188.847 Y84.185 E22.01733
G1 X189.268 Y84.925 E22.1306
G1 X189.413 Y85.187 E22.17044
G1 X189.683 Y85.692 E22.24662
G1 X190.425 Y87.115 E22.46013
G1 X190.843 Y87.94 E22.58317
G1 X190.985 Y88.229 E22.62601
G1 X191.207 Y88.698 E22.69505
G1 X191.85 Y90.094 E22.89952
G1 X192.29 Y91.083 E23.04354
G1 X192.416 Y91.375 E23.08585
G1 X192.585 Y91.786 E23.14497
G1 X193.219 Y93.363 E23.37109
G1 X193.542 Y94.199 E23.49033
G1 X193.648 Y94.484 E23.53078
G1 X193.852 Y95.054 E23.61133
G1 X194.323 Y96.416 E23.80306
G1 X194.67 Y97.466 E23.95018
G1 X194.754 Y97.73 E23.98704
G1 X194.901 Y98.218 E24.05484
G1 X195.39 Y99.9 E24.28788
G1 X195.624 Y100.748 E24.40492
G1 X195.706 Y101.063 E24.44822
G1 X195.798 Y101.436 E24.49933
G1 X196.219 Y103.206 E24.74138
G1 X196.402 Y104.026 E24.85316
G1 X196.461 Y104.304 E24.89097
G1 X196.564 Y104.827 E24.96189
G1 X196.878 Y106.518 E25.1907
G1 X197.029 Y107.392 E25.3087
G1 X197.081 Y107.719 E25.35275
G1 X197.151 Y108.205 E25.41808
G1 X197.38 Y109.905 E25.64629
G1 X197.489 Y110.812 E25.76783
G1 X197.547 Y111.375 E25.84312
G1 X197.697 Y113.127 E26.07706
G1 X197.776 Y114.217 E26.22246
G1 X197.795 Y114.535 E26.26484
G1 X197.812 Y114.927 E26.31704
G1 X197.873 Y116.681 E26.55054
G1 X197.893 Y117.617 E26.67509
G1 X197.896 Y117.924 E26.71594
G1 X197.894 Y118.37 E26.77527
G1 X197.872 Y119.932 E26.9831
G1 X197.843 Y121.001 E27.12538
G1 X197.83 Y121.326 E27.16865
G1 X197.805 Y121.778 E27.22887
G1 X197.693 Y123.522 E27.46138
G1 X197.623 Y124.418 E27.58094
G1 X197.596 Y124.721 E27.62141
G1 X197.543 Y125.226 E27.68897
G1 X197.354 Y126.881 E27.91058
G1 X197.233 Y127.83 E28.03786
G1 X197.188 Y128.146 E28.08032
G1 X197.129 Y128.526 E28.13149
G1 X196.84 Y130.284 E28.36851
G1 X196.683 Y131.159 E28.48678
G1 X196.632 Y131.425 E28.52281
G1 X196.515 Y131.996 E28.60036
G1 X196.171 Y133.589 E28.81718
G1 X195.962 Y134.502 E28.94178
G1 X195.881 Y134.834 E28.98725
G1 X195.776 Y135.24 E29.04304
G1 X195.322 Y136.927 E29.27546
G1 X195.073 Y137.804 E29.39675
G1 X194.993 Y138.073 E29.43409
G1 X194.838 Y138.571 E29.50348
G1 X194.319 Y140.18 E29.7284
G1 X194.029 Y141.04 E29.84915
G1 X193.933 Y141.312 E29.88752
G1 X193.75 Y141.814 E29.95861
G1 X193.145 Y143.412 E30.18593
G1 X192.825 Y144.224 E30.30205
G1 X192.714 Y144.495 E30.34101
G1 X192.514 Y144.968 E30.40933
G1 X191.891 Y146.399 E30.61697
G1 X191.45 Y147.375 E30.75946
G1 X191.33 Y147.633 E30.79732
G1 X191.114 Y148.08 E30.86336
G1 X190.351 Y149.617 E31.09166
G1 X189.934 Y150.428 E31.21298
G1 X189.674 Y150.914 E31.28631
G1 X188.792 Y152.495 E31.52716
G1 X188.698 Y152.661 E31.55254
G1 X188.286 Y153.373 E31.66198
G1 X188.137 Y153.623 E31.7007
G1 X187.844 Y154.101 E31.77529
G1 X186.949 Y155.529 E31.9995
G1 X186.466 Y156.277 E32.11796
G1 X186.306 Y156.518 E32.15645
G1 X185.998 Y156.971 E32.22933
G1 X185.034 Y158.351 E32.45328
G1 X184.504 Y159.09 E32.57427
G1 X184.318 Y159.342 E32.61594
G1 X184.067 Y159.673 E32.6712
G1 X182.982 Y161.073 E32.90685
G1 X182.417 Y161.782 E33.02746
G1 X182.23 Y162.011 E33.0668
G1 X181.901 Y162.403 E33.13488
G1 X180.768 Y163.724 E33.36641
G1 X180.193 Y164.376 E33.48207
G1 X180.003 Y164.587 E33.51985
G1 X179.684 Y164.931 E33.58226
G1 X178.484 Y166.198 E33.81443
G1 X177.855 Y166.845 E33.93448
G1 X177.625 Y167.075 E33.97775
G1 X177.274 Y167.417 E34.04295
G1 X176.04 Y168.595 E34.26992
G1 X175.368 Y169.22 E34.39201
G1 X174.956 Y169.591 E34.46577
G1 X173.597 Y170.77 E34.70513
G1 X172.812 Y171.433 E34.84183
G1 X172.339 Y171.817 E34.92289
G1 X170.965 Y172.894 E35.15515
G1 X170.12 Y173.539 E35.29658
G1 X169.856 Y173.735 E35.34032
G1 X169.471 Y174.011 E35.40334
G1 X168.078 Y174.994 E35.63017
G1 X167.312 Y175.519 E35.75371
G1 X167.056 Y175.69 E35.79467
G1 X166.707 Y175.915 E35.84992
G1 X165.194 Y176.874 E36.08823
G1 X164.434 Y177.341 E36.20691
G1 X164.155 Y177.508 E36.25017
G1 X163.794 Y177.716 E36.3056
G1 X162.256 Y178.586 E36.54068
G1 X161.508 Y178.997 E36.65423
G1 X161.204 Y179.159 E36.70006
G1 X160.756 Y179.389 E36.76706
G1 X159.241 Y180.151 E36.99267
G1 X158.423 Y180.548 E37.11364
G1 X158.148 Y180.677 E37.15405
G1 X157.701 Y180.88 E37.21936
G1 X156.134 Y181.571 E37.44721
G1 X155.274 Y181.937 E37.57155
G1 X154.98 Y182.058 E37.61385
G1 X154.588 Y182.212 E37.66988
G1 X153.115 Y182.78 E37.87992
G1 X152.289 Y183.085 E37.99706
G1 X151.337 Y183.393 E38.13018
G1 X150.364 Y183.623 E38.26319
G1 X149.376 Y183.774 E38.39616
G1 X148.379 Y183.847 E38.52916
G1 X147.379 Y183.839 E38.66221
G1 X146.383 Y183.751 E38.79523
G1 X145.398 Y183.584 E38.92814
G1 X144.428 Y183.339 E39.06125
G1 X143.482 Y183.017 E39.19419
G1 X142.564 Y182.621 E39.3272
G1 X142.041 Y182.354 E39.40533
G1 X141.75 Y182.197 E39.44932
G1 X141.435 Y182.021 E39.49732
G1 X23.861 Y114.139 E57.55932
G1 X23.257 Y113.78 E57.65279
G1 X22.419 Y113.235 E57.78579
G1 X21.627 Y112.625 E57.91878
G1 X20.886 Y111.954 E58.05178
G1 X20.201 Y111.226 E58.18477
G1 X19.577 Y110.445 E58.31776
G1 X19.017 Y109.616 E58.45086
G1 X18.525 Y108.746 E58.58383
G1 X18.104 Y107.839 E58.71687
G1 X17.757 Y106.902 E58.8498
G1 X17.486 Y105.939 E58.98289
G1 X17.293 Y104.958 E59.11591
G1 X17.179 Y103.965 E59.24888
G1 X17.144 Y102.966 E59.38187
G1 X17.19 Y101.967 E59.51492
G1 X17.315 Y100.975 E59.64794
G1 X17.513 Y100.019 E59.77783
G1 X17.734 Y99.13 E59.8997
G1 X17.791 Y98.911 E59.92981
G1 X23.104 Y79.089 E62.66002
G1 X23.294 Y78.414 E62.75332
G1 X23.603 Y77.463 E62.88635
G1 X23.987 Y76.54 E63.01935
G1 X24.444 Y75.651 E63.15233
G1 X24.97 Y74.801 E63.28532
G1 X25.563 Y73.996 E63.41834
G1 X26.218 Y73.24 E63.55142
G1 X26.931 Y72.54 E63.68435
G1 X27.698 Y71.898 E63.81742
G1 X28.514 Y71.32 E63.95045
G1 X29.373 Y70.809 E64.08343
G1 X30.271 Y70.369 E64.21647
G0 F6000 X31.072 Y71.117
G1 F1200 X31.977 Y70.799 E64.34409
G1 X32.906 Y70.559 E64.47174
G1 X33.851 Y70.396 E64.59932
G1 X35.122 Y70.303 E64.76887
G1 X36.226 Y70.285 E64.91576
G1 X171.27 Y70.285 E82.88209
G1 X172.124 Y70.296 E82.99572
G1 X173.081 Y70.35 E83.12324
G1 X174.031 Y70.484 E83.25088
G1 X174.966 Y70.696 E83.37843
G1 X175.88 Y70.985 E83.50596
G1 X176.767 Y71.35 E83.63357
G1 X177.621 Y71.787 E83.7612
G1 X178.435 Y72.294 E83.88878
G1 X179.204 Y72.866 E84.01629
G1 X179.923 Y73.501 E84.14391
G1 X180.739 Y74.372 E84.30269
G1 X181.416 Y75.173 E84.44222
G1 X181.567 Y75.355 E84.47369
G1 X182.34 Y76.31 E84.63714
G1 X182.86 Y76.972 E84.74914
G1 X183.038 Y77.206 E84.78825
G1 X183.364 Y77.644 E84.8609
G1 X184.372 Y79.028 E85.08868
G1 X184.862 Y79.72 E85.20149
G1 X185.035 Y79.971 E85.24205
G1 X185.276 Y80.332 E85.29979
G1 X186.123 Y81.621 E85.50499
G1 X186.715 Y82.55 E85.65155
G1 X186.856 Y82.776 E85.68699
G1 X187.078 Y83.147 E85.74451
G1 X187.978 Y84.679 E85.98089
G1 X188.399 Y85.419 E86.09416
G1 X188.532 Y85.66 E86.13078
G1 X188.797 Y86.155 E86.20548
G1 X189.533 Y87.567 E86.41732
G1 X189.951 Y88.392 E86.54037
G1 X190.082 Y88.658 E86.57981
G1 X190.298 Y89.116 E86.64718
G1 X191.005 Y90.654 E86.87238
G1 X191.376 Y91.489 E86.99394
G1 X191.492 Y91.758 E87.03292
G1 X191.658 Y92.159 E87.09066
G1 X192.227 Y93.572 E87.29331
G1 X192.609 Y94.559 E87.43411
G1 X192.707 Y94.822 E87.47145
G1 X192.906 Y95.381 E87.5504
G1 X193.431 Y96.902 E87.76447
G1 X193.72 Y97.779 E87.88731
G1 X193.797 Y98.022 E87.92123
G1 X193.941 Y98.497 E87.98726
G1 X194.426 Y100.166 E88.21849
G1 X194.66 Y101.014 E88.33553
G1 X194.736 Y101.304 E88.37541
G1 X194.826 Y101.668 E88.4253
G1 X195.206 Y103.262 E88.64331
G1 X195.426 Y104.244 E88.77719
G1 X195.48 Y104.5 E88.812
G1 X195.581 Y105.01 E88.88117
G1 X195.892 Y106.688 E89.10821
G1 X196.043 Y107.562 E89.22621
G1 X196.091 Y107.863 E89.26676
G1 X196.16 Y108.339 E89.33075
G1 X196.387 Y110.024 E89.55695
G1 X196.496 Y110.931 E89.67848
G1 X196.523 Y111.178 E89.71154
G1 X196.566 Y111.624 E89.77115
G1 X196.713 Y113.366 E90.00373
G1 X196.779 Y114.289 E90.12684
G1 X196.796 Y114.581 E90.16576
G1 X196.813 Y114.962 E90.2165
G1 X196.869 Y116.54 E90.42657
G1 X196.893 Y117.638 E90.57268
G1 X196.896 Y117.921 E90.61033
G1 X196.894 Y118.356 E90.6682
G1 X196.869 Y120.076 E90.89706
G1 X196.844 Y120.973 E91.01644
G1 X196.831 Y121.272 E91.05626
G1 X196.807 Y121.715 E91.11528
G1 X196.696 Y123.444 E91.34578
G1 X196.626 Y124.34 E91.46535
G1 X196.601 Y124.619 E91.50262
G1 X196.549 Y125.113 E91.5687
G1 X196.362 Y126.755 E91.78857
G1 X196.241 Y127.704 E91.91585
G1 X196.2 Y127.994 E91.95481
G1 X196.142 Y128.364 E92.00464
G1 X195.855 Y130.107 E92.23965
G1 X195.698 Y130.982 E92.35792
G1 X195.651 Y131.227 E92.39111
G1 X195.538 Y131.785 E92.46685
G1 X195.196 Y133.366 E92.68205
G1 X194.987 Y134.279 E92.80666
G1 X194.913 Y134.584 E92.84842
G1 X194.81 Y134.98 E92.90285
G1 X194.36 Y136.654 E93.13347
G1 X194.111 Y137.531 E93.25476
G1 X193.93 Y138.126 E93.3375
G1 X193.887 Y138.265 E93.35686
G1 X193.371 Y139.861 E93.58001
G1 X193.081 Y140.721 E93.70075
G1 X192.993 Y140.971 E93.73601
G1 X192.815 Y141.46 E93.80525
G1 X192.214 Y143.045 E94.03077
G1 X191.894 Y143.857 E94.14688
G1 X191.793 Y144.106 E94.18263
G1 X191.597 Y144.568 E94.2494
G1 X190.905 Y146.154 E94.47961
G1 X190.539 Y146.962 E94.59762
G1 X190.428 Y147.2 E94.63256
G1 X190.218 Y147.636 E94.69694
G1 X189.461 Y149.16 E94.92333
G1 X189.044 Y149.971 E95.04465
G1 X188.794 Y150.439 E95.11524
G1 X187.919 Y152.008 E95.35425
G1 X187.421 Y152.872 E95.48693
G1 X187.284 Y153.102 E95.52254
G1 X186.997 Y153.571 E95.59569
G1 X186.109 Y154.986 E95.81795
G1 X185.626 Y155.734 E95.9364
G1 X185.479 Y155.956 E95.97183
G1 X185.178 Y156.399 E96.04308
G1 X184.309 Y157.645 E96.24518
G1 X183.691 Y158.507 E96.38629
G1 X183.521 Y158.739 E96.42456
G1 X183.276 Y159.061 E96.47839
G1 X182.2 Y160.45 E96.71214
G1 X181.635 Y161.159 E96.83275
G1 X181.463 Y161.37 E96.86897
G1 X181.141 Y161.753 E96.93554
G1 X180.128 Y162.936 E97.14274
G1 X179.443 Y163.714 E97.28065
G1 X179.268 Y163.908 E97.31541
G1 X178.957 Y164.244 E97.37632
G1 X177.767 Y165.501 E97.60661
G1 X177.138 Y166.148 E97.72666
G1 X176.926 Y166.36 E97.76655
G1 X176.583 Y166.694 E97.83024
G1 X175.359 Y167.863 E98.05542
G1 X174.687 Y168.488 E98.17751
G1 X174.29 Y168.845 E98.24854
G1 X174.16 Y168.96 E98.27163
G1 X172.82 Y170.119 E98.50734
G1 X172.168 Y170.668 E98.62074
G1 X171.974 Y170.828 E98.65419
G1 X171.586 Y171.139 E98.72035
G1 X170.226 Y172.202 E98.95
G1 X169.515 Y172.743 E99.06886
G1 X169.271 Y172.923 E99.1092
G1 X168.894 Y173.194 E99.17097
G1 X167.512 Y174.169 E99.39598
G1 X166.746 Y174.694 E99.51953
G1 X166.511 Y174.851 E99.55713
G1 X166.171 Y175.071 E99.611
G1 X164.671 Y176.022 E99.84729
G1 X163.911 Y176.489 E99.96597
G1 X163.653 Y176.643 E100.00594
G1 X163.301 Y176.846 E100.06
G1 X161.775 Y177.71 E100.2933
G1 X161.027 Y178.121 E100.40685
G1 X160.747 Y178.27 E100.44905
G1 X160.306 Y178.496 E100.51497
G1 X158.804 Y179.251 E100.73863
G1 X157.986 Y179.648 E100.85959
G1 X157.734 Y179.767 E100.89667
G1 X157.297 Y179.965 E100.9605
G1 X155.742 Y180.651 E101.18661
G1 X154.882 Y181.017 E101.31096
G1 X154.612 Y181.128 E101.34979
G1 X154.229 Y181.279 E101.40457
G1 X152.586 Y181.911 E101.63877
G1 X151.944 Y182.147 E101.72977
G1 X151.031 Y182.44 E101.85733
G1 X150.096 Y182.656 E101.985
G1 X149.147 Y182.793 E102.11257
G1 X148.19 Y182.851 E102.24012
G1 X147.231 Y182.829 E102.36774
G1 X146.278 Y182.727 E102.49525
G1 X145.336 Y182.546 E102.62287
G1 X144.413 Y182.287 E102.75041
G1 X143.514 Y181.952 E102.87805
G1 X142.516 Y181.474 E103.02526
G1 X142.225 Y181.317 E103.06925
G1 X141.935 Y181.155 E103.11345
G1 X24.372 Y113.28 E121.17371
G1 X23.768 Y112.921 E121.26719
G1 X22.965 Y112.397 E121.39475
G1 X22.208 Y111.808 E121.52236
G1 X21.503 Y111.158 E121.64993
G1 X20.855 Y110.451 E121.77752
G1 X20.268 Y109.693 E121.90507
G1 X19.745 Y108.889 E122.03267
G1 X19.292 Y108.044 E122.16023
G1 X18.911 Y107.164 E122.28781
G1 X18.604 Y106.255 E122.41545
G1 X18.374 Y105.324 E122.54304
G1 X18.223 Y104.377 E122.67062
G1 X18.15 Y103.421 E122.79817
G1 X18.158 Y102.462 E122.92576
G1 X18.246 Y101.507 E123.05336
G1 X18.484 Y100.261 E123.22212
G1 X18.757 Y99.169 E123.37187
G1 X24.066 Y79.36 E126.10028
G1 X24.256 Y78.685 E126.19357
G1 X24.554 Y77.774 E126.32109
G1 X24.927 Y76.89 E126.44874
G1 X25.373 Y76.041 E126.57633
G1 X25.887 Y75.232 E126.70385
G1 X26.467 Y74.468 E126.83146
G1 X27.109 Y73.755 E126.95911
G1 X27.808 Y73.099 E127.08664
G1 X28.559 Y72.503 E127.21419
G1 X29.357 Y71.971 E127.34179
G1 X30.197 Y71.508 E127.4694
G1 X31.072 Y71.117 E127.5969
G0 F6000 X31.011 Y72.228
G1 F1200 X31.862 Y71.889 E127.71877
G1 X32.74 Y71.625 E127.84075
G1 X33.637 Y71.438 E127.96265
G1 X34.547 Y71.33 E128.08457
G1 X35.139 Y71.303 E128.16341
G1 X36.226 Y71.285 E128.30804
G1 X171.27 Y71.285 E146.27437
G1 X172.109 Y71.296 E146.386
G1 X173.024 Y71.349 E146.50794
G1 X173.93 Y71.482 E146.62976
G1 X174.822 Y71.694 E146.75174
G1 X175.692 Y71.982 E146.87366
G1 X176.533 Y72.345 E146.99553
G1 X177.339 Y72.78 E147.11738
G1 X178.105 Y73.284 E147.23937
G1 X178.824 Y73.852 E147.36127
G1 X179.49 Y74.481 E147.48315
G1 X179.975 Y75.017 E147.57932
G1 X180.652 Y75.818 E147.71885
G1 X180.79 Y75.985 E147.74767
G1 X181.553 Y76.928 E147.90905
G1 X182.073 Y77.59 E148.02104
G1 X182.236 Y77.803 E148.05673
G1 X182.556 Y78.233 E148.12804
G1 X183.556 Y79.606 E148.35401
G1 X184.046 Y80.298 E148.46682
G1 X184.204 Y80.527 E148.50384
G1 X184.44 Y80.881 E148.56044
G1 X185.371 Y82.3 E148.78623
G1 X185.871 Y83.086 E148.91016
G1 X186 Y83.293 E148.94261
G1 X186.216 Y83.653 E148.99847
G1 X187.108 Y85.174 E149.23305
G1 X187.529 Y85.914 E149.34632
G1 X187.651 Y86.134 E149.37979
G1 X187.911 Y86.618 E149.45288
G1 X188.641 Y88.019 E149.66306
G1 X189.059 Y88.844 E149.7861
G1 X189.178 Y89.087 E149.8221
G1 X189.39 Y89.534 E149.88792
G1 X190.033 Y90.93 E150.09239
G1 X190.462 Y91.895 E150.23289
G1 X190.568 Y92.14 E150.26841
G1 X190.73 Y92.533 E150.32496
G1 X191.353 Y94.084 E150.54733
G1 X191.676 Y94.92 E150.66657
G1 X191.766 Y95.16 E150.70067
G1 X191.961 Y95.707 E150.77793
G1 X192.481 Y97.215 E150.99014
G1 X192.77 Y98.092 E151.11299
G1 X192.841 Y98.314 E151.144
G1 X192.981 Y98.776 E151.20823
G1 X193.462 Y100.432 E151.43765
G1 X193.696 Y101.28 E151.55468
G1 X193.765 Y101.545 E151.59111
G1 X193.853 Y101.9 E151.63977
G1 X194.267 Y103.642 E151.87798
G1 X194.45 Y104.462 E151.98976
G1 X194.499 Y104.695 E152.02144
G1 X194.598 Y105.193 E152.08899
