;FLAVOR:Marlin
;TIME:987
;Filament used: 1.84762m
;Layer height: 0.32
;MINX:65.49
;MINY:84.025
;MINZ:0.32
;MAXX:183.462
;MAXY:179.005
;MAXZ:9.92
;Generated with Cura_SteamEngine 4.12.1
M140 S60
M105
M190 S60
M104 S200
M105
M109 S200
M82 ;absolute extrusion mode
; Ender 3 Custom Start G-code
G92 E0 ; Reset Extruder
G28 ; Home all axes
G29 ; bed level adjust
G1 Z2.0 F3000 ; Move Z Axis up little to prevent scratching of Heat Bed
G1 X0.1 Y20 Z0.3 F5000.0 ; Move to start position
G1 X0.1 Y200.0 Z0.3 F1500.0 E15 ; Draw the first line
G1 X0.4 Y200.0 Z0.3 F5000.0 ; Move to side a little
G1 X0.4 Y20 Z0.3 F1500.0 E30 ; Draw the second line
G92 E0 ; Reset Extruder
G1 Z2.0 F3000 ; Move Z Axis up little to prevent scratching of Heat Bed
G1 X5 Y20 Z0.3 F5000.0 ; Move over to prevent blob squish
G92 E0
G92 E0
G1 F1500 E-6.5
;LAYER_COUNT:31
;LAYER:0
M107
G0 F6000 X69.884 Y87.029 Z0.32
;TYPE:SKIRT
G1 F1500 E0
G1 F1200 X70.671 Y86.411 E0.13313
G1 X71.504 Y85.859 E0.26607
G1 X72.379 Y85.375 E0.39911
G1 X73.289 Y84.962 E0.53206
G1 X74.23 Y84.624 E0.66508
G1 X75.195 Y84.361 E0.79815
G1 X76.178 Y84.177 E0.9312
G1 X77.172 Y84.072 E1.06418
G1 X77.737 Y84.048 E1.13941
G1 X78.73 Y84.028 E1.27155
G1 X78.982 Y84.025 E1.30508
G1 X80.255 Y84.025 E1.47444
G1 X81.134 Y84.036 E1.59139
G1 X82.133 Y84.091 E1.7245
G1 X83.123 Y84.224 E1.85739
G1 X84.1 Y84.437 E1.99042
G1 X85.057 Y84.727 E2.12346
G1 X85.988 Y85.092 E2.2565
G1 X86.886 Y85.531 E2.38948
G1 X87.747 Y86.04 E2.52255
G1 X88.564 Y86.617 E2.65562
G1 X89.332 Y87.256 E2.78854
G1 X90.047 Y87.955 E2.92156
G1 X90.703 Y88.709 E3.05453
G1 X91.088 Y89.214 E3.13901
G1 X91.187 Y89.351 E3.1615
G1 X91.374 Y89.617 E3.20476
G1 X91.67 Y90.051 E3.27465
G1 X101.682 Y105.068 E5.67584
G1 X103.141 Y107.191 E6.01855
G1 X104.579 Y109.163 E6.34325
G1 X106.104 Y111.132 E6.67459
G1 X107.659 Y113.028 E7.00082
G1 X109.301 Y114.917 E7.33381
G1 X110.969 Y116.731 E7.66166
G1 X112.681 Y118.491 E7.98832
G1 X114.467 Y120.225 E8.31949
G1 X116.31 Y121.917 E8.65235
G1 X118.143 Y123.504 E8.97491
G1 X120.091 Y125.099 E9.30986
G1 X122.03 Y126.596 E9.63577
G1 X124.053 Y128.068 E9.96861
G1 X126.067 Y129.449 E10.2935
G1 X128.179 Y130.811 E10.62784
G1 X130.271 Y132.077 E10.95316
G1 X132.416 Y133.294 E11.28126
G1 X134.631 Y134.47 E11.6149
G1 X136.813 Y135.549 E11.93875
G1 X139.093 Y136.598 E12.27265
G1 X141.355 Y137.562 E12.59978
G1 X143.681 Y138.477 E12.93231
G1 X145.979 Y139.307 E13.25737
G1 X148.329 Y140.08 E13.58649
G1 X150.725 Y140.795 E13.91915
G1 X153.103 Y141.432 E14.24667
G1 X155.524 Y142.007 E14.57772
G1 X157.92 Y142.504 E14.90328
G1 X160.371 Y142.941 E15.2345
G1 X162.826 Y143.308 E15.56474
G1 X165.293 Y143.606 E15.89534
G1 X167.714 Y143.829 E16.2188
G1 X170.896 Y144.02 E16.64289
G1 X171.501 Y144.047 E16.72346
G1 X172.497 Y144.131 E16.85644
G1 X173.483 Y144.294 E16.9894
G1 X174.454 Y144.535 E17.1225
G1 X175.401 Y144.853 E17.2554
G1 X176.321 Y145.246 E17.3885
G1 X177.206 Y145.711 E17.52151
G1 X178.051 Y146.246 E17.65456
G1 X178.851 Y146.846 E17.7876
G1 X179.6 Y147.508 E17.92059
G1 X180.293 Y148.228 E18.05354
G1 X180.927 Y149.001 E18.18655
G1 X181.498 Y149.822 E18.3196
G1 X182 Y150.686 E18.45254
G1 X182.432 Y151.588 E18.58559
G1 X182.791 Y152.521 E18.71859
G1 X183.074 Y153.48 E18.85162
G1 X183.279 Y154.459 E18.98469
G1 X183.406 Y155.451 E19.11774
G1 X183.448 Y156.184 E19.21542
G1 X183.457 Y156.504 E19.25801
G1 X183.462 Y156.855 E19.30471
G1 X183.461 Y165.961 E20.51618
G1 X183.451 Y166.686 E20.61264
G1 X183.397 Y167.685 E20.74574
G1 X183.264 Y168.676 E20.87877
G1 X183.052 Y169.653 E21.01177
G1 X182.762 Y170.61 E21.14481
G1 X182.397 Y171.54 E21.27773
G1 X181.959 Y172.439 E21.41077
G1 X181.45 Y173.3 E21.54384
G1 X180.874 Y174.117 E21.67683
G1 X180.235 Y174.886 E21.80985
G1 X179.536 Y175.601 E21.94288
G1 X178.782 Y176.258 E22.07593
G1 X177.978 Y176.852 E22.20892
G1 X177.13 Y177.381 E22.34189
G1 X176.241 Y177.84 E22.475
G1 X175.319 Y178.226 E22.60798
G1 X174.369 Y178.538 E22.74101
G1 X173.398 Y178.772 E22.87389
G1 X172.41 Y178.929 E23.00698
G1 X171.413 Y179.005 E23.14001
G1 X169.932 Y178.972 E23.33709
G1 X169.43 Y178.927 E23.40414
G1 X168.969 Y178.876 E23.46585
G1 X120.016 Y173 E30.02533
G1 X119.321 Y172.907 E30.11862
G1 X118.336 Y172.734 E30.25167
G1 X117.368 Y172.484 E30.38468
G1 X116.423 Y172.157 E30.51772
G1 X115.508 Y171.756 E30.65063
G1 X114.627 Y171.283 E30.78366
G1 X113.787 Y170.741 E30.91666
G1 X112.993 Y170.133 E31.04971
G1 X112.25 Y169.464 E31.18272
G1 X111.563 Y168.738 E31.3157
G1 X110.733 Y167.678 E31.49481
G1 X110.162 Y166.861 E31.62742
G1 X110.032 Y166.671 E31.65805
G1 X67.966 Y104.061 E41.69318
G1 X67.497 Y103.34 E41.80762
G1 X66.988 Y102.48 E41.94057
G1 X66.549 Y101.582 E42.07355
G1 X66.183 Y100.652 E42.20651
G1 X65.892 Y99.695 E42.33959
G1 X65.679 Y98.718 E42.47262
G1 X65.545 Y97.727 E42.60567
G1 X65.49 Y96.729 E42.73864
G1 X65.516 Y95.73 E42.8716
G1 X65.621 Y94.735 E43.00471
G1 X65.805 Y93.753 E43.13763
G1 X66.067 Y92.788 E43.27066
G1 X66.405 Y91.847 E43.40368
G1 X66.818 Y90.936 E43.53675
G1 X67.302 Y90.061 E43.66979
G1 X67.854 Y89.228 E43.80273
G1 X68.471 Y88.441 E43.93578
G1 X69.15 Y87.707 E44.0688
G1 X69.884 Y87.029 E44.20174
G0 F6000 X70.341 Y87.957
G1 F1200 X71.083 Y87.349 E44.32936
G1 X71.873 Y86.806 E44.4569
G1 X72.706 Y86.33 E44.58454
G1 X73.575 Y85.926 E44.71203
G1 X74.475 Y85.595 E44.83961
G1 X75.4 Y85.34 E44.96727
G1 X76.342 Y85.163 E45.09478
G1 X77.757 Y85.047 E45.28367
G1 X78.75 Y85.027 E45.4158
G1 X78.982 Y85.025 E45.44667
G1 X80.255 Y85.025 E45.61603
G1 X81.12 Y85.036 E45.73112
G1 X82.077 Y85.09 E45.85864
G1 X83.027 Y85.223 E45.98626
G1 X83.962 Y85.435 E46.11381
G1 X84.877 Y85.724 E46.24147
G1 X85.764 Y86.088 E46.36903
G1 X86.618 Y86.525 E46.49666
G1 X87.432 Y87.032 E46.62424
G1 X88.201 Y87.604 E46.75175
G1 X88.92 Y88.239 E46.87937
G1 X89.583 Y88.931 E47.00687
G1 X90.277 Y89.799 E47.15472
G1 X90.376 Y89.936 E47.17721
G1 X90.548 Y90.181 E47.21703
G1 X90.837 Y90.606 E47.28541
G1 X100.802 Y105.553 E49.67538
G1 X102.329 Y107.775 E50.03407
G1 X103.784 Y109.77 E50.36258
G1 X105.313 Y111.745 E50.69487
G1 X106.905 Y113.685 E51.02875
G1 X108.551 Y115.579 E51.36259
G1 X110.241 Y117.417 E51.69477
G1 X111.992 Y119.217 E52.02886
G1 X113.765 Y120.938 E52.35759
G1 X115.633 Y122.653 E52.69497
G1 X117.523 Y124.29 E53.02762
G1 X119.441 Y125.86 E53.35738
G1 X121.448 Y127.409 E53.69467
G1 X123.463 Y128.876 E54.02626
G1 X125.538 Y130.299 E54.361
G1 X127.608 Y131.633 E54.68863
G1 X129.779 Y132.947 E55.02624
G1 X131.942 Y134.174 E55.35709
G1 X134.166 Y135.355 E55.6921
G1 X136.413 Y136.466 E56.02559
G1 X138.672 Y137.506 E56.35645
G1 X140.987 Y138.492 E56.69121
G1 X143.291 Y139.398 E57.02058
G1 X145.675 Y140.259 E57.3578
G1 X148.025 Y141.033 E57.68697
G1 X150.465 Y141.76 E58.02569
G1 X152.856 Y142.401 E58.35502
G1 X155.299 Y142.982 E58.6891
G1 X157.758 Y143.491 E59.02318
G1 X160.189 Y143.925 E59.35172
G1 X162.7 Y144.3 E59.68949
G1 X165.15 Y144.596 E60.01781
G1 X167.659 Y144.827 E60.35302
G1 X170.854 Y145.02 E60.77886
G1 X171.457 Y145.046 E60.85916
G1 X172.412 Y145.128 E60.98668
G1 X173.358 Y145.289 E61.11434
G1 X174.286 Y145.529 E61.24187
G1 X175.192 Y145.845 E61.36952
G1 X176.068 Y146.235 E61.49709
G1 X176.908 Y146.697 E61.62464
G1 X177.707 Y147.227 E61.7522
G1 X178.459 Y147.822 E61.87977
G1 X179.159 Y148.478 E62.0074
G1 X179.801 Y149.19 E62.13495
G1 X180.383 Y149.952 E62.26251
G1 X180.898 Y150.761 E62.3901
G1 X181.345 Y151.61 E62.51775
G1 X181.719 Y152.492 E62.64521
G1 X182.018 Y153.403 E62.77277
G1 X182.241 Y154.336 E62.90039
G1 X182.385 Y155.284 E63.02796
G1 X182.448 Y156.212 E63.15171
G1 X182.457 Y156.532 E63.1943
G1 X182.462 Y156.855 E63.23727
G1 X182.461 Y165.948 E64.44701
G1 X182.451 Y166.673 E64.54347
G1 X182.398 Y167.63 E64.67099
G1 X182.265 Y168.58 E64.79861
G1 X182.053 Y169.515 E64.92616
G1 X181.765 Y170.43 E65.05378
G1 X181.401 Y171.317 E65.18134
G1 X180.965 Y172.171 E65.3089
G1 X180.458 Y172.985 E65.43649
G1 X179.886 Y173.755 E65.5641
G1 X179.252 Y174.474 E65.69163
G1 X178.56 Y175.138 E65.81923
G1 X177.815 Y175.742 E65.94682
G1 X177.022 Y176.281 E66.07439
G1 X176.187 Y176.753 E66.202
G1 X175.316 Y177.154 E66.32956
G1 X174.414 Y177.48 E66.45716
G1 X173.489 Y177.731 E66.58468
G1 X172.545 Y177.903 E66.71233
G1 X171.591 Y177.996 E66.83986
G1 X170.632 Y178.01 E66.96746
G1 X170.014 Y177.976 E67.0498
G1 X169.843 Y177.962 E67.07263
G1 X169.538 Y177.933 E67.11339
G1 X169.089 Y177.883 E67.17349
G1 X120.149 Y172.008 E73.73124
G1 X119.454 Y171.915 E73.82453
G1 X118.509 Y171.749 E73.95218
G1 X117.582 Y171.504 E74.07974
G1 X116.679 Y171.183 E74.20724
G1 X115.805 Y170.787 E74.3349
G1 X114.967 Y170.321 E74.46246
G1 X114.171 Y169.786 E74.59006
G1 X113.423 Y169.186 E74.71763
G1 X112.727 Y168.527 E74.84515
G1 X112.088 Y167.811 E74.97283
G1 X111.553 Y167.105 E75.09068
G1 X110.982 Y166.288 E75.22329
G1 X110.862 Y166.113 E75.25152
G1 X68.796 Y103.503 E85.28665
G1 X68.337 Y102.797 E85.39869
G1 X67.849 Y101.971 E85.52632
G1 X67.433 Y101.107 E85.6539
G1 X67.089 Y100.212 E85.78146
G1 X66.822 Y99.291 E85.90904
G1 X66.632 Y98.351 E86.03663
G1 X66.521 Y97.399 E86.16414
G1 X66.489 Y96.44 E86.2918
G1 X66.538 Y95.482 E86.41942
G1 X66.667 Y94.532 E86.54696
G1 X66.874 Y93.596 E86.6745
G1 X67.158 Y92.68 E86.80209
G1 X67.518 Y91.791 E86.92969
G1 X67.95 Y90.935 E87.05725
G1 X68.452 Y90.118 E87.18483
G1 X69.021 Y89.346 E87.31242
G1 X69.652 Y88.624 E87.43999
G1 X70.341 Y87.957 E87.56757
G0 F6000 X70.841 Y88.854
G1 F1200 X71.538 Y88.26 E87.6894
G1 X72.285 Y87.729 E87.81133
G1 X73.076 Y87.266 E87.93327
G1 X73.903 Y86.873 E88.05509
G1 X74.762 Y86.553 E88.17704
G1 X75.645 Y86.31 E88.29888
G1 X76.547 Y86.145 E88.42088
G1 X77.778 Y86.047 E88.58517
G1 X78.771 Y86.027 E88.7173
G1 X78.982 Y86.025 E88.74538
G1 X80.255 Y86.025 E88.91474
G1 X81.106 Y86.036 E89.02796
G1 X82.021 Y86.089 E89.1499
G1 X82.927 Y86.222 E89.27173
G1 X83.819 Y86.433 E89.39367
G1 X84.689 Y86.721 E89.5156
G1 X85.53 Y87.084 E89.63746
G1 X86.337 Y87.518 E89.75937
G1 X87.102 Y88.022 E89.88124
G1 X87.821 Y88.59 E90.00315
G1 X88.488 Y89.219 E90.12512
G1 X89.097 Y89.903 E90.24696
G1 X89.466 Y90.385 E90.32772
G1 X89.723 Y90.746 E90.38668
G1 X90.005 Y91.161 E90.45343
G1 X100.01 Y106.168 E92.853
G1 X101.484 Y108.313 E93.19925
G1 X102.994 Y110.383 E93.54013
G1 X104.523 Y112.358 E93.87242
G1 X106.149 Y114.34 E94.21349
G1 X107.804 Y116.244 E94.54912
G1 X109.53 Y118.121 E94.88836
G1 X111.25 Y119.89 E95.21662
G1 X113.118 Y121.702 E95.56285
G1 X114.955 Y123.389 E95.89467
G1 X116.868 Y125.045 E96.23129
G1 X118.83 Y126.652 E96.56869
G1 X120.837 Y128.201 E96.90598
G1 X122.886 Y129.693 E97.2432
G1 X124.978 Y131.127 E97.58063
G1 X127.104 Y132.497 E97.91711
G1 X129.256 Y133.8 E98.25181
G1 X131.484 Y135.064 E98.5926
G1 X133.701 Y136.241 E98.92654
G1 X135.956 Y137.356 E99.26122
G1 X138.282 Y138.426 E99.60184
G1 X140.588 Y139.409 E99.93534
G1 X142.975 Y140.348 E100.2766
G1 X145.338 Y141.202 E100.61088
G1 X147.743 Y141.993 E100.9477
G1 X150.171 Y142.717 E101.28478
G1 X152.608 Y143.37 E101.62043
G1 X155.107 Y143.964 E101.96217
G1 X157.521 Y144.464 E102.29014
G1 X160.047 Y144.915 E102.63152
G1 X162.574 Y145.293 E102.97145
G1 X165.045 Y145.591 E103.30258
G1 X167.569 Y145.823 E103.63979
G1 X170.812 Y146.019 E104.07202
G1 X171.413 Y146.045 E104.15206
G1 X172.326 Y146.125 E104.27399
G1 X173.228 Y146.284 E104.39584
G1 X174.113 Y146.522 E104.51776
G1 X174.974 Y146.836 E104.63969
G1 X175.804 Y147.223 E104.76153
G1 X176.598 Y147.681 E104.88348
G1 X177.348 Y148.207 E105.00535
G1 X178.05 Y148.797 E105.12735
G1 X178.698 Y149.445 E105.24927
G1 X179.286 Y150.147 E105.3711
G1 X179.811 Y150.898 E105.493
G1 X180.269 Y151.692 E105.61495
G1 X180.656 Y152.522 E105.73679
G1 X180.969 Y153.383 E105.85867
G1 X181.205 Y154.269 E105.98066
G1 X181.364 Y155.171 E106.10251
G1 X181.449 Y156.24 E106.24518
G1 X181.458 Y156.56 E106.28777
G1 X181.462 Y156.855 E106.32702
G1 X181.461 Y165.934 E107.53489
G1 X181.451 Y166.659 E107.63136
G1 X181.398 Y167.574 E107.75329
G1 X181.266 Y168.48 E107.8751
G1 X181.056 Y169.372 E107.99702
G1 X180.768 Y170.242 E108.11894
G1 X180.405 Y171.084 E108.24093
G1 X179.971 Y171.89 E108.36271
G1 X179.468 Y172.656 E108.48463
G1 X178.9 Y173.375 E108.60653
G1 X178.272 Y174.042 E108.72841
G1 X177.587 Y174.652 E108.85044
G1 X176.853 Y175.199 E108.97223
G1 X176.073 Y175.681 E109.09422
G1 X175.254 Y176.092 E109.21613
G1 X174.403 Y176.431 E109.338
G1 X173.525 Y176.694 E109.45993
G1 X172.628 Y176.879 E109.58178
G1 X171.718 Y176.986 E109.70368
G1 X170.802 Y177.013 E109.8256
G1 X170.095 Y176.979 E109.91977
G1 X169.646 Y176.939 E109.97974
G1 X169.208 Y176.89 E110.03838
G1 X120.281 Y171.017 E116.59438
G1 X119.586 Y170.924 E116.68767
G1 X118.684 Y170.763 E116.80957
G1 X117.8 Y170.524 E116.9314
G1 X116.939 Y170.209 E117.05337
G1 X116.11 Y169.82 E117.1752
G1 X115.317 Y169.36 E117.29717
G1 X114.568 Y168.833 E117.41901
G1 X113.867 Y168.242 E117.54099
G1 X113.221 Y167.593 E117.66282
G1 X112.373 Y166.532 E117.84352
G1 X111.692 Y165.556 E118.00185
G1 X69.626 Y102.946 E128.03699
G1 X69.176 Y102.253 E128.14692
G1 X68.712 Y101.463 E128.26881
G1 X68.319 Y100.636 E128.39062
G1 X67.999 Y99.777 E128.51258
G1 X67.755 Y98.894 E128.63445
G1 X67.589 Y97.992 E128.75647
G1 X67.503 Y97.08 E128.87834
G1 X67.496 Y96.164 E129.00021
G1 X67.569 Y95.251 E129.12207
G1 X67.722 Y94.347 E129.24404
G1 X67.952 Y93.46 E129.36595
G1 X68.259 Y92.597 E129.48782
G1 X68.641 Y91.764 E129.60974
G1 X69.093 Y90.967 E129.73163
G1 X69.613 Y90.213 E129.85349
G1 X70.197 Y89.507 E129.97539
G1 X70.841 Y88.854 E130.0974
G1 F1500 E123.5974
;MESH:Strings.stl
G0 F6000 X80.417 Y95.86
G0 X80.417 Y97.545
G0 X120.408 Y157.56
G0 X121.824 Y159.118
;TYPE:WALL-INNER
G1 F1500 E130.0974
G1 F1200 X121.09 Y158.025 E130.27256
G1 X169.462 Y158.025 E136.708
G1 X169.462 Y164.835 E137.61401
G1 X121.824 Y159.118 E143.99727
G0 F6000 X121.59 Y159.502
G0 X121.25 Y160.056
;TYPE:WALL-OUTER
G1 F1200 X78.9 Y97.025 E154.09997
G1 X80.695 Y97.025 E154.33878
G1 X120.694 Y157.025 E163.93239
G1 X170.462 Y157.025 E170.55355
G1 X170.462 Y165.962 E171.74254
G1 X121.25 Y160.056 E178.33671
G0 F6000 X121.908 Y159.063
G0 X122.011 Y158.517
G0 X129.277 Y158.435
G0 X129.277 Y159.015
;TYPE:SKIN
G1 F1200 X168.472 Y159.015 E183.55123
G1 X168.472 Y163.719 E184.17705
G1 X129.277 Y159.015 E189.429
G0 F6000 X129.277 Y158.435
G0 X138.201 Y158.435
G0 X138.201 Y159.415
G1 F1200 X138.505 Y159.719 E189.4862
G0 F6000 X138.389 Y160.692
G0 X122.097 Y158.674
G0 X139.616 Y158.435
G0 X139.616 Y159.415
G1 F1200 X140.113 Y159.912 E189.5797
G0 F6000 X139.997 Y160.885
G0 X122.097 Y158.674
G0 X141.03 Y158.435
G0 X141.03 Y159.415
G1 F1200 X141.72 Y160.105 E189.70953
G0 F6000 X141.604 Y161.078
G0 X122.097 Y158.674
G0 X142.444 Y158.435
G0 X142.444 Y159.415
G1 F1200 X143.327 Y160.298 E189.87566
G0 F6000 X143.211 Y161.271
G0 X122.097 Y158.674
G0 X143.858 Y158.435
G0 X143.858 Y159.415
G1 F1200 X144.934 Y160.491 E190.07811
G0 F6000 X144.818 Y161.464
G0 X122.097 Y158.674
G0 X145.272 Y158.435
G0 X145.272 Y159.415
G1 F1200 X146.541 Y160.683 E190.31677
G0 F6000 X146.424 Y161.657
G0 X122.097 Y158.674
G0 X146.687 Y158.435
G0 X146.687 Y159.415
G1 F1200 X148.148 Y160.876 E190.59166
G0 F6000 X148.032 Y161.85
G0 X168.978 Y164.289
G0 X168.98 Y158.507
G0 X148.101 Y158.435
G0 X148.101 Y159.415
G1 F1200 X149.756 Y161.069 E190.90295
G0 F6000 X149.64 Y162.042
G0 X151.247 Y162.235
G0 X151.363 Y161.262
G1 F1200 X149.515 Y159.415 E191.25055
G0 F6000 X149.515 Y158.435
G0 X150.929 Y158.435
G0 X150.929 Y159.415
G1 F1200 X152.97 Y161.455 E191.63447
G0 F6000 X152.854 Y162.428
G0 X154.461 Y162.621
G0 X154.577 Y161.648
G1 F1200 X152.344 Y159.415 E192.0546
G0 F6000 X152.344 Y158.435
G0 X153.758 Y158.435
G0 X153.758 Y159.415
G1 F1200 X156.184 Y161.841 E192.51105
G0 F6000 X156.068 Y162.814
G0 X157.675 Y163.007
G0 X157.791 Y162.034
G1 F1200 X155.172 Y159.415 E193.00381
G0 F6000 X155.172 Y158.435
G0 X156.586 Y158.435
G0 X156.586 Y159.415
G1 F1200 X159.398 Y162.227 E193.53288
G0 F6000 X159.282 Y163.199
G0 X160.89 Y163.392
G0 X161.006 Y162.42
G1 F1200 X158 Y159.415 E194.09836
G0 F6000 X158 Y158.435
G0 X159.415 Y158.435
G0 X159.415 Y159.415
