;FLAVOR:Marlin
;TIME:7413
;Filament used: 18.8611m
;Layer height: 0.32
;MINX:36.421
;MINY:35.979
;MINZ:0.32
;MAXX:175.322
;MAXY:175.421
;MAXZ:25.28
;Generated with Cura_SteamEngine 4.12.1
M140 S60
M105
M190 S60
M104 S200
M105
M109 S200
M82 ;absolute extrusion mode
; Ender 3 Custom Start G-code
G92 E0 ; Reset Extruder
G28 ; Home all axes
G29 ; bed level adjust
G1 Z2.0 F3000 ; Move Z Axis up little to prevent scratching of Heat Bed
G1 X0.1 Y20 Z0.3 F5000.0 ; Move to start position
G1 X0.1 Y200.0 Z0.3 F1500.0 E15 ; Draw the first line
G1 X0.4 Y200.0 Z0.3 F5000.0 ; Move to side a little
G1 X0.4 Y20 Z0.3 F1500.0 E30 ; Draw the second line
G92 E0 ; Reset Extruder
G1 Z2.0 F3000 ; Move Z Axis up little to prevent scratching of Heat Bed
G1 X5 Y20 Z0.3 F5000.0 ; Move over to prevent blob squish
G92 E0
G92 E0
G1 F1500 E-6.5
;LAYER_COUNT:79
;LAYER:0
M107
G0 F6000 X56.345 Y56.74 Z0.32
;TYPE:SKIRT
G1 F1500 E0
G1 F1200 X57.635 Y55.461 E0.24168
G1 X58.22 Y54.897 E0.34979
G1 X58.441 Y54.69 E0.39007
G1 X58.832 Y54.331 E0.46069
G1 X60.199 Y53.107 E0.70481
G1 X60.781 Y52.599 E0.80758
G1 X61.014 Y52.4 E0.84835
G1 X61.512 Y51.988 E0.93434
G1 X62.754 Y50.986 E1.14664
G1 X63.636 Y50.294 E1.29579
G1 X63.88 Y50.107 E1.33669
G1 X64.127 Y49.923 E1.37767
G1 X65.556 Y48.878 E1.61319
G1 X66.312 Y48.341 E1.73656
G1 X66.587 Y48.151 E1.78103
G1 X67.106 Y47.804 E1.86409
G1 X68.58 Y46.84 E2.09841
G1 X69.264 Y46.405 E2.20625
G1 X69.558 Y46.224 E2.25218
G1 X70.029 Y45.943 E2.32515
G1 X71.541 Y45.059 E2.55816
G1 X72.212 Y44.677 E2.66089
G1 X72.512 Y44.512 E2.70644
G1 X73.196 Y44.148 E2.80952
G1 X74.654 Y43.396 E3.02778
G1 X75.515 Y42.966 E3.15581
G1 X75.761 Y42.846 E3.19223
G1 X76.154 Y42.662 E3.24996
G1 X77.774 Y41.919 E3.48707
G1 X78.565 Y41.569 E3.60215
G1 X78.871 Y41.439 E3.64638
G1 X79.409 Y41.218 E3.72376
G1 X80.905 Y40.624 E3.9379
G1 X81.872 Y40.255 E4.0756
G1 X82.168 Y40.147 E4.11752
G1 X82.636 Y39.983 E4.1835
G1 X84.378 Y39.392 E4.42823
G1 X85.111 Y39.153 E4.5308
G1 X85.424 Y39.055 E4.57444
G1 X86.054 Y38.869 E4.66183
G1 X87.711 Y38.4 E4.89094
G1 X88.597 Y38.162 E5.01299
G1 X88.885 Y38.088 E5.05255
G1 X89.335 Y37.98 E5.11412
G1 X91.144 Y37.565 E5.36104
G1 X91.965 Y37.389 E5.47275
G1 X92.249 Y37.331 E5.51131
G1 X92.83 Y37.222 E5.58996
G1 X94.56 Y36.915 E5.82371
G1 X95.389 Y36.778 E5.9355
G1 X95.695 Y36.732 E5.97667
G1 X96.238 Y36.657 E6.04959
G1 X98.047 Y36.427 E6.2922
G1 X98.844 Y36.337 E6.39891
G1 X99.153 Y36.306 E6.44022
G1 X99.796 Y36.25 E6.52609
G1 X101.341 Y36.132 E6.73224
G1 X102.346 Y36.068 E6.86622
G1 X102.686 Y36.051 E6.91151
G1 X103.241 Y36.032 E6.98539
G1 X105.06 Y35.988 E7.22746
G1 X105.864 Y35.979 E7.33443
G1 X106.175 Y35.979 E7.3758
G1 X106.759 Y35.988 E7.45351
G1 X108.541 Y36.034 E7.69067
G1 X109.365 Y36.066 E7.80038
G1 X109.705 Y36.084 E7.84567
G1 X110.24 Y36.12 E7.91701
G1 X112.031 Y36.258 E8.15599
G1 X112.878 Y36.335 E8.26914
G1 X113.185 Y36.367 E8.31021
G1 X113.791 Y36.438 E8.39138
G1 X115.307 Y36.631 E8.5947
G1 X116.416 Y36.788 E8.74371
G1 X116.75 Y36.84 E8.78868
G1 X117.154 Y36.909 E8.84321
G1 X118.985 Y37.236 E9.09066
G1 X119.816 Y37.397 E9.20327
G1 X120.107 Y37.457 E9.2428
G1 X120.658 Y37.578 E9.31785
G1 X122.349 Y37.968 E9.54873
G1 X123.199 Y38.176 E9.66515
G1 X123.502 Y38.254 E9.70678
G1 X124.068 Y38.409 E9.78485
G1 X125.772 Y38.895 E10.02059
G1 X126.574 Y39.135 E10.13197
G1 X126.884 Y39.232 E10.17518
G1 X127.378 Y39.395 E10.24439
G1 X129.084 Y39.976 E10.48416
G1 X129.893 Y40.264 E10.5984
G1 X130.196 Y40.376 E10.64138
G1 X130.739 Y40.586 E10.71884
G1 X132.394 Y41.245 E10.95583
G1 X133.147 Y41.557 E11.06427
G1 X133.439 Y41.682 E11.10653
G1 X133.944 Y41.908 E11.18013
G1 X135.418 Y42.583 E11.39582
G1 X136.382 Y43.04 E11.53775
G1 X136.668 Y43.18 E11.58012
G1 X137.067 Y43.382 E11.63961
G1 X138.665 Y44.212 E11.87918
G1 X139.437 Y44.626 E11.99572
G1 X139.707 Y44.776 E12.03682
G1 X140.204 Y45.059 E12.1129
G1 X141.716 Y45.947 E12.34619
G1 X142.514 Y46.429 E12.47022
G1 X142.784 Y46.597 E12.51252
G1 X143.108 Y46.805 E12.56375
G1 X144.519 Y47.727 E12.78799
G1 X145.342 Y48.281 E12.91998
G1 X145.605 Y48.463 E12.96253
G1 X146.17 Y48.867 E13.05494
G1 X147.551 Y49.879 E13.28272
G1 X148.299 Y50.443 E13.40735
G1 X148.547 Y50.636 E13.44916
G1 X148.828 Y50.859 E13.49688
G1 X150.231 Y51.992 E13.7368
G1 X150.866 Y52.518 E13.8465
G1 X151.152 Y52.762 E13.89652
G1 X151.633 Y53.186 E13.98182
G1 X152.762 Y54.199 E14.18363
G1 X153.59 Y54.963 E14.33351
G1 X153.786 Y55.148 E14.36937
G1 X154.108 Y55.461 E14.42911
G1 X155.412 Y56.755 E14.67352
G1 X156.016 Y57.37 E14.7882
G1 X156.241 Y57.605 E14.83148
G1 X156.583 Y57.973 E14.89832
G1 X157.783 Y59.291 E15.13546
G1 X158.387 Y59.972 E15.25656
G1 X158.593 Y60.21 E15.29844
G1 X158.903 Y60.579 E15.36255
G1 X160.073 Y62.001 E15.60754
G1 X160.544 Y62.587 E15.70757
G1 X160.755 Y62.856 E15.75305
G1 X161.129 Y63.35 E15.83548
G1 X162.083 Y64.634 E16.0483
G1 X162.647 Y65.415 E16.17646
G1 X162.83 Y65.675 E16.21876
G1 X163.155 Y66.151 E16.29544
G1 X164.061 Y67.51 E16.51274
G1 X164.627 Y68.385 E16.65138
G1 X164.792 Y68.648 E16.69269
G1 X165.039 Y69.055 E16.75603
G1 X165.942 Y70.576 E16.99136
G1 X166.241 Y71.096 E17.07116
G1 X166.433 Y71.442 E17.1238
G1 X166.799 Y72.127 E17.22713
G1 X167.105 Y72.687 E17.31203
G1 X167.545 Y73.521 E17.43748
G1 X168.043 Y74.499 E17.58349
G1 X168.179 Y74.775 E17.62442
G1 X168.373 Y75.182 E17.68441
G1 X169.09 Y76.725 E17.91077
G1 X169.506 Y77.657 E18.04656
G1 X169.607 Y77.89 E18.08034
G1 X169.788 Y78.322 E18.14266
G1 X170.413 Y79.864 E18.36401
G1 X170.758 Y80.75 E18.49051
G1 X170.874 Y81.06 E18.53454
G1 X171.096 Y81.681 E18.62228
G1 X171.644 Y83.26 E18.84465
G1 X171.903 Y84.037 E18.95361
G1 X172.009 Y84.371 E19.00023
G1 X172.206 Y85.027 E19.09135
G1 X172.671 Y86.624 E19.31264
G1 X172.854 Y87.278 E19.40299
G1 X172.943 Y87.614 E19.44924
G1 X173.149 Y88.444 E19.56301
G1 X173.371 Y89.385 E19.69164
G1 X173.524 Y90.025 E19.77918
G1 X173.678 Y90.71 E19.87259
G1 X173.746 Y91.032 E19.91638
G1 X173.887 Y91.754 E20.01425
G1 X174.197 Y93.417 E20.2393
G1 X174.315 Y94.097 E20.33112
G1 X174.368 Y94.427 E20.37559
G1 X174.486 Y95.242 E20.48515
G1 X174.677 Y96.671 E20.67695
G1 X174.809 Y97.773 E20.82461
G1 X174.839 Y98.047 E20.86128
G1 X174.879 Y98.47 E20.91781
G1 X175.029 Y100.248 E21.1552
G1 X175.087 Y101.06 E21.2635
G1 X175.107 Y101.398 E21.30855
G1 X175.137 Y102.101 E21.40216
G1 X175.191 Y103.748 E21.6214
G1 X175.207 Y104.575 E21.73144
G1 X175.209 Y104.918 E21.77707
G1 X175.203 Y105.515 E21.8565
G1 X175.195 Y106.013 E21.92277
G1 X175.179 Y106.734 E22.01871
G1 X175.16 Y107.331 E22.09818
G1 X175.119 Y108.313 E22.22894
G1 X175.097 Y108.7 E22.28051
G1 X174.947 Y110.74 E22.55264
G1 X174.877 Y111.526 E22.65763
G1 X174.845 Y111.839 E22.69948
G1 X174.778 Y112.424 E22.77782
G1 X174.565 Y114.075 E22.99929
G1 X174.424 Y115.071 E23.13312
G1 X174.371 Y115.407 E23.17838
G1 X174.281 Y115.932 E23.24924
G1 X173.992 Y117.542 E23.46686
G1 X173.829 Y118.408 E23.5841
G1 X173.766 Y118.723 E23.62683
G1 X173.642 Y119.295 E23.7047
G1 X173.302 Y120.775 E23.90673
G1 X173.041 Y121.833 E24.05171
G1 X172.952 Y122.172 E24.09834
G1 X172.427 Y124.058 E24.35879
G1 X172.134 Y125.053 E24.49679
G1 X172.028 Y125.396 E24.54455
G1 X171.812 Y126.051 E24.63631
G1 X171.446 Y127.106 E24.78487
G1 X171.11 Y128.032 E24.91592
G1 X171.007 Y128.307 E24.95499
G1 X170.895 Y128.594 E24.99598
G1 X170.78 Y128.878 E25.03674
G1 X170.365 Y129.869 E25.17968
G1 X170.258 Y130.116 E25.21549
G1 X169.688 Y131.399 E25.40227
G1 X169.502 Y131.799 E25.46096
G1 X168.985 Y132.86 E25.61798
G1 X168.88 Y133.071 E25.64934
G1 X168.219 Y134.364 E25.84253
G1 X167.876 Y135.016 E25.94055
G1 X167.718 Y135.306 E25.98448
G1 X167.532 Y135.638 E26.03511
G1 X167.38 Y135.902 E26.07564
G1 X167.051 Y136.457 E26.16148
G1 X166.507 Y137.296 E26.29451
G1 X165.898 Y138.089 E26.42753
G1 X165.227 Y138.831 E26.56062
G1 X164.5 Y139.516 E26.69351
G1 X163.719 Y140.141 E26.82659
G1 X162.892 Y140.702 E26.95954
G1 X162.022 Y141.195 E27.09258
G1 X161.116 Y141.617 E27.22555
G1 X160.178 Y141.965 E27.35865
G1 X159.216 Y142.238 E27.49169
G1 X158.236 Y142.432 E27.6246
G1 X156.798 Y142.573 E27.81683
G1 X156.447 Y142.584 E27.86355
G1 X155.726 Y142.596 E27.95949
G1 X152.923 Y142.609 E28.3324
G1 X151.447 Y142.604 E28.52877
G1 X148.857 Y142.626 E28.87336
G1 X146.353 Y142.717 E29.20671
G1 X144.823 Y142.807 E29.41062
G1 X143.774 Y142.83 E29.55021
G1 X143.064 Y142.816 E29.64469
G1 X140.464 Y142.802 E29.9906
G1 X137.191 Y142.89 E30.4262
G1 X136.898 Y142.903 E30.46522
G1 X135.848 Y142.905 E30.60491
G1 X134.522 Y142.851 E30.78147
G1 X133.735 Y142.81 E30.88631
G1 X131.247 Y142.754 E31.2174
G1 X130.383 Y142.758 E31.33235
G1 X128.928 Y142.75 E31.52593
G1 X126.353 Y142.761 E31.86851
G1 X125.813 Y142.771 E31.94036
G1 X124.234 Y142.812 E32.1505
G1 X122.196 Y142.856 E32.4217
G1 X121.799 Y142.858 E32.47452
G1 X120.938 Y142.848 E32.58908
G1 X119.351 Y142.81 E32.80027
G1 X116.49 Y142.826 E33.18091
G1 X115.103 Y142.855 E33.36548
G1 X114.734 Y142.858 E33.41457
G1 X114.317 Y142.853 E33.47005
G1 X111.836 Y142.797 E33.80021
G1 X111.255 Y142.799 E33.87751
G1 X109.755 Y142.777 E34.07709
G1 X108.568 Y142.743 E34.23507
G1 X106.19 Y142.735 E34.55144
G1 X104.819 Y142.749 E34.73385
G1 X102.878 Y142.753 E34.99209
G1 X100.571 Y142.796 E35.29906
G1 X100.226 Y142.798 E35.34496
G1 X98.396 Y142.835 E35.58848
G1 X97.235 Y142.855 E35.74296
G1 X96.886 Y142.856 E35.78939
G1 X96.23 Y142.848 E35.87667
G1 X94.62 Y142.807 E36.09094
G1 X92.158 Y142.813 E36.41848
G1 X91.735 Y142.826 E36.47479
G1 X89.608 Y142.855 E36.75779
G1 X89.096 Y142.852 E36.82591
G1 X88.904 Y142.847 E36.85146
G1 X86.28 Y142.757 E37.20076
G1 X83.577 Y142.757 E37.56037
G1 X83.304 Y142.746 E37.59672
G1 X82.752 Y142.749 E37.67016
G1 X81.942 Y142.745 E37.77793
G1 X79.354 Y142.766 E38.12225
G1 X76.855 Y142.857 E38.45493
G1 X76.355 Y142.886 E38.52157
G1 X76.054 Y142.9 E38.56166
G1 X75.822 Y142.908 E38.59254
G1 X74.836 Y142.903 E38.72372
G1 X74.679 Y142.896 E38.74463
G1 X72.164 Y142.813 E39.07941
G1 X69.589 Y142.802 E39.42199
G1 X68.63 Y142.809 E39.54958
G1 X67.859 Y142.79 E39.65218
G1 X66.802 Y142.732 E39.79302
G1 X64.194 Y142.626 E40.14027
G1 X61.244 Y142.595 E40.53277
G1 X59.145 Y142.608 E40.81202
G1 X58.519 Y142.609 E40.89531
G1 X55.87 Y142.595 E41.24774
G1 X55.228 Y142.583 E41.33316
G1 X54.23 Y142.524 E41.46617
G1 X53.24 Y142.386 E41.59915
G1 X52.264 Y142.169 E41.73217
G1 X51.309 Y141.875 E41.86511
G1 X50.38 Y141.505 E41.99815
G1 X49.483 Y141.062 E42.13124
G1 X48.625 Y140.549 E42.26424
G1 X47.811 Y139.97 E42.39714
G1 X47.158 Y139.428 E42.51004
G1 X46.435 Y138.737 E42.64309
G1 X45.77 Y137.991 E42.77605
G1 X45.167 Y137.193 E42.90912
G1 X44.679 Y136.436 E43.02894
G1 X44.416 Y135.993 E43.09748
G1 X44.232 Y135.671 E43.14682
G1 X43.864 Y135.007 E43.24782
G1 X43.73 Y134.758 E43.28544
G1 X43.521 Y134.36 E43.34525
G1 X42.723 Y132.797 E43.57872
G1 X42.506 Y132.356 E43.64411
G1 X42.336 Y131.995 E43.6972
G1 X41.748 Y130.693 E43.88726
G1 X41.515 Y130.151 E43.96575
G1 X41.202 Y129.396 E44.07449
G1 X40.837 Y128.544 E44.1978
G1 X40.641 Y128.06 E44.26727
G1 X40.529 Y127.761 E44.30975
G1 X40.362 Y127.296 E44.37548
G1 X39.965 Y126.153 E44.53646
G1 X39.798 Y125.652 E44.60672
G1 X39.58 Y124.963 E44.70286
G1 X39.497 Y124.689 E44.74095
G1 X39.378 Y124.278 E44.79788
G1 X38.926 Y122.665 E45.02074
G1 X38.729 Y121.937 E45.12108
G1 X38.637 Y121.576 E45.17064
G1 X38.452 Y120.8 E45.27677
G1 X38.101 Y119.281 E45.48418
G1 X37.932 Y118.507 E45.58958
G1 X37.867 Y118.19 E45.63264
G1 X37.751 Y117.576 E45.71577
G1 X37.445 Y115.845 E45.94963
G1 X37.304 Y114.981 E46.0661
G1 X37.259 Y114.684 E46.10606
G1 X37.198 Y114.236 E46.16622
G1 X36.996 Y112.671 E46.37615
G1 X36.877 Y111.634 E46.51502
G1 X36.846 Y111.331 E46.55554
G1 X36.789 Y110.67 E46.64381
G1 X36.668 Y109.008 E46.86551
G1 X36.606 Y107.958 E47.00544
G1 X36.59 Y107.597 E47.05352
G1 X36.562 Y106.679 E47.1757
G1 X36.547 Y105.984 E47.26819
G1 X36.539 Y105.449 E47.33937
G1 X36.536 Y104.516 E47.4635
G1 X36.539 Y104.203 E47.50514
G1 X36.547 Y103.845 E47.55279
G1 X36.601 Y102.168 E47.77601
G1 X36.646 Y101.196 E47.90546
G1 X36.665 Y100.874 E47.94838
G1 X36.718 Y100.167 E48.0427
G1 X36.86 Y98.518 E48.2629
G1 X36.963 Y97.497 E48.39942
G1 X37.008 Y97.114 E48.45073
G1 X37.252 Y95.268 E48.69845
G1 X37.402 Y94.245 E48.83601
G1 X37.453 Y93.925 E48.87912
G1 X37.55 Y93.373 E48.95368
G1 X37.836 Y91.834 E49.16194
G1 X38.048 Y90.78 E49.30497
G1 X38.115 Y90.468 E49.34743
G1 X38.211 Y90.049 E49.40462
G1 X38.617 Y88.345 E49.63766
G1 X38.838 Y87.464 E49.7585
G1 X38.919 Y87.156 E49.80087
G1 X39.063 Y86.64 E49.87214
G1 X39.499 Y85.141 E50.07984
G1 X39.813 Y84.115 E50.22259
G1 X39.908 Y83.816 E50.26432
G1 X40.097 Y83.253 E50.34333
G1 X40.675 Y81.595 E50.57693
G1 X40.907 Y80.951 E50.668
G1 X41.017 Y80.658 E50.70964
G1 X41.306 Y79.918 E50.81533
G1 X41.925 Y78.396 E51.03393
G1 X42.289 Y77.533 E51.15853
G1 X42.4 Y77.278 E51.19553
G1 X42.572 Y76.895 E51.25139
G1 X43.28 Y75.37 E51.47508
G1 X43.729 Y74.436 E51.61295
G1 X43.873 Y74.145 E51.65615
G1 X44.12 Y73.666 E51.72785
G1 X44.782 Y72.412 E51.9165
G1 X44.95 Y72.103 E51.96329
G1 X45.189 Y71.654 E52.03096
G1 X45.37 Y71.327 E52.08069
G1 X45.896 Y70.41 E52.22133
G1 X46.613 Y69.203 E52.40811
G1 X46.725 Y69.018 E52.43688
G1 X47.166 Y68.304 E52.54853
G1 X47.309 Y68.078 E52.58411
G1 X47.593 Y67.641 E52.65344
G1 X48.527 Y66.24 E52.87746
G1 X48.982 Y65.578 E52.98433
G1 X49.177 Y65.303 E53.02918
G1 X49.871 Y64.35 E53.18602
G1 X50.619 Y63.342 E53.35302
G1 X51.132 Y62.67 E53.46549
G1 X51.33 Y62.418 E53.50813
G1 X51.766 Y61.878 E53.60047
G1 X52.851 Y60.564 E53.82717
G1 X53.409 Y59.907 E53.94185
G1 X53.616 Y59.669 E53.98382
G1 X53.935 Y59.314 E54.04731
G1 X55.164 Y57.97 E54.28961
G1 X55.754 Y57.342 E54.40424
G1 X55.979 Y57.109 E54.44734
G1 X56.345 Y56.74 E54.51648
G0 F6000 X57.049 Y57.45
G1 F1200 X58.329 Y56.181 E54.75628
G1 X58.914 Y55.617 E54.86439
G1 X59.117 Y55.426 E54.90147
G1 X59.5 Y55.076 E54.9705
G1 X60.857 Y53.86 E55.21291
G1 X61.439 Y53.352 E55.31569
G1 X61.653 Y53.169 E55.35315
G1 X62.14 Y52.767 E55.43716
G1 X63.507 Y51.666 E55.67068
G1 X64.253 Y51.081 E55.79681
G1 X64.477 Y50.909 E55.83438
G1 X64.718 Y50.73 E55.87432
G1 X66.281 Y49.588 E56.13185
G1 X66.89 Y49.156 E56.23119
G1 X67.143 Y48.982 E56.27204
G1 X67.654 Y48.641 E56.35377
G1 X69.117 Y47.684 E56.58635
G1 X69.801 Y47.249 E56.6942
G1 X70.071 Y47.083 E56.73636
G1 X70.534 Y46.806 E56.80814
G1 X72.035 Y45.928 E57.03949
G1 X72.706 Y45.546 E57.14221
G1 X72.982 Y45.394 E57.18413
G1 X73.655 Y45.036 E57.28555
G1 X74.962 Y44.361 E57.48125
G1 X75.962 Y43.861 E57.63
G1 X76.571 Y43.57 E57.71979
G1 X78.032 Y42.899 E57.93369
G1 X78.97 Y42.484 E58.07015
G1 X79.251 Y42.363 E58.11085
G1 X79.778 Y42.148 E58.18657
G1 X81.429 Y41.494 E58.42283
G1 X82.228 Y41.19 E58.53656
G1 X82.5 Y41.09 E58.57511
G1 X82.958 Y40.929 E58.6397
G1 X84.553 Y40.387 E58.86382
G1 X85.421 Y40.104 E58.98528
G1 X85.709 Y40.014 E59.02542
G1 X86.327 Y39.831 E59.11117
G1 X87.971 Y39.366 E59.33847
G1 X88.857 Y39.128 E59.46052
G1 X89.121 Y39.06 E59.49679
G1 X89.559 Y38.954 E59.55675
G1 X91.353 Y38.542 E59.80163
G1 X92.174 Y38.366 E59.91334
G1 X92.867 Y38.232 E60.00725
G1 X94.587 Y37.925 E60.23969
G1 X95.552 Y37.765 E60.36983
G1 X95.833 Y37.722 E60.40765
G1 X96.364 Y37.649 E60.47896
G1 X98.16 Y37.421 E60.71982
G1 X98.957 Y37.331 E60.82652
G1 X99.241 Y37.302 E60.8645
G1 X99.872 Y37.247 E60.94877
G1 X101.417 Y37.129 E61.15492
G1 X102.409 Y37.066 E61.28716
G1 X102.722 Y37.05 E61.32886
G1 X103.266 Y37.032 E61.40127
G1 X105.071 Y36.988 E61.64148
G1 X105.875 Y36.979 E61.74845
G1 X106.162 Y36.979 E61.78663
G1 X106.734 Y36.988 E61.86274
G1 X108.502 Y37.034 E62.09804
G1 X109.326 Y37.066 E62.20775
G1 X109.639 Y37.082 E62.24944
G1 X110.163 Y37.117 E62.31931
G1 X111.94 Y37.254 E62.55642
G1 X112.787 Y37.331 E62.66957
G1 X113.07 Y37.36 E62.70742
G1 X113.664 Y37.43 E62.787
G1 X115.18 Y37.623 E62.99031
G1 X116.275 Y37.778 E63.13744
G1 X116.583 Y37.826 E63.17892
G1 X116.979 Y37.893 E63.23235
G1 X118.624 Y38.186 E63.45464
G1 X119.625 Y38.379 E63.59027
G1 X119.893 Y38.434 E63.62667
G1 X120.434 Y38.553 E63.70036
G1 X121.953 Y38.902 E63.90772
