;FLAVOR:Marlin
;TIME:8797
;Filament used: 16.207m
;Layer height: 0.32
;MINX:37.4
;MINY:47.4
;MINZ:0.32
;MAXX:182.6
;MAXY:172.6
;MAXZ:40
;Generated with Cura_SteamEngine 4.12.1
M140 S60
M105
M190 S60
M104 S200
M105
M109 S200
M82 ;absolute extrusion mode
; Ender 3 Custom Start G-code
G92 E0 ; Reset Extruder
G28 ; Home all axes
G29 ; bed level adjust
G1 Z2.0 F3000 ; Move Z Axis up little to prevent scratching of Heat Bed
G1 X0.1 Y20 Z0.3 F5000.0 ; Move to start position
G1 X0.1 Y200.0 Z0.3 F1500.0 E15 ; Draw the first line
G1 X0.4 Y200.0 Z0.3 F5000.0 ; Move to side a little
G1 X0.4 Y20 Z0.3 F1500.0 E30 ; Draw the second line
G92 E0 ; Reset Extruder
G1 Z2.0 F3000 ; Move Z Axis up little to prevent scratching of Heat Bed
G1 X5 Y20 Z0.3 F5000.0 ; Move over to prevent blob squish
G92 E0
G92 E0
G1 F1500 E-6.5
;LAYER_COUNT:125
;LAYER:0
M107
G0 F6000 X49.82 Y49.439 Z0.32
;TYPE:SKIRT
G1 F1500 E0
G1 F1200 X50.417 Y48.937 E0.08302
G1 X51.062 Y48.5 E0.16594
G1 X51.748 Y48.131 E0.24884
G1 X52.469 Y47.834 E0.33184
G1 X53.217 Y47.612 E0.41488
G1 X53.983 Y47.468 E0.49784
G1 X55 Y47.4 E0.60632
G1 X165 Y47.4 E12.31389
G1 X165.778 Y47.44 E12.3968
G1 X166.549 Y47.559 E12.47983
G1 X167.303 Y47.757 E12.5628
G1 X168.032 Y48.031 E12.64569
G1 X168.73 Y48.378 E12.72866
G1 X169.389 Y48.795 E12.81166
G1 X170.001 Y49.278 E12.89464
G1 X170.561 Y49.82 E12.97758
G1 X171.063 Y50.417 E13.0606
G1 X171.5 Y51.062 E13.14352
G1 X171.869 Y51.748 E13.22643
G1 X172.166 Y52.469 E13.30942
G1 X172.388 Y53.217 E13.39246
G1 X172.532 Y53.983 E13.47542
G1 X172.6 Y55 E13.5839
G1 X172.6 Y97.4 E18.09664
G1 X175 Y97.4 E18.35208
G1 X175.778 Y97.44 E18.43499
G1 X176.549 Y97.559 E18.51802
G1 X177.303 Y97.757 E18.60099
G1 X178.032 Y98.031 E18.68388
G1 X178.73 Y98.378 E18.76684
G1 X179.389 Y98.795 E18.84985
G1 X180.001 Y99.278 E18.93282
G1 X180.561 Y99.82 E19.01577
G1 X181.063 Y100.417 E19.09879
G1 X181.5 Y101.062 E19.18171
G1 X181.869 Y101.748 E19.26462
G1 X182.166 Y102.469 E19.34761
G1 X182.388 Y103.217 E19.43065
G1 X182.532 Y103.983 E19.51361
G1 X182.6 Y105 E19.62209
G1 X182.6 Y115 E20.68642
G1 X182.56 Y115.778 E20.76933
G1 X182.441 Y116.549 E20.85236
G1 X182.243 Y117.303 E20.93533
G1 X181.969 Y118.032 E21.01822
G1 X181.622 Y118.73 E21.10118
G1 X181.205 Y119.389 E21.18419
G1 X180.722 Y120.001 E21.26716
G1 X180.18 Y120.561 E21.35011
G1 X179.583 Y121.063 E21.43313
G1 X178.938 Y121.5 E21.51605
G1 X178.252 Y121.869 E21.59896
G1 X177.531 Y122.166 E21.68195
G1 X176.783 Y122.388 E21.76499
G1 X176.017 Y122.532 E21.84795
G1 X175 Y122.6 E21.95643
G1 X172.6 Y122.6 E22.21187
G1 X172.6 Y165 E26.7246
G1 X172.56 Y165.778 E26.80752
G1 X172.441 Y166.549 E26.89055
G1 X172.243 Y167.303 E26.97352
G1 X171.969 Y168.032 E27.05641
G1 X171.622 Y168.73 E27.13937
G1 X171.205 Y169.389 E27.22237
G1 X170.722 Y170.001 E27.30535
G1 X170.18 Y170.561 E27.3883
G1 X169.583 Y171.063 E27.47132
G1 X168.938 Y171.5 E27.55424
G1 X168.252 Y171.869 E27.63714
G1 X167.531 Y172.166 E27.72014
G1 X166.783 Y172.388 E27.80318
G1 X166.017 Y172.532 E27.88614
G1 X165 Y172.6 E27.99462
G1 X55 Y172.6 E39.70219
G1 X54.222 Y172.56 E39.7851
G1 X53.451 Y172.441 E39.86813
G1 X52.697 Y172.243 E39.9511
G1 X51.968 Y171.969 E40.03399
G1 X51.27 Y171.622 E40.11696
G1 X50.611 Y171.205 E40.19996
G1 X49.999 Y170.722 E40.28294
G1 X49.439 Y170.18 E40.36588
G1 X48.937 Y169.583 E40.4489
G1 X48.5 Y168.938 E40.53182
G1 X48.131 Y168.252 E40.61473
G1 X47.834 Y167.531 E40.69772
G1 X47.612 Y166.783 E40.78076
G1 X47.468 Y166.017 E40.86372
G1 X47.4 Y165 E40.9722
G1 X47.4 Y122.6 E45.48494
G1 X45 Y122.6 E45.74038
G1 X44.222 Y122.56 E45.82329
G1 X43.451 Y122.441 E45.90632
G1 X42.697 Y122.243 E45.98929
G1 X41.968 Y121.969 E46.07218
G1 X41.27 Y121.622 E46.15514
G1 X40.611 Y121.205 E46.23815
G1 X39.999 Y120.722 E46.32112
G1 X39.439 Y120.18 E46.40407
G1 X38.937 Y119.583 E46.48709
G1 X38.5 Y118.938 E46.57001
G1 X38.131 Y118.252 E46.65292
G1 X37.834 Y117.531 E46.73591
G1 X37.612 Y116.783 E46.81895
G1 X37.468 Y116.017 E46.90191
G1 X37.4 Y115 E47.01039
G1 X37.4 Y105 E48.07472
G1 X37.44 Y104.222 E48.15763
G1 X37.559 Y103.451 E48.24066
G1 X37.757 Y102.697 E48.32363
G1 X38.031 Y101.968 E48.40652
G1 X38.378 Y101.27 E48.48948
G1 X38.795 Y100.611 E48.57249
G1 X39.278 Y99.999 E48.65546
G1 X39.82 Y99.439 E48.73841
G1 X40.417 Y98.937 E48.82143
G1 X41.062 Y98.5 E48.90435
G1 X41.748 Y98.131 E48.98726
G1 X42.469 Y97.834 E49.07025
G1 X43.217 Y97.612 E49.15329
G1 X43.983 Y97.468 E49.23625
G1 X45 Y97.4 E49.34473
G1 X47.4 Y97.4 E49.60017
G1 X47.4 Y55 E54.1129
G1 X47.44 Y54.222 E54.19582
G1 X47.559 Y53.451 E54.27885
G1 X47.757 Y52.697 E54.36182
G1 X48.031 Y51.968 E54.44471
G1 X48.378 Y51.27 E54.52767
G1 X48.795 Y50.611 E54.61067
G1 X49.278 Y49.999 E54.69365
G1 X49.82 Y49.439 E54.7766
G0 F6000 X50.604 Y49.812
G1 F1200 X51.191 Y49.367 E54.855
G1 X51.824 Y48.987 E54.93358
G1 X52.493 Y48.679 E55.01196
G1 X53.192 Y48.445 E55.09042
G1 X53.913 Y48.287 E55.16898
G1 X55 Y48.2 E55.28504
G1 X165 Y48.2 E66.99261
G1 X165.736 Y48.24 E67.07106
G1 X166.464 Y48.359 E67.14957
G1 X167.174 Y48.557 E67.22802
G1 X167.859 Y48.83 E67.3065
G1 X168.51 Y49.176 E67.38497
G1 X169.12 Y49.59 E67.46343
G1 X169.681 Y50.068 E67.54188
G1 X170.188 Y50.604 E67.6204
G1 X170.633 Y51.191 E67.6988
G1 X171.013 Y51.824 E67.77738
G1 X171.321 Y52.493 E67.85577
G1 X171.555 Y53.192 E67.93422
G1 X171.713 Y53.913 E68.01278
G1 X171.8 Y55 E68.12884
G1 X171.8 Y98.2 E72.72672
G1 X175 Y98.2 E73.06731
G1 X175.736 Y98.24 E73.14576
G1 X176.464 Y98.359 E73.22427
G1 X177.174 Y98.557 E73.30272
G1 X177.859 Y98.83 E73.3812
G1 X178.51 Y99.176 E73.45967
G1 X179.12 Y99.59 E73.53813
G1 X179.681 Y100.068 E73.61657
G1 X180.188 Y100.604 E73.6951
G1 X180.633 Y101.191 E73.7735
G1 X181.013 Y101.824 E73.85208
G1 X181.321 Y102.493 E73.93046
G1 X181.555 Y103.192 E74.00892
G1 X181.713 Y103.913 E74.08748
G1 X181.8 Y105 E74.20354
G1 X181.8 Y115 E75.26786
G1 X181.76 Y115.736 E75.34631
G1 X181.641 Y116.464 E75.42483
G1 X181.443 Y117.174 E75.50328
G1 X181.17 Y117.859 E75.58176
G1 X180.824 Y118.51 E75.66022
G1 X180.41 Y119.12 E75.73869
G1 X179.932 Y119.681 E75.81713
G1 X179.396 Y120.188 E75.89566
G1 X178.809 Y120.633 E75.97406
G1 X178.176 Y121.013 E76.05264
G1 X177.507 Y121.321 E76.13102
G1 X176.808 Y121.555 E76.20948
G1 X176.087 Y121.713 E76.28804
G1 X175 Y121.8 E76.4041
G1 X171.8 Y121.8 E76.74468
G1 X171.8 Y165 E81.34256
G1 X171.76 Y165.736 E81.42101
G1 X171.641 Y166.464 E81.49952
G1 X171.443 Y167.174 E81.57797
G1 X171.17 Y167.859 E81.65646
G1 X170.824 Y168.51 E81.73492
G1 X170.41 Y169.12 E81.81339
G1 X169.932 Y169.681 E81.89183
G1 X169.396 Y170.188 E81.97036
G1 X168.809 Y170.633 E82.04876
G1 X168.176 Y171.013 E82.12733
G1 X167.507 Y171.321 E82.20572
G1 X166.808 Y171.555 E82.28418
G1 X166.087 Y171.713 E82.36273
G1 X165 Y171.8 E82.4788
G1 X55 Y171.8 E94.18636
G1 X54.264 Y171.76 E94.26481
G1 X53.536 Y171.641 E94.34333
G1 X52.826 Y171.443 E94.42178
G1 X52.141 Y171.17 E94.50026
G1 X51.49 Y170.824 E94.57872
G1 X50.88 Y170.41 E94.65719
G1 X50.319 Y169.932 E94.73563
G1 X49.812 Y169.396 E94.81416
G1 X49.367 Y168.809 E94.89256
G1 X48.987 Y168.176 E94.97114
G1 X48.679 Y167.507 E95.04952
G1 X48.445 Y166.808 E95.12798
G1 X48.287 Y166.087 E95.20654
G1 X48.2 Y165 E95.3226
G1 X48.2 Y121.8 E99.92048
G1 X45 Y121.8 E100.26106
G1 X44.264 Y121.76 E100.33951
G1 X43.536 Y121.641 E100.41802
G1 X42.826 Y121.443 E100.49647
G1 X42.141 Y121.17 E100.57496
G1 X41.49 Y120.824 E100.65342
G1 X40.88 Y120.41 E100.73189
G1 X40.319 Y119.932 E100.81033
G1 X39.812 Y119.396 E100.88886
G1 X39.367 Y118.809 E100.96726
G1 X38.987 Y118.176 E101.04583
G1 X38.679 Y117.507 E101.12422
G1 X38.445 Y116.808 E101.20268
G1 X38.287 Y116.087 E101.28123
G1 X38.2 Y115 E101.3973
G1 X38.2 Y105 E102.46162
G1 X38.24 Y104.264 E102.54007
G1 X38.359 Y103.536 E102.61858
G1 X38.557 Y102.826 E102.69703
G1 X38.83 Y102.141 E102.77552
G1 X39.176 Y101.49 E102.85398
G1 X39.59 Y100.88 E102.93245
G1 X40.068 Y100.319 E103.01089
G1 X40.604 Y99.812 E103.08941
G1 X41.191 Y99.367 E103.16781
G1 X41.824 Y98.987 E103.24639
G1 X42.493 Y98.679 E103.32478
G1 X43.192 Y98.445 E103.40323
G1 X43.913 Y98.287 E103.48179
G1 X45 Y98.2 E103.59785
G1 X48.2 Y98.2 E103.93844
G1 X48.2 Y55 E108.53632
G1 X48.24 Y54.264 E108.61477
G1 X48.359 Y53.536 E108.69328
G1 X48.557 Y52.826 E108.77173
G1 X48.83 Y52.141 E108.85021
G1 X49.176 Y51.49 E108.92868
G1 X49.59 Y50.88 E109.00714
G1 X50.068 Y50.319 E109.08559
G1 X50.604 Y49.812 E109.16411
G0 F6000 X50.856 Y50.661
G1 F1200 X51.384 Y50.212 E109.23788
G1 X51.959 Y49.827 E109.31153
G1 X52.576 Y49.512 E109.38526
G1 X53.224 Y49.269 E109.45892
G1 X53.897 Y49.102 E109.53272
G1 X54.583 Y49.014 E109.60633
G1 X55 Y49 E109.65074
G1 X165 Y49 E121.35831
G1 X165.691 Y49.04 E121.43198
G1 X166.374 Y49.159 E121.50576
G1 X167.037 Y49.357 E121.57941
G1 X167.674 Y49.629 E121.65313
G1 X168.275 Y49.973 E121.72683
G1 X168.833 Y50.384 E121.80059
G1 X169.339 Y50.856 E121.87424
G1 X169.788 Y51.384 E121.94801
G1 X170.173 Y51.959 E122.02166
G1 X170.488 Y52.576 E122.09539
G1 X170.731 Y53.224 E122.16905
G1 X170.898 Y53.897 E122.24285
G1 X170.986 Y54.583 E122.31646
G1 X171 Y55 E122.36087
G1 X171 Y99 E127.04389
G1 X175 Y99 E127.46962
G1 X175.691 Y99.04 E127.54329
G1 X176.374 Y99.159 E127.61708
G1 X177.037 Y99.357 E127.69073
G1 X177.674 Y99.629 E127.76444
G1 X178.275 Y99.973 E127.83815
G1 X178.833 Y100.384 E127.91191
G1 X179.339 Y100.856 E127.98556
G1 X179.788 Y101.384 E128.05932
G1 X180.173 Y101.959 E128.13297
G1 X180.488 Y102.576 E128.20671
G1 X180.731 Y103.224 E128.28036
G1 X180.898 Y103.897 E128.35417
G1 X180.986 Y104.583 E128.42778
G1 X181 Y105 E128.47218
G1 X181 Y115 E129.53651
G1 X180.96 Y115.691 E129.61018
G1 X180.841 Y116.374 E129.68396
G1 X180.643 Y117.037 E129.75761
G1 X180.371 Y117.674 E129.83133
G1 X180.027 Y118.275 E129.90503
G1 X179.616 Y118.833 E129.97879
G1 X179.144 Y119.339 E130.05244
G1 X178.616 Y119.788 E130.12621
G1 X178.041 Y120.173 E130.19986
G1 X177.424 Y120.488 E130.27359
G1 X176.776 Y120.731 E130.34725
G1 X176.103 Y120.898 E130.42105
G1 X175.417 Y120.986 E130.49466
G1 X175 Y121 E130.53907
G1 X171 Y121 E130.9648
G1 X171 Y165 E135.64782
G1 X170.96 Y165.691 E135.72149
G1 X170.841 Y166.374 E135.79528
G1 X170.643 Y167.037 E135.86893
G1 X170.371 Y167.674 E135.94264
G1 X170.027 Y168.275 E136.01635
G1 X169.616 Y168.833 E136.09011
G1 X169.144 Y169.339 E136.16376
G1 X168.616 Y169.788 E136.23752
G1 X168.041 Y170.173 E136.31117
G1 X167.424 Y170.488 E136.38491
G1 X166.776 Y170.731 E136.45856
G1 X166.103 Y170.898 E136.53237
G1 X165.417 Y170.986 E136.60598
G1 X165 Y171 E136.65038
G1 X55 Y171 E148.35795
G1 X54.309 Y170.96 E148.43162
G1 X53.626 Y170.841 E148.50541
G1 X52.963 Y170.643 E148.57905
G1 X52.326 Y170.371 E148.65277
G1 X51.725 Y170.027 E148.72647
G1 X51.167 Y169.616 E148.80024
G1 X50.661 Y169.144 E148.87388
G1 X50.212 Y168.616 E148.94765
G1 X49.827 Y168.041 E149.0213
G1 X49.512 Y167.424 E149.09503
G1 X49.269 Y166.776 E149.16869
G1 X49.102 Y166.103 E149.24249
G1 X49.014 Y165.417 E149.3161
G1 X49 Y165 E149.36051
G1 X49 Y121 E154.04354
G1 X45 Y121 E154.46927
G1 X44.309 Y120.96 E154.54294
G1 X43.626 Y120.841 E154.61672
G1 X42.963 Y120.643 E154.69037
G1 X42.326 Y120.371 E154.76409
G1 X41.725 Y120.027 E154.83779
G1 X41.167 Y119.616 E154.91155
G1 X40.661 Y119.144 E154.9852
G1 X40.212 Y118.616 E155.05897
G1 X39.827 Y118.041 E155.13262
G1 X39.512 Y117.424 E155.20635
G1 X39.269 Y116.776 E155.28001
G1 X39.102 Y116.103 E155.35381
G1 X39.014 Y115.417 E155.42742
G1 X39 Y115 E155.47183
G1 X39 Y105 E156.53615
G1 X39.04 Y104.309 E156.60982
G1 X39.159 Y103.626 E156.68361
G1 X39.357 Y102.963 E156.75725
G1 X39.629 Y102.326 E156.83097
G1 X39.973 Y101.725 E156.90467
G1 X40.384 Y101.167 E156.97843
G1 X40.856 Y100.661 E157.05208
G1 X41.384 Y100.212 E157.12585
G1 X41.959 Y99.827 E157.1995
G1 X42.576 Y99.512 E157.27323
G1 X43.224 Y99.269 E157.34689
G1 X43.897 Y99.102 E157.42069
G1 X44.583 Y99.014 E157.4943
G1 X45 Y99 E157.53871
G1 X49 Y99 E157.96444
G1 X49 Y55 E162.64747
G1 X49.04 Y54.309 E162.72114
G1 X49.159 Y53.626 E162.79492
G1 X49.357 Y52.963 E162.86857
G1 X49.629 Y52.326 E162.94229
G1 X49.973 Y51.725 E163.01599
G1 X50.384 Y51.167 E163.08975
G1 X50.856 Y50.661 E163.1634
G0 F6000 X51.64 Y51.031
G1 F1200 X52.157 Y50.646 E163.23201
G1 X52.718 Y50.327 E163.30069
G1 X53.314 Y50.081 E163.36932
G1 X53.935 Y49.91 E163.43787
G1 X54.573 Y49.818 E163.50648
G1 X55 Y49.8 E163.55196
G1 X165 Y49.8 E175.25953
G1 X165.643 Y49.84 E175.3281
G1 X166.277 Y49.959 E175.39676
G1 X166.891 Y50.156 E175.46539
G1 X167.476 Y50.427 E175.53401
G1 X168.023 Y50.769 E175.60267
G1 X168.523 Y51.175 E175.67122
G1 X168.969 Y51.64 E175.7398
G1 X169.354 Y52.157 E175.8084
G1 X169.673 Y52.718 E175.87709
G1 X169.919 Y53.314 E175.94571
G1 X170.09 Y53.935 E176.01427
G1 X170.182 Y54.573 E176.08287
G1 X170.2 Y55 E176.12836
G1 X170.2 Y99.8 E180.89653
G1 X175 Y99.8 E181.40741
G1 X175.643 Y99.84 E181.47598
G1 X176.277 Y99.959 E181.54463
G1 X176.891 Y100.156 E181.61327
G1 X177.476 Y100.427 E181.68188
G1 X178.023 Y100.769 E181.75055
G1 X178.523 Y101.175 E181.8191
G1 X178.969 Y101.64 E181.88767
G1 X179.354 Y102.157 E181.95628
G1 X179.673 Y102.718 E182.02497
G1 X179.919 Y103.314 E182.09359
G1 X180.09 Y103.935 E182.16215
G1 X180.182 Y104.573 E182.23075
G1 X180.2 Y105 E182.27624
G1 X180.2 Y115 E183.34056
G1 X180.16 Y115.643 E183.40913
G1 X180.041 Y116.277 E183.47779
G1 X179.844 Y116.891 E183.54642
G1 X179.573 Y117.476 E183.61504
G1 X179.231 Y118.023 E183.6837
G1 X178.825 Y118.523 E183.75225
G1 X178.36 Y118.969 E183.82083
G1 X177.843 Y119.354 E183.88943
G1 X177.282 Y119.673 E183.95812
G1 X176.686 Y119.919 E184.02674
G1 X176.065 Y120.09 E184.0953
G1 X175.427 Y120.182 E184.1639
G1 X175 Y120.2 E184.20939
G1 X170.2 Y120.2 E184.72027
G1 X170.2 Y165 E189.48844
G1 X170.16 Y165.643 E189.55701
G1 X170.041 Y166.277 E189.62566
G1 X169.844 Y166.891 E189.6943
G1 X169.573 Y167.476 E189.76291
G1 X169.231 Y168.023 E189.83158
G1 X168.825 Y168.523 E189.90013
G1 X168.36 Y168.969 E189.9687
G1 X167.843 Y169.354 E190.03731
G1 X167.282 Y169.673 E190.106
G1 X166.686 Y169.919 E190.17462
G1 X166.065 Y170.09 E190.24318
G1 X165.427 Y170.182 E190.31178
G1 X165 Y170.2 E190.35727
G1 X55 Y170.2 E202.06484
G1 X54.357 Y170.16 E202.1334
G1 X53.723 Y170.041 E202.20206
G1 X53.109 Y169.844 E202.27069
G1 X52.524 Y169.573 E202.33931
G1 X51.977 Y169.231 E202.40797
G1 X51.477 Y168.825 E202.47652
G1 X51.031 Y168.36 E202.5451
G1 X50.646 Y167.843 E202.61371
G1 X50.327 Y167.282 E202.68239
G1 X50.081 Y166.686 E202.75102
G1 X49.91 Y166.065 E202.81957
G1 X49.818 Y165.427 E202.88818
G1 X49.8 Y165 E202.93366
G1 X49.8 Y120.2 E207.70184
G1 X45 Y120.2 E208.21271
G1 X44.357 Y120.16 E208.28128
G1 X43.723 Y120.041 E208.34994
G1 X43.109 Y119.844 E208.41857
G1 X42.524 Y119.573 E208.48719
G1 X41.977 Y119.231 E208.55585
G1 X41.477 Y118.825 E208.6244
G1 X41.031 Y118.36 E208.69298
G1 X40.646 Y117.843 E208.76158
G1 X40.327 Y117.282 E208.83027
G1 X40.081 Y116.686 E208.89889
G1 X39.91 Y116.065 E208.96745
G1 X39.818 Y115.427 E209.03606
G1 X39.8 Y115 E209.08154
G1 X39.8 Y105 E210.14587
G1 X39.84 Y104.357 E210.21443
G1 X39.959 Y103.723 E210.28309
G1 X40.156 Y103.109 E210.35172
G1 X40.427 Y102.524 E210.42034
G1 X40.769 Y101.977 E210.489
G1 X41.175 Y101.477 E210.55755
G1 X41.64 Y101.031 E210.62613
G1 X42.157 Y100.646 E210.69474
G1 X42.718 Y100.327 E210.76342
G1 X43.314 Y100.081 E210.83205
G1 X43.935 Y99.91 E210.9006
G1 X44.573 Y99.818 E210.96921
G1 X45 Y99.8 E211.0147
G1 X49.8 Y99.8 E211.52557
G1 X49.8 Y55 E216.29374
G1 X49.84 Y54.357 E216.36231
G1 X49.959 Y53.723 E216.43097
G1 X50.156 Y53.109 E216.4996
G1 X50.427 Y52.524 E216.56822
G1 X50.769 Y51.977 E216.63688
G1 X51.175 Y51.477 E216.70543
G1 X51.64 Y51.031 E216.77401
G0 F6000 X51.964 Y51.816
G1 F1200 X52.419 Y51.436 E216.8371
G1 X52.922 Y51.122 E216.90021
G1 X53.462 Y50.877 E216.96332
G1 X54.031 Y50.708 E217.0265
G1 X54.616 Y50.617 E217.08951
G1 X55 Y50.6 E217.13042
G1 X165 Y50.6 E228.83799
G1 X165.592 Y50.64 E228.90114
G1 X166.172 Y50.759 E228.96416
G1 X166.732 Y50.955 E229.0273
G1 X167.26 Y51.225 E229.09042
G1 X167.747 Y51.563 E229.15351
G1 X168.184 Y51.964 E229.21664
