;FLAVOR:Marlin
;TIME:8142
;Filament used: 18.8521m
;Layer height: 0.32
;MINX:57.965
;MINY:57.4
;MINZ:0.32
;MAXX:162.034
;MAXY:162.6
;MAXZ:49.92
;Generated with Cura_SteamEngine 4.12.1
M140 S60
M105
M190 S60
M104 S200
M105
M109 S200
M82 ;absolute extrusion mode
; Ender 3 Custom Start G-code
G92 E0 ; Reset Extruder
G28 ; Home all axes
G29 ; bed level adjust
G1 Z2.0 F3000 ; Move Z Axis up little to prevent scratching of Heat Bed
G1 X0.1 Y20 Z0.3 F5000.0 ; Move to start position
G1 X0.1 Y200.0 Z0.3 F1500.0 E15 ; Draw the first line
G1 X0.4 Y200.0 Z0.3 F5000.0 ; Move to side a little
G1 X0.4 Y20 Z0.3 F1500.0 E30 ; Draw the second line
G92 E0 ; Reset Extruder
G1 Z2.0 F3000 ; Move Z Axis up little to prevent scratching of Heat Bed
G1 X5 Y20 Z0.3 F5000.0 ; Move over to prevent blob squish
G92 E0
G92 E0
G1 F1500 E-6.5
;LAYER_COUNT:156
;LAYER:0
M107
G0 F6000 X73.747 Y72.436 Z0.32
;TYPE:SKIRT
G1 F1500 E0
G1 F1200 X74.016 Y72.174 E0.03997
G1 X75.665 Y70.647 E0.27917
G1 X75.949 Y70.396 E0.31951
G1 X77.672 Y68.953 E0.55871
G1 X77.973 Y68.715 E0.59955
G1 X79.765 Y67.362 E0.83853
G1 X80.072 Y67.141 E0.87879
G1 X81.932 Y65.877 E1.11814
G1 X82.253 Y65.671 E1.15874
G1 X84.172 Y64.503 E1.39784
G1 X84.497 Y64.316 E1.43775
G1 X86.472 Y63.244 E1.67692
G1 X86.811 Y63.071 E1.71742
G1 X88.837 Y62.099 E1.95659
G1 X89.185 Y61.942 E1.99722
G1 X91.257 Y61.073 E2.23636
G1 X91.608 Y60.936 E2.27646
G1 X93.72 Y60.171 E2.51554
G1 X94.084 Y60.05 E2.55637
G1 X96.234 Y59.392 E2.79567
G1 X96.596 Y59.291 E2.83567
G1 X98.773 Y58.741 E3.07466
G1 X99.145 Y58.657 E3.11525
G1 X101.35 Y58.216 E3.35458
G1 X101.714 Y58.152 E3.39391
G1 X101.811 Y58.131 E3.40448
G1 X102.532 Y57.834 E3.48747
G1 X103.28 Y57.612 E3.57051
G1 X104.046 Y57.468 E3.65347
G1 X105.063 Y57.4 E3.76195
G1 X108.063 Y57.4 E4.08125
G1 X108.788 Y57.437 E4.15851
G1 X109.451 Y57.413 E4.22912
G1 X109.729 Y57.408 E4.25872
G1 X111.395 Y57.408 E4.43603
G1 X111.673 Y57.413 E4.46563
G1 X112.446 Y57.441 E4.54795
G1 X113.063 Y57.4 E4.61377
G1 X116.063 Y57.4 E4.93306
G1 X116.841 Y57.44 E5.01598
G1 X117.612 Y57.559 E5.09901
G1 X118.366 Y57.757 E5.18198
G1 X119.095 Y58.031 E5.26487
G1 X119.356 Y58.142 E5.29505
G1 X119.721 Y58.205 E5.33448
G1 X121.883 Y58.634 E5.56907
G1 X122.246 Y58.716 E5.60868
G1 X124.383 Y59.25 E5.84312
G1 X124.746 Y59.35 E5.88319
G1 X126.854 Y59.989 E6.11763
G1 X127.204 Y60.104 E6.15684
G1 X129.28 Y60.845 E6.39145
G1 X129.625 Y60.978 E6.4308
G1 X131.66 Y61.818 E6.66512
G1 X132.004 Y61.97 E6.70515
G1 X133.998 Y62.911 E6.93982
G1 X134.331 Y63.078 E6.97947
G1 X136.275 Y64.115 E7.21397
G1 X136.596 Y64.297 E7.25324
G1 X138.487 Y65.427 E7.48771
G1 X138.802 Y65.626 E7.52736
G1 X140.635 Y66.847 E7.76177
G1 X140.942 Y67.062 E7.80166
G1 X142.714 Y68.373 E8.03627
G1 X143.005 Y68.6 E8.07555
G1 X144.711 Y69.995 E8.3101
G1 X144.993 Y70.237 E8.34965
G1 X146.628 Y71.713 E8.58408
G1 X146.902 Y71.973 E8.62429
G1 X148.461 Y73.528 E8.85864
G1 X148.714 Y73.793 E8.89764
G1 X150.198 Y75.423 E9.13225
G1 X150.443 Y75.706 E9.17209
G1 X151.844 Y77.406 E9.40655
G1 X152.073 Y77.697 E9.44596
G1 X153.39 Y79.464 E9.68052
G1 X153.606 Y79.77 E9.72039
G1 X154.834 Y81.599 E9.95486
G1 X155.035 Y81.914 E9.99463
G1 X156.172 Y83.802 E10.2292
G1 X156.353 Y84.121 E10.26823
G1 X157.397 Y86.061 E10.50271
G1 X157.567 Y86.396 E10.54269
G1 X158.514 Y88.385 E10.77716
G1 X158.666 Y88.726 E10.81689
G1 X159.514 Y90.759 E11.05134
G1 X159.648 Y91.102 E11.09053
G1 X160.397 Y93.175 E11.32513
G1 X160.515 Y93.53 E11.36494
G1 X161.161 Y95.637 E11.5995
G1 X161.261 Y95.992 E11.63875
G1 X161.804 Y98.127 E11.87322
G1 X161.957 Y98.891 E11.95615
G1 X162.031 Y99.667 E12.03912
G1 X162.025 Y100.446 E12.12203
G1 X161.939 Y101.221 E12.20502
G1 X161.775 Y101.983 E12.28798
G1 X161.533 Y102.724 E12.37095
G1 X161.217 Y103.437 E12.45395
G1 X160.829 Y104.113 E12.53691
G1 X160.374 Y104.746 E12.61988
G1 X159.857 Y105.329 E12.70281
G1 X159.282 Y105.856 E12.78583
G1 X158.657 Y106.321 E12.86874
G1 X157.987 Y106.72 E12.95174
G1 X157.28 Y107.048 E13.03469
G1 X156.544 Y107.303 E13.11759
G1 X155.784 Y107.48 E13.20064
G1 X155.011 Y107.578 E13.28357
G1 X154.438 Y107.6 E13.3446
G1 X144.418 Y107.6 E14.41106
G1 X144.418 Y112.4 E14.92193
G1 X154.438 Y112.4 E15.98839
G1 X155.216 Y112.44 E16.0713
G1 X155.987 Y112.559 E16.15433
G1 X156.741 Y112.757 E16.2373
G1 X157.47 Y113.031 E16.32019
G1 X158.168 Y113.378 E16.40315
G1 X158.827 Y113.795 E16.48616
G1 X159.439 Y114.278 E16.56913
G1 X159.999 Y114.82 E16.65208
G1 X160.501 Y115.417 E16.7351
G1 X160.938 Y116.062 E16.81802
G1 X161.307 Y116.748 E16.90093
G1 X161.604 Y117.469 E16.98392
G1 X161.826 Y118.217 E17.06696
G1 X161.97 Y118.983 E17.14992
G1 X162.034 Y119.759 E17.23279
G1 X162.019 Y120.539 E17.31582
G1 X161.924 Y121.312 E17.39871
G1 X161.804 Y121.872 E17.45967
G1 X161.261 Y124.008 E17.69424
G1 X161.161 Y124.366 E17.7338
G1 X160.515 Y126.471 E17.96815
G1 X160.398 Y126.821 E18.00743
G1 X159.65 Y128.894 E18.24199
G1 X159.514 Y129.243 E18.28186
G1 X158.665 Y131.276 E18.51634
G1 X158.515 Y131.613 E18.5556
G1 X157.568 Y133.603 E18.79016
G1 X157.398 Y133.937 E18.83005
G1 X156.355 Y135.876 E19.06439
G1 X156.171 Y136.199 E19.10395
G1 X155.033 Y138.087 E19.33857
G1 X154.835 Y138.398 E19.37781
G1 X153.608 Y140.227 E19.61223
G1 X153.391 Y140.535 E19.65233
G1 X152.074 Y142.302 E19.88688
G1 X151.845 Y142.594 E19.92638
G1 X150.443 Y144.295 E20.16099
G1 X150.198 Y144.577 E20.20075
G1 X148.715 Y146.206 E20.43521
G1 X148.462 Y146.471 E20.47421
G1 X146.903 Y148.026 E20.70856
G1 X146.629 Y148.286 E20.74877
G1 X144.993 Y149.763 E20.98335
G1 X144.711 Y150.006 E21.02297
G1 X143.006 Y151.4 E21.25737
G1 X142.715 Y151.626 E21.29659
G1 X140.943 Y152.937 E21.53119
G1 X140.639 Y153.151 E21.57076
G1 X138.806 Y154.373 E21.80523
G1 X138.487 Y154.574 E21.84536
G1 X136.595 Y155.704 E22.07991
G1 X136.275 Y155.885 E22.11904
G1 X134.331 Y156.922 E22.35354
G1 X133.996 Y157.09 E22.39343
G1 X132.003 Y158.03 E22.62796
G1 X131.664 Y158.18 E22.66741
G1 X129.629 Y159.021 E22.90177
G1 X129.281 Y159.155 E22.94146
G1 X127.205 Y159.896 E23.17607
G1 X126.853 Y160.012 E23.21551
G1 X124.743 Y160.651 E23.45016
G1 X124.382 Y160.75 E23.49
G1 X122.245 Y161.284 E23.72444
G1 X121.884 Y161.365 E23.76381
G1 X119.724 Y161.794 E23.9982
G1 X119.327 Y161.862 E24.04107
G1 X119.315 Y161.869 E24.04255
G1 X118.594 Y162.166 E24.12554
G1 X117.846 Y162.388 E24.20858
G1 X117.08 Y162.532 E24.29154
G1 X116.063 Y162.6 E24.40002
G1 X113.063 Y162.6 E24.71932
G1 X112.338 Y162.563 E24.79658
G1 X111.674 Y162.587 E24.8673
G1 X111.396 Y162.592 E24.89689
G1 X109.73 Y162.592 E25.07421
G1 X109.452 Y162.587 E25.1038
G1 X108.68 Y162.559 E25.18602
G1 X108.063 Y162.6 E25.25184
G1 X105.063 Y162.6 E25.57113
G1 X104.285 Y162.56 E25.65405
G1 X103.514 Y162.441 E25.73708
G1 X102.76 Y162.243 E25.82005
G1 X102.031 Y161.969 E25.90294
G1 X101.721 Y161.849 E25.93832
G1 X101.353 Y161.785 E25.97807
G1 X99.148 Y161.345 E26.21738
G1 X98.77 Y161.26 E26.25862
G1 X96.593 Y160.709 E26.49763
G1 X96.232 Y160.608 E26.53753
G1 X94.084 Y159.95 E26.77663
G1 X93.727 Y159.831 E26.81668
G1 X91.613 Y159.067 E27.05592
G1 X91.254 Y158.926 E27.09697
G1 X89.182 Y158.056 E27.33615
G1 X88.835 Y157.901 E27.3766
G1 X86.81 Y156.929 E27.61567
G1 X86.48 Y156.76 E27.65513
G1 X84.504 Y155.69 E27.8943
G1 X84.167 Y155.496 E27.93568
G1 X82.248 Y154.326 E28.17489
G1 X81.934 Y154.124 E28.21463
G1 X80.076 Y152.862 E28.45369
G1 X79.765 Y152.64 E28.49435
G1 X77.971 Y151.285 E28.73364
G1 X77.672 Y151.047 E28.77431
G1 X75.949 Y149.604 E29.01351
G1 X75.669 Y149.357 E29.05325
G1 X74.019 Y147.831 E29.29246
G1 X73.743 Y147.562 E29.33348
G1 X72.173 Y145.955 E29.57259
G1 X71.917 Y145.68 E29.61258
G1 X70.427 Y143.996 E29.8519
G1 X70.181 Y143.703 E29.89261
G1 X68.78 Y141.949 E30.13154
G1 X68.551 Y141.648 E30.17179
G1 X67.237 Y139.824 E30.41105
G1 X67.023 Y139.51 E30.4515
G1 X65.803 Y137.624 E30.69057
G1 X65.606 Y137.302 E30.73074
G1 X64.48 Y135.356 E30.97003
G1 X64.297 Y135.022 E31.01057
G1 X63.271 Y133.024 E31.24962
G1 X63.106 Y132.682 E31.29003
G1 X62.18 Y130.633 E31.52935
G1 X62.033 Y130.285 E31.56956
G1 X61.211 Y128.195 E31.80859
G1 X61.08 Y127.835 E31.84936
G1 X60.364 Y125.705 E32.08853
G1 X60.253 Y125.345 E32.12862
G1 X59.643 Y123.181 E32.36792
G1 X59.55 Y122.815 E32.40811
G1 X59.049 Y120.627 E32.64701
G1 X58.972 Y120.249 E32.68807
G1 X58.582 Y118.035 E32.92734
G1 X58.526 Y117.663 E32.96738
G1 X58.246 Y115.432 E33.20669
G1 X58.208 Y115.054 E33.24712
G1 X58.04 Y112.814 E33.4862
G1 X58.021 Y112.435 E33.52659
G1 X57.965 Y110.189 E33.76571
G1 X57.965 Y109.811 E33.80594
G1 X58.021 Y107.565 E34.04507
G1 X58.04 Y107.186 E34.08545
G1 X58.208 Y104.946 E34.32453
G1 X58.246 Y104.568 E34.36497
G1 X58.526 Y102.337 E34.60428
G1 X58.582 Y101.968 E34.644
G1 X58.971 Y99.754 E34.88325
G1 X59.048 Y99.37 E34.92494
G1 X59.55 Y97.181 E35.16397
G1 X59.644 Y96.816 E35.20408
G1 X60.254 Y94.654 E35.44317
G1 X60.364 Y94.297 E35.48293
G1 X61.08 Y92.166 E35.7222
G1 X61.212 Y91.805 E35.76311
G1 X62.035 Y89.713 E36.00238
G1 X62.182 Y89.364 E36.04268
G1 X63.107 Y87.318 E36.28166
G1 X63.269 Y86.981 E36.32146
G1 X64.294 Y84.982 E36.56056
G1 X64.48 Y84.641 E36.6019
G1 X65.607 Y82.695 E36.84124
G1 X65.802 Y82.377 E36.88094
G1 X67.021 Y80.492 E37.11987
G1 X67.237 Y80.176 E37.1606
G1 X68.552 Y78.351 E37.40002
G1 X68.778 Y78.053 E37.43982
G1 X70.179 Y76.298 E37.67883
G1 X70.429 Y76.001 E37.72015
G1 X71.919 Y74.318 E37.95939
G1 X72.176 Y74.042 E37.99952
G1 X73.747 Y72.436 E38.23864
G0 F6000 X74.319 Y72.995
G1 F1200 X74.56 Y72.761 E38.27439
G1 X76.209 Y71.234 E38.51359
G1 X76.463 Y71.01 E38.54963
G1 X78.186 Y69.567 E38.78883
G1 X78.455 Y69.353 E38.82542
G1 X80.247 Y68 E39.0644
G1 X80.522 Y67.803 E39.10041
G1 X82.382 Y66.539 E39.33976
G1 X82.669 Y66.354 E39.3761
G1 X84.588 Y65.186 E39.6152
G1 X84.879 Y65.019 E39.65091
G1 X86.854 Y63.947 E39.89008
G1 X87.157 Y63.792 E39.92631
G1 X89.183 Y62.82 E40.16547
G1 X89.494 Y62.68 E40.20177
G1 X91.566 Y61.811 E40.44091
G1 X91.88 Y61.688 E40.4768
G1 X93.992 Y60.923 E40.71588
G1 X94.318 Y60.815 E40.75243
G1 X96.468 Y60.157 E40.99173
G1 X96.792 Y60.066 E41.02755
G1 X98.969 Y59.516 E41.26654
G1 X99.301 Y59.441 E41.30276
G1 X101.506 Y59 E41.54209
G1 X101.833 Y58.943 E41.57742
G1 X102.055 Y58.91 E41.60131
G1 X102.556 Y58.679 E41.66003
G1 X103.255 Y58.445 E41.73848
G1 X103.976 Y58.287 E41.81704
G1 X105.063 Y58.2 E41.9331
G1 X108.063 Y58.2 E42.2524
G1 X108.776 Y58.239 E42.3284
G1 X109.48 Y58.213 E42.40338
G1 X109.729 Y58.208 E42.42989
G1 X111.395 Y58.208 E42.6072
G1 X111.644 Y58.213 E42.63371
G1 X112.506 Y58.245 E42.72552
G1 X113.063 Y58.2 E42.78499
G1 X116.063 Y58.2 E43.10429
G1 X116.799 Y58.24 E43.18274
G1 X117.527 Y58.359 E43.26125
G1 X118.237 Y58.557 E43.3397
G1 X118.922 Y58.83 E43.41819
G1 X119.068 Y58.908 E43.4358
G1 X119.239 Y58.933 E43.4542
G1 X119.566 Y58.99 E43.48952
G1 X121.728 Y59.419 E43.72412
G1 X122.053 Y59.492 E43.75957
G1 X124.19 Y60.026 E43.99401
G1 X124.514 Y60.115 E44.02977
G1 X126.622 Y60.754 E44.26421
G1 X126.935 Y60.858 E44.29932
G1 X129.011 Y61.599 E44.53392
G1 X129.32 Y61.717 E44.56913
G1 X131.355 Y62.557 E44.80344
G1 X131.662 Y62.693 E44.83918
G1 X133.656 Y63.634 E45.07385
G1 X133.954 Y63.784 E45.10936
G1 X135.898 Y64.821 E45.34386
G1 X136.186 Y64.984 E45.37908
G1 X138.077 Y66.114 E45.61354
G1 X138.359 Y66.292 E45.64904
G1 X140.192 Y67.513 E45.88345
G1 X140.466 Y67.705 E45.91906
G1 X142.238 Y69.016 E46.15366
G1 X142.499 Y69.219 E46.18885
G1 X144.205 Y70.614 E46.4234
G1 X144.457 Y70.831 E46.4588
G1 X146.092 Y72.307 E46.69323
G1 X146.337 Y72.54 E46.72922
G1 X147.896 Y74.095 E46.96358
G1 X148.122 Y74.331 E46.99835
G1 X149.606 Y75.961 E47.23297
G1 X149.826 Y76.214 E47.26865
G1 X151.227 Y77.914 E47.50311
G1 X151.431 Y78.175 E47.53837
G1 X152.748 Y79.942 E47.77293
G1 X152.942 Y80.216 E47.80866
G1 X154.17 Y82.045 E48.04313
G1 X154.349 Y82.327 E48.07868
G1 X155.486 Y84.215 E48.31325
G1 X155.649 Y84.501 E48.34829
G1 X156.693 Y86.441 E48.58276
G1 X156.845 Y86.74 E48.61846
G1 X157.792 Y88.729 E48.85293
G1 X157.928 Y89.034 E48.88847
G1 X158.776 Y91.067 E49.12292
G1 X158.895 Y91.374 E49.15796
G1 X159.644 Y93.447 E49.39255
G1 X159.75 Y93.765 E49.42823
G1 X160.396 Y95.872 E49.66279
G1 X160.485 Y96.189 E49.69783
G1 X161.028 Y98.324 E49.9323
G1 X161.171 Y99.047 E50.01074
G1 X161.234 Y99.782 E50.08925
G1 X161.218 Y100.519 E50.16771
G1 X161.122 Y101.25 E50.24618
G1 X160.948 Y101.966 E50.32461
G1 X160.696 Y102.659 E50.40309
G1 X160.372 Y103.321 E50.48153
G1 X159.977 Y103.944 E50.56005
G1 X159.518 Y104.521 E50.63852
G1 X158.998 Y105.044 E50.71701
G1 X158.425 Y105.508 E50.79549
G1 X157.806 Y105.908 E50.87393
G1 X157.146 Y106.237 E50.95242
G1 X156.455 Y106.494 E51.03088
G1 X155.74 Y106.674 E51.10936
G1 X155.01 Y106.776 E51.18781
G1 X154.438 Y106.8 E51.24874
G1 X143.618 Y106.8 E52.40034
G1 X143.618 Y113.2 E53.08151
G1 X154.438 Y113.2 E54.23311
G1 X155.174 Y113.24 E54.31156
G1 X155.902 Y113.359 E54.39007
G1 X156.612 Y113.557 E54.46852
G1 X157.297 Y113.83 E54.547
G1 X157.948 Y114.176 E54.62547
G1 X158.558 Y114.59 E54.70393
G1 X159.119 Y115.068 E54.78237
G1 X159.626 Y115.604 E54.8609
G1 X160.071 Y116.191 E54.9393
G1 X160.451 Y116.824 E55.01788
G1 X160.759 Y117.493 E55.09627
G1 X160.993 Y118.192 E55.17472
G1 X161.151 Y118.913 E55.25328
G1 X161.229 Y119.646 E55.33173
G1 X161.227 Y120.383 E55.41017
G1 X161.146 Y121.116 E55.48866
G1 X161.028 Y121.675 E55.54947
G1 X160.485 Y123.811 E55.78404
G1 X160.396 Y124.131 E55.81939
G1 X159.75 Y126.236 E56.05375
G1 X159.645 Y126.549 E56.08888
G1 X158.897 Y128.622 E56.32344
G1 X158.776 Y128.934 E56.35906
G1 X157.927 Y130.967 E56.59355
G1 X157.792 Y131.269 E56.62875
G1 X156.845 Y133.259 E56.86331
G1 X156.694 Y133.558 E56.89897
G1 X155.651 Y135.497 E57.1333
G1 X155.486 Y135.786 E57.16872
G1 X154.348 Y137.674 E57.40334
G1 X154.171 Y137.952 E57.43842
G1 X152.944 Y139.781 E57.67283
G1 X152.749 Y140.057 E57.7088
G1 X151.432 Y141.824 E57.94336
G1 X151.227 Y142.085 E57.97868
G1 X149.825 Y143.786 E58.21329
G1 X149.606 Y144.039 E58.2489
G1 X148.123 Y145.668 E58.48337
G1 X147.897 Y145.904 E58.51815
G1 X146.338 Y147.459 E58.7525
G1 X146.093 Y147.692 E58.78849
G1 X144.457 Y149.169 E59.02307
G1 X144.204 Y149.386 E59.05855
G1 X142.499 Y150.78 E59.29295
G1 X142.239 Y150.983 E59.32806
G1 X140.467 Y152.294 E59.56266
G1 X140.195 Y152.485 E59.59804
G1 X138.362 Y153.707 E59.8325
G1 X138.077 Y153.887 E59.86838
G1 X136.185 Y155.017 E60.10293
G1 X135.898 Y155.179 E60.13801
G1 X133.954 Y156.216 E60.37251
G1 X133.655 Y156.366 E60.40811
G1 X131.662 Y157.306 E60.64264
G1 X131.358 Y157.44 E60.678
G1 X129.323 Y158.281 E60.91236
G1 X129.012 Y158.401 E60.94784
G1 X126.936 Y159.142 E61.18245
G1 X126.621 Y159.246 E61.21775
G1 X124.511 Y159.885 E61.4524
G1 X124.189 Y159.974 E61.48795
G1 X122.052 Y160.508 E61.72239
G1 X121.728 Y160.581 E61.75774
G1 X119.568 Y161.01 E61.99213
G1 X119.24 Y161.067 E62.02756
G1 X119.066 Y161.093 E62.04628
G1 X118.57 Y161.321 E62.10439
G1 X117.871 Y161.555 E62.18284
G1 X117.15 Y161.713 E62.2614
G1 X116.063 Y161.8 E62.37746
G1 X113.063 Y161.8 E62.69676
G1 X112.349 Y161.761 E62.77286
G1 X111.645 Y161.787 E62.84784
G1 X111.396 Y161.792 E62.87435
G1 X109.73 Y161.792 E63.05167
G1 X109.481 Y161.787 E63.07817
G1 X108.619 Y161.755 E63.16998
G1 X108.063 Y161.8 E63.22935
G1 X105.063 Y161.8 E63.54865
G1 X104.327 Y161.76 E63.6271
G1 X103.599 Y161.641 E63.70561
G1 X102.889 Y161.443 E63.78406
G1 X102.204 Y161.17 E63.86254
G1 X102.053 Y161.09 E63.88073
G1 X101.839 Y161.058 E63.90376
G1 X101.509 Y161.001 E63.9394
G1 X99.304 Y160.561 E64.17871
G1 X98.967 Y160.484 E64.21551
G1 X96.79 Y159.933 E64.45452
G1 X96.466 Y159.843 E64.49031
G1 X94.318 Y159.185 E64.72941
G1 X93.999 Y159.078 E64.76522
G1 X91.885 Y158.314 E65.00446
G1 X91.563 Y158.189 E65.04122
G1 X89.491 Y157.319 E65.2804
G1 X89.181 Y157.179 E65.3166
G1 X87.156 Y156.207 E65.55567
G1 X86.861 Y156.057 E65.5909
G1 X84.885 Y154.987 E65.83006
G1 X84.583 Y154.813 E65.86716
G1 X82.664 Y153.643 E66.10637
G1 X82.383 Y153.462 E66.14194
G1 X80.525 Y152.2 E66.381
G1 X80.248 Y152.001 E66.4173
G1 X78.454 Y150.646 E66.65658
G1 X78.186 Y150.433 E66.69302
G1 X76.463 Y148.99 E66.93222
