;FLAVOR:Marlin
;TIME:6416
;Filament used: 10.5648m
;Layer height: 0.32
;MINX:83.039
;MINY:50.345
;MINZ:0.32
;MAXX:181.692
;MAXY:148.994
;MAXZ:24.96
;Generated with Cura_SteamEngine 4.12.1
M140 S60
M105
M190 S60
M104 S200
M105
M109 S200
M82 ;absolute extrusion mode
; Ender 3 Custom Start G-code
G92 E0 ; Reset Extruder
G28 ; Home all axes
G29 ; bed level adjust
G1 Z2.0 F3000 ; Move Z Axis up little to prevent scratching of Heat Bed
G1 X0.1 Y20 Z0.3 F5000.0 ; Move to start position
G1 X0.1 Y200.0 Z0.3 F1500.0 E15 ; Draw the first line
G1 X0.4 Y200.0 Z0.3 F5000.0 ; Move to side a little
G1 X0.4 Y20 Z0.3 F1500.0 E30 ; Draw the second line
G92 E0 ; Reset Extruder
G1 Z2.0 F3000 ; Move Z Axis up little to prevent scratching of Heat Bed
G1 X5 Y20 Z0.3 F5000.0 ; Move over to prevent blob squish
G92 E0
G92 E0
G1 F1500 E-6.5
;LAYER_COUNT:78
;LAYER:0
M107
G0 F6000 X93.382 Y69.419 Z0.32
;TYPE:SKIRT
G1 F1500 E0
G1 F1200 X93.543 Y69.213 E0.02783
G1 X94.488 Y68.039 E0.18823
G1 X94.677 Y67.812 E0.21967
G1 X95.616 Y66.734 E0.37183
G1 X95.788 Y66.543 E0.39918
G1 X96.821 Y65.435 E0.56041
G1 X97.019 Y65.231 E0.59067
G1 X98.056 Y64.199 E0.74638
G1 X98.225 Y64.036 E0.77137
G1 X99.25 Y63.077 E0.92077
G1 X99.47 Y62.879 E0.95227
G1 X100.597 Y61.904 E1.11088
G1 X100.803 Y61.732 E1.13944
G1 X101.896 Y60.852 E1.28879
G1 X102.082 Y60.707 E1.31389
G1 X103.324 Y59.769 E1.47954
G1 X103.572 Y59.59 E1.51209
G1 X104.679 Y58.822 E1.65549
G1 X104.86 Y58.7 E1.67872
G1 X106.096 Y57.894 E1.83577
G1 X106.337 Y57.743 E1.86604
G1 X107.587 Y56.993 E2.02119
G1 X107.814 Y56.862 E2.04909
G1 X109.146 Y56.124 E2.21116
G1 X109.375 Y56.002 E2.23878
G1 X110.61 Y55.372 E2.38634
G1 X110.882 Y55.24 E2.41851
G1 X112.242 Y54.613 E2.5779
G1 X112.44 Y54.525 E2.60097
G1 X113.787 Y53.95 E2.75685
G1 X114.034 Y53.85 E2.78521
G1 X115.306 Y53.359 E2.93033
G1 X115.587 Y53.271 E2.96167
G1 X115.584 Y53.261 E2.96278
G1 X116.86 Y52.819 E3.1065
G1 X117.103 Y52.739 E3.13373
G1 X118.681 Y52.251 E3.30953
G1 X118.981 Y52.165 E3.34274
G1 X120.148 Y51.856 E3.47123
G1 X120.402 Y51.793 E3.49908
G1 X122.098 Y51.406 E3.68423
G1 X122.353 Y51.353 E3.71195
G1 X123.616 Y51.11 E3.84884
G1 X123.806 Y51.076 E3.86939
G1 X125.364 Y50.817 E4.03748
G1 X125.735 Y50.765 E4.07736
G1 X127.288 Y50.585 E4.24375
G1 X127.467 Y50.566 E4.26291
G1 X128.696 Y50.453 E4.39427
G1 X129.398 Y50.421 E4.46906
G1 X130.107 Y50.384 E4.54462
G1 X130.381 Y50.375 E4.5738
G1 X132.244 Y50.345 E4.77211
G1 X132.488 Y50.345 E4.79808
G1 X134.35 Y50.375 E4.99628
G1 X134.624 Y50.384 E5.02546
G1 X135.525 Y50.431 E5.12149
G1 X135.882 Y50.448 E5.15953
G1 X137.386 Y50.574 E5.32016
G1 X137.693 Y50.605 E5.353
G1 X139.112 Y50.782 E5.5052
G1 X139.382 Y50.821 E5.53424
G1 X140.795 Y51.049 E5.68657
G1 X140.99 Y51.083 E5.70764
G1 X142.546 Y51.376 E5.87616
G1 X142.863 Y51.443 E5.91064
G1 X144.027 Y51.714 E6.03784
G1 X144.292 Y51.781 E6.06694
G1 X145.945 Y52.229 E6.24922
G1 X146.187 Y52.299 E6.27603
G1 X147.539 Y52.714 E6.42655
G1 X147.779 Y52.792 E6.45341
G1 X149.094 Y53.244 E6.60141
G1 X149.091 Y53.254 E6.60252
G1 X149.391 Y53.346 E6.63591
G1 X150.816 Y53.893 E6.79837
G1 X151.054 Y53.989 E6.82568
G1 X152.245 Y54.493 E6.96333
G1 X152.494 Y54.604 E6.99234
G1 X153.884 Y55.252 E7.15557
G1 X154.148 Y55.381 E7.18684
G1 X155.309 Y55.978 E7.32579
G1 X155.508 Y56.084 E7.34979
G1 X156.924 Y56.866 E7.52195
G1 X157.166 Y57.006 E7.55171
G1 X158.465 Y57.787 E7.71303
G1 X158.685 Y57.924 E7.74061
G1 X159.687 Y58.574 E7.86773
G1 X159.906 Y58.721 E7.8958
G1 X161.322 Y59.711 E8.07969
G1 X161.549 Y59.877 E8.10963
G1 X162.65 Y60.709 E8.2565
G1 X162.826 Y60.845 E8.28018
G1 X163.906 Y61.712 E8.42758
G1 X164.124 Y61.894 E8.45781
G1 X165.259 Y62.877 E8.61761
G1 X165.458 Y63.068 E8.64697
G1 X165.461 Y63.064 E8.6475
G1 X166.46 Y63.99 E8.79248
G1 X166.674 Y64.197 E8.82417
G1 X167.839 Y65.365 E8.99975
G1 X168.01 Y65.542 E9.02594
G1 X168.856 Y66.447 E9.1578
G1 X169.035 Y66.645 E9.18621
G1 X170.068 Y67.831 E9.3536
G1 X170.23 Y68.023 E9.38034
G1 X171.174 Y69.182 E9.53943
G1 X171.346 Y69.402 E9.56916
G1 X172.17 Y70.493 E9.71467
G1 X172.333 Y70.717 E9.74416
G1 X173.166 Y71.908 E9.89884
G1 X173.301 Y72.108 E9.92453
G1 X174.143 Y73.397 E10.08839
G1 X174.291 Y73.633 E10.11804
G1 X175.022 Y74.847 E10.26887
G1 X175.177 Y75.116 E10.30191
G1 X175.854 Y76.352 E10.4519
G1 X175.944 Y76.521 E10.47228
G1 X176.648 Y77.887 E10.63584
G1 X176.775 Y78.146 E10.66654
G1 X177.379 Y79.436 E10.81814
G1 X177.499 Y79.706 E10.84959
G1 X178.094 Y81.117 E11.01257
G1 X178.177 Y81.322 E11.03611
G1 X178.666 Y82.583 E11.18006
G1 X178.765 Y82.854 E11.21077
G1 X179.269 Y84.316 E11.37536
G1 X179.351 Y84.569 E11.40367
G1 X179.763 Y85.915 E11.55349
G1 X179.836 Y86.166 E11.58131
G1 X180.201 Y87.524 E11.73097
G1 X180.266 Y87.787 E11.75981
G1 X180.6 Y89.233 E11.91776
G1 X180.657 Y89.501 E11.94692
G1 X180.985 Y91.198 E12.13088
G1 X181.028 Y91.445 E12.15756
G1 X181.2 Y92.525 E12.27396
G1 X181.24 Y92.808 E12.30438
G1 X181.481 Y94.796 E12.51752
G1 X181.585 Y95.989 E12.64497
G1 X181.614 Y96.649 E12.71528
G1 X181.614 Y96.69 E12.71965
G1 X181.652 Y97.418 E12.79724
G1 X181.661 Y97.685 E12.82567
G1 X181.692 Y99.512 E13.02015
G1 X181.692 Y99.757 E13.04623
G1 X181.665 Y101.533 E13.23527
G1 X181.655 Y101.823 E13.26616
G1 X181.615 Y102.57 E13.34578
G1 X181.615 Y102.644 E13.35365
G1 X181.587 Y103.301 E13.42364
G1 X181.479 Y104.545 E13.55654
G1 X181.421 Y105.031 E13.60863
G1 X181.413 Y105.083 E13.61423
G1 X181.265 Y106.299 E13.74461
G1 X181.214 Y106.669 E13.78436
G1 X181.016 Y107.934 E13.92064
G1 X180.974 Y108.172 E13.94636
G1 X180.702 Y109.609 E14.10202
G1 X180.639 Y109.912 E14.13496
G1 X180.255 Y111.569 E14.31599
G1 X180.198 Y111.8 E14.34131
G1 X179.857 Y113.087 E14.48302
G1 X179.781 Y113.353 E14.51246
G1 X179.356 Y114.749 E14.66778
G1 X179.279 Y114.986 E14.6943
G1 X178.838 Y116.281 E14.8399
G1 X178.738 Y116.557 E14.87115
G1 X178.136 Y118.124 E15.04981
G1 X178.047 Y118.346 E15.07527
G1 X177.622 Y119.356 E15.19189
G1 X177.514 Y119.6 E15.22029
G1 X176.83 Y121.078 E15.39363
G1 X176.703 Y121.339 E15.42452
G1 X176.013 Y122.692 E15.58617
G1 X175.902 Y122.903 E15.61154
G1 X175.234 Y124.117 E15.75902
G1 X175.099 Y124.352 E15.78787
G1 X174.337 Y125.627 E15.94596
G1 X174.186 Y125.869 E15.97631
G1 X173.394 Y127.088 E16.13104
G1 X173.249 Y127.303 E16.15864
G1 X172.33 Y128.617 E16.3293
G1 X172.173 Y128.833 E16.35772
G1 X171.389 Y129.874 E16.49642
G1 X171.238 Y130.068 E16.52259
G1 X170.325 Y131.202 E16.67754
G1 X170.145 Y131.418 E16.70746
G1 X169.087 Y132.637 E16.87926
G1 X168.898 Y132.846 E16.90925
G1 X168.048 Y133.755 E17.0417
G1 X167.894 Y133.915 E17.06534
G1 X166.733 Y135.086 E17.24084
G1 X166.518 Y135.295 E17.27276
G1 X165.592 Y136.158 E17.40748
G1 X165.387 Y136.341 E17.43673
G1 X164.082 Y137.472 E17.62052
G1 X163.896 Y137.629 E17.64643
G1 X162.896 Y138.441 E17.78353
G1 X162.668 Y138.619 E17.81432
G1 X161.472 Y139.517 E17.9735
G1 X161.293 Y139.647 E17.99704
G1 X160.16 Y140.447 E18.14466
G1 X159.906 Y140.619 E18.17731
G1 X158.653 Y141.43 E18.33617
G1 X158.454 Y141.554 E18.36112
G1 X157.137 Y142.35 E18.52491
G1 X156.899 Y142.488 E18.55419
G1 X155.613 Y143.203 E18.71079
G1 X155.362 Y143.337 E18.74108
G1 X154.238 Y143.908 E18.87526
G1 X154.014 Y144.017 E18.90177
G1 X152.525 Y144.713 E19.07671
G1 X152.256 Y144.832 E19.10802
G1 X150.976 Y145.371 E19.25584
G1 X150.782 Y145.45 E19.27813
G1 X149.404 Y145.986 E19.4355
G1 X149.099 Y146.083 E19.46956
G1 X149.102 Y146.092 E19.47057
G1 X147.949 Y146.493 E19.6005
G1 X147.687 Y146.579 E19.62985
G1 X145.961 Y147.11 E19.82205
G1 X145.668 Y147.194 E19.85449
G1 X144.548 Y147.49 E19.97778
G1 X144.319 Y147.546 E20.00288
G1 X142.789 Y147.9 E20.17002
G1 X142.564 Y147.949 E20.19453
G1 X140.976 Y148.266 E20.36688
G1 X140.654 Y148.323 E20.40168
G1 X139.359 Y148.524 E20.54116
G1 X139.118 Y148.558 E20.56707
G1 X137.544 Y148.751 E20.73584
G1 X137.288 Y148.777 E20.76323
G1 X136.032 Y148.888 E20.89743
G1 X135.332 Y148.918 E20.972
G1 X134.623 Y148.955 E21.04757
G1 X134.349 Y148.964 E21.07674
G1 X132.487 Y148.994 E21.27495
G1 X132.243 Y148.994 E21.30092
G1 X130.381 Y148.964 E21.49912
G1 X130.107 Y148.955 E21.5283
G1 X129.397 Y148.918 E21.60397
G1 X128.721 Y148.888 E21.67599
G1 X127.377 Y148.768 E21.8196
G1 X127.04 Y148.73 E21.8557
G1 X124.55 Y148.394 E22.12311
G1 X124.013 Y148.31 E22.18096
G1 X123.725 Y148.259 E22.21209
G1 X122.369 Y147.993 E22.35917
G1 X122.117 Y147.939 E22.3866
G1 X120.416 Y147.545 E22.57243
G1 X120.165 Y147.482 E22.59997
G1 X118.903 Y147.144 E22.73903
G1 X118.653 Y147.073 E22.76669
G1 X117.223 Y146.637 E22.9258
G1 X116.975 Y146.556 E22.95357
G1 X115.63 Y146.095 E23.1049
G1 X115.318 Y145.984 E23.14014
G1 X114.042 Y145.491 E23.28573
G1 X113.816 Y145.4 E23.31166
G1 X112.504 Y144.844 E23.46332
G1 X112.248 Y144.729 E23.49319
G1 X110.795 Y144.049 E23.66394
G1 X110.587 Y143.948 E23.68855
G1 X109.258 Y143.276 E23.84705
G1 X109.002 Y143.141 E23.87785
G1 X107.743 Y142.443 E24.03107
G1 X107.474 Y142.287 E24.06416
G1 X106.384 Y141.623 E24.20001
G1 X106.215 Y141.516 E24.2213
G1 X104.899 Y140.666 E24.38804
G1 X104.677 Y140.518 E24.41643
G1 X103.47 Y139.677 E24.57301
G1 X103.233 Y139.504 E24.60424
G1 X102.025 Y138.591 E24.7654
G1 X101.82 Y138.431 E24.79308
G1 X100.682 Y137.508 E24.94903
G1 X100.474 Y137.333 E24.97796
G1 X99.497 Y136.481 E25.11593
G1 X99.298 Y136.301 E25.14449
G1 X98.154 Y135.23 E25.31128
G1 X97.984 Y135.066 E25.33642
G1 X96.945 Y134.031 E25.4925
G1 X96.755 Y133.835 E25.52156
G1 X95.763 Y132.773 E25.67623
G1 X95.577 Y132.567 E25.70577
G1 X94.65 Y131.499 E25.85629
G1 X94.468 Y131.281 E25.88651
G1 X93.526 Y130.11 E26.04646
G1 X93.378 Y129.92 E26.0721
G1 X92.513 Y128.772 E26.22508
G1 X92.354 Y128.552 E26.25397
G1 X91.428 Y127.227 E26.42602
G1 X91.267 Y126.987 E26.45678
G1 X90.555 Y125.881 E26.59678
G1 X90.411 Y125.649 E26.62584
G1 X89.685 Y124.427 E26.77712
G1 X89.583 Y124.249 E26.79896
G1 X88.782 Y122.814 E26.97387
G1 X88.638 Y122.543 E27.00653
G1 X88.037 Y121.356 E27.14814
G1 X87.915 Y121.105 E27.17784
G1 X87.263 Y119.691 E27.34357
G1 X87.162 Y119.463 E27.37011
G1 X86.636 Y118.216 E27.51415
G1 X86.548 Y117.997 E27.53927
G1 X86.06 Y116.732 E27.68358
G1 X85.967 Y116.476 E27.71257
G1 X85.449 Y114.975 E27.88157
G1 X85.362 Y114.708 E27.91146
G1 X84.971 Y113.423 E28.05442
G1 X84.901 Y113.179 E28.08143
G1 X84.511 Y111.724 E28.24176
G1 X84.439 Y111.43 E28.27397
G1 X84.141 Y110.11 E28.418
G1 X84.096 Y109.898 E28.44107
G1 X83.755 Y108.158 E28.62978
G1 X83.703 Y107.863 E28.66166
G1 X83.515 Y106.653 E28.79199
G1 X83.475 Y106.355 E28.82399
G1 X83.267 Y104.547 E29.01769
G1 X83.245 Y104.331 E29.0408
G1 X83.144 Y103.16 E29.1659
G1 X83.129 Y102.809 E29.20329
G1 X83.074 Y101.826 E29.30808
G1 X83.064 Y101.526 E29.34002
G1 X83.039 Y99.785 E29.52534
G1 X83.039 Y99.548 E29.55057
G1 X83.071 Y97.646 E29.75303
G1 X83.081 Y97.371 E29.78232
G1 X83.116 Y96.711 E29.85266
G1 X83.145 Y96.013 E29.92701
G1 X83.258 Y94.729 E30.0642
G1 X83.477 Y92.941 E30.25593
G1 X83.52 Y92.639 E30.28839
G1 X83.784 Y91.012 E30.46382
G1 X83.824 Y90.789 E30.48794
G1 X84.064 Y89.545 E30.62278
G1 X84.125 Y89.256 E30.65422
G1 X84.45 Y87.865 E30.80625
G1 X84.521 Y87.586 E30.83689
G1 X85.03 Y85.728 E31.04193
G1 X85.095 Y85.504 E31.06675
G1 X85.382 Y84.57 E31.17075
G1 X85.465 Y84.316 E31.19919
G1 X85.967 Y82.866 E31.3625
G1 X85.974 Y82.869 E31.36331
G1 X86.075 Y82.551 E31.39883
G1 X86.61 Y81.181 E31.55536
G1 X86.7 Y80.961 E31.58066
G1 X87.289 Y79.582 E31.74026
G1 X87.383 Y79.371 E31.76484
G1 X87.935 Y78.18 E31.90456
G1 X88.066 Y77.911 E31.9364
G1 X88.676 Y76.72 E32.07882
G1 X88.787 Y76.511 E32.10401
G1 X89.574 Y75.086 E32.27727
G1 X89.704 Y74.859 E32.30511
G1 X90.037 Y74.303 E32.37409
G1 X90.418 Y73.675 E32.45227
G1 X90.53 Y73.496 E32.47474
G1 X91.436 Y72.092 E32.65258
G1 X91.61 Y71.834 E32.6857
G1 X92.315 Y70.834 E32.81593
G1 X92.483 Y70.618 E32.84505
G1 X93.382 Y69.419 E33.00455
G0 F6000 X94.022 Y69.899
G1 F1200 X94.166 Y69.714 E33.0295
G1 X95.111 Y68.54 E33.18991
G1 X95.28 Y68.338 E33.21794
G1 X96.219 Y67.26 E33.37009
G1 X96.373 Y67.089 E33.39459
G1 X97.406 Y65.981 E33.55582
G1 X97.583 Y65.798 E33.58291
G1 X98.62 Y64.766 E33.73862
G1 X98.771 Y64.62 E33.76098
G1 X99.796 Y63.661 E33.91038
G1 X99.993 Y63.484 E33.93856
G1 X101.12 Y62.509 E34.09717
G1 X101.305 Y62.355 E34.12279
G1 X102.398 Y61.475 E34.27214
G1 X102.564 Y61.346 E34.29451
G1 X103.806 Y60.408 E34.46017
G1 X104.028 Y60.247 E34.48935
G1 X105.135 Y59.479 E34.63275
G1 X105.297 Y59.37 E34.65353
G1 X106.533 Y58.564 E34.81058
G1 X106.748 Y58.429 E34.8376
G1 X107.998 Y57.679 E34.99275
G1 X108.201 Y57.562 E35.01769
G1 X109.533 Y56.824 E35.17977
G1 X109.739 Y56.715 E35.20457
G1 X110.974 Y56.085 E35.35213
G1 X111.217 Y55.967 E35.38088
G1 X112.577 Y55.34 E35.54027
G1 X112.754 Y55.261 E35.5609
G1 X114.101 Y54.686 E35.71678
G1 X114.322 Y54.596 E35.74218
G1 X115.594 Y54.105 E35.8873
G1 X115.849 Y54.025 E35.91574
G1 X115.846 Y54.017 E35.91665
G1 X117.122 Y53.575 E36.06037
G1 X117.339 Y53.504 E36.08468
G1 X118.917 Y53.016 E36.26047
G1 X119.185 Y52.939 E36.29015
G1 X120.352 Y52.63 E36.41864
G1 X120.58 Y52.573 E36.44365
G1 X122.276 Y52.186 E36.6288
G1 X122.504 Y52.138 E36.6536
G1 X123.767 Y51.895 E36.79049
G1 X123.937 Y51.865 E36.80886
G1 X125.495 Y51.606 E36.97696
G1 X125.827 Y51.559 E37.01265
G1 X127.38 Y51.379 E37.17904
G1 X128.769 Y51.25 E37.32751
G1 X129.421 Y51.221 E37.39698
G1 X130.149 Y51.183 E37.47457
G1 X130.394 Y51.175 E37.50066
G1 X132.257 Y51.145 E37.69896
G1 X132.476 Y51.145 E37.72227
G1 X134.338 Y51.175 E37.92048
G1 X134.582 Y51.183 E37.94646
G1 X135.483 Y51.231 E38.04249
G1 X135.816 Y51.245 E38.07796
G1 X137.32 Y51.371 E38.2386
G1 X137.594 Y51.399 E38.26791
G1 X139.013 Y51.576 E38.42011
G1 X139.254 Y51.611 E38.44603
G1 X140.667 Y51.839 E38.59837
G1 X140.842 Y51.869 E38.61726
G1 X142.398 Y52.162 E38.78578
G1 X142.682 Y52.222 E38.81668
G1 X143.846 Y52.493 E38.94388
G1 X144.083 Y52.553 E38.9699
G1 X145.736 Y53.001 E39.15218
G1 X145.952 Y53.063 E39.17609
G1 X147.304 Y53.478 E39.32662
G1 X147.519 Y53.548 E39.35068
G1 X148.834 Y54 E39.49868
G1 X148.831 Y54.009 E39.49969
G1 X149.104 Y54.093 E39.53009
G1 X150.529 Y54.64 E39.69255
G1 X150.742 Y54.726 E39.71699
G1 X151.933 Y55.23 E39.85464
G1 X152.156 Y55.329 E39.88061
G1 X153.546 Y55.977 E40.04383
G1 X153.783 Y56.093 E40.07192
G1 X154.944 Y56.69 E40.21086
G1 X155.121 Y56.784 E40.23219
G1 X156.537 Y57.566 E40.40436
G1 X156.754 Y57.691 E40.43101
G1 X158.053 Y58.472 E40.59233
G1 X158.25 Y58.595 E40.61705
G1 X159.252 Y59.245 E40.74417
G1 X159.447 Y59.377 E40.76923
G1 X160.863 Y60.367 E40.95312
G1 X161.067 Y60.515 E40.97995
G1 X162.168 Y61.347 E41.12682
G1 X162.325 Y61.469 E41.14799
G1 X163.405 Y62.336 E41.29539
G1 X163.6 Y62.499 E41.32244
G1 X164.735 Y63.482 E41.48225
G1 X165.916 Y64.577 E41.65366
G1 X166.108 Y64.762 E41.68204
G1 X167.273 Y65.93 E41.85762
G1 X167.426 Y66.088 E41.88103
G1 X168.272 Y66.993 E42.01288
G1 X168.432 Y67.171 E42.03835
G1 X169.465 Y68.357 E42.20575
G1 X169.609 Y68.529 E42.22962
G1 X170.553 Y69.688 E42.38872
G1 X170.707 Y69.884 E42.41525
G1 X171.531 Y70.975 E42.56076
G1 X171.677 Y71.176 E42.5872
G1 X172.51 Y72.367 E42.74189
G1 X172.631 Y72.545 E42.7648
G1 X173.473 Y73.834 E42.92867
G1 X173.605 Y74.045 E42.95516
G1 X174.336 Y75.259 E43.10598
G1 X174.475 Y75.5 E43.13559
G1 X175.152 Y76.736 E43.28559
G1 X175.936 Y78.254 E43.46743
G1 X176.05 Y78.486 E43.49494
G1 X176.654 Y79.776 E43.64654
G1 X176.762 Y80.017 E43.67465
G1 X177.357 Y81.428 E43.83763
G1 X177.431 Y81.611 E43.85864
G1 X177.92 Y82.872 E44.00259
G1 X178.009 Y83.115 E44.03013
G1 X178.513 Y84.577 E44.19472
G1 X178.586 Y84.803 E44.22
G1 X178.998 Y86.149 E44.36982
G1 X179.063 Y86.374 E44.39475
G1 X179.428 Y87.732 E44.54441
G1 X179.487 Y87.967 E44.5702
G1 X179.821 Y89.413 E44.72815
G1 X179.871 Y89.653 E44.75424
G1 X180.199 Y91.35 E44.9382
G1 X180.238 Y91.571 E44.96209
G1 X180.41 Y92.651 E45.07848
G1 X180.446 Y92.904 E45.10568
G1 X180.684 Y94.865 E45.31593
G1 X180.788 Y96.058 E45.44338
G1 X180.814 Y96.649 E45.50635
G1 X180.814 Y96.712 E45.51305
G1 X180.853 Y97.459 E45.59266
G1 X180.861 Y97.699 E45.61822
G1 X180.892 Y99.526 E45.8127
G1 X180.892 Y99.744 E45.8359
