;FLAVOR:Marlin
;TIME:7069
;Filament used: 15.0554m
;Layer height: 0.32
;MINX:57.641
;MINY:54.997
;MINZ:0.32
;MAXX:158.46
;MAXY:157.359
;MAXZ:29.12
;Generated with Cura_SteamEngine 4.12.1
M140 S60
M105
M190 S60
M104 S200
M105
M109 S200
M82 ;absolute extrusion mode
; Ender 3 Custom Start G-code
G92 E0 ; Reset Extruder
G28 ; Home all axes
G29 ; bed level adjust
G1 Z2.0 F3000 ; Move Z Axis up little to prevent scratching of Heat Bed
G1 X0.1 Y20 Z0.3 F5000.0 ; Move to start position
G1 X0.1 Y200.0 Z0.3 F1500.0 E15 ; Draw the first line
G1 X0.4 Y200.0 Z0.3 F5000.0 ; Move to side a little
G1 X0.4 Y20 Z0.3 F1500.0 E30 ; Draw the second line
G92 E0 ; Reset Extruder
G1 Z2.0 F3000 ; Move Z Axis up little to prevent scratching of Heat Bed
G1 X5 Y20 Z0.3 F5000.0 ; Move over to prevent blob squish
G92 E0
G92 E0
G1 F1500 E-6.5
;LAYER_COUNT:91
;LAYER:0
M107
G0 F6000 X71.974 Y70.196 Z0.32
;TYPE:SKIRT
G1 F1500 E0
G1 F1200 X72.251 Y69.918 E0.04177
G1 X72.474 Y69.7 E0.07496
G1 X73.063 Y69.115 E0.16331
G1 X73.417 Y68.778 E0.21533
G1 X74.344 Y67.921 E0.3497
G1 X74.532 Y67.753 E0.37653
G1 X74.82 Y67.503 E0.41713
G1 X75.056 Y67.303 E0.45005
G1 X75.672 Y66.77 E0.53675
G1 X75.85 Y66.621 E0.56145
G1 X76.158 Y66.371 E0.60367
G1 X76.372 Y66.202 E0.6327
G1 X77.029 Y65.671 E0.72261
G1 X77.256 Y65.495 E0.75318
G1 X78.452 Y64.601 E0.9121
G1 X78.614 Y64.483 E0.93343
G1 X78.963 Y64.238 E0.97882
G1 X79.152 Y64.109 E1.00317
G1 X79.883 Y63.6 E1.09798
G1 X80.064 Y63.478 E1.12121
G1 X80.406 Y63.255 E1.16466
G1 X80.632 Y63.112 E1.19313
G1 X81.354 Y62.645 E1.28465
G1 X81.556 Y62.519 E1.30999
G1 X81.893 Y62.317 E1.3518
G1 X82.096 Y62.198 E1.37685
G1 X82.862 Y61.74 E1.47184
G1 X83.078 Y61.616 E1.49834
G1 X83.403 Y61.436 E1.53789
G1 X83.619 Y61.319 E1.56403
G1 X84.399 Y60.889 E1.65883
G1 X84.608 Y60.778 E1.68401
G1 X84.953 Y60.602 E1.72524
G1 X85.225 Y60.467 E1.75756
G1 X85.965 Y60.092 E1.84585
G1 X86.187 Y59.984 E1.87213
G1 X86.536 Y59.822 E1.91308
G1 X86.812 Y59.697 E1.94533
G1 X87.549 Y59.354 E2.03185
G1 X87.77 Y59.255 E2.05762
G1 X88.133 Y59.1 E2.09963
G1 X88.379 Y58.999 E2.12793
G1 X89.174 Y58.663 E2.21979
G1 X89.395 Y58.574 E2.24515
G1 X89.758 Y58.435 E2.28652
G1 X90.818 Y58.033 E2.40718
G1 X91.022 Y57.959 E2.43028
G1 X91.42 Y57.821 E2.47511
G1 X91.674 Y57.737 E2.50358
G1 X92.474 Y57.463 E2.59359
G1 X92.721 Y57.383 E2.62122
G1 X93.967 Y57.004 E2.75983
G1 X94.35 Y56.894 E2.80224
G1 X94.703 Y56.797 E2.84121
G1 X95.668 Y56.541 E2.94747
G1 X96.048 Y56.447 E2.98913
G1 X96.396 Y56.364 E3.02721
G1 X97.386 Y56.137 E3.13531
G1 X97.761 Y56.058 E3.1761
G1 X98.116 Y55.986 E3.21465
G1 X99.109 Y55.795 E3.32228
G1 X99.502 Y55.726 E3.36474
G1 X100.732 Y55.532 E3.49727
G1 X101.231 Y55.46 E3.55093
G1 X101.583 Y55.415 E3.5887
G1 X102.567 Y55.296 E3.6942
G1 X103.017 Y55.248 E3.74236
G1 X104.333 Y55.133 E3.88296
G1 X104.724 Y55.106 E3.92468
G1 X105.084 Y55.085 E3.96306
G1 X106.081 Y55.034 E4.06931
G1 X106.486 Y55.02 E4.11244
G1 X106.848 Y55.012 E4.15098
G1 X107.833 Y54.997 E4.25583
G1 X108.278 Y54.997 E4.30319
G1 X109.585 Y55.02 E4.44232
G1 X110.035 Y55.035 E4.49024
G1 X111.365 Y55.105 E4.63199
G1 X111.743 Y55.132 E4.67232
G1 X112.115 Y55.162 E4.71204
G1 X113.091 Y55.249 E4.81633
G1 X113.495 Y55.291 E4.85956
G1 X113.866 Y55.334 E4.89932
G1 X114.835 Y55.455 E5.00325
G1 X115.242 Y55.511 E5.04698
G1 X115.61 Y55.568 E5.08661
G1 X116.585 Y55.724 E5.1917
G1 X116.969 Y55.792 E5.23321
G1 X117.34 Y55.861 E5.27337
G1 X118.322 Y56.054 E5.37989
G1 X118.696 Y56.134 E5.42059
G1 X119.049 Y56.213 E5.45909
G1 X120.042 Y56.443 E5.56758
G1 X120.411 Y56.535 E5.60805
G1 X120.767 Y56.628 E5.64722
G1 X121.736 Y56.889 E5.75402
G1 X122.093 Y56.992 E5.79357
G1 X122.463 Y57.102 E5.83465
G1 X123.416 Y57.395 E5.94077
G1 X123.765 Y57.508 E5.97981
G1 X124.142 Y57.635 E6.02215
G1 X125.078 Y57.959 E6.12757
G1 X125.43 Y58.087 E6.16744
G1 X125.791 Y58.223 E6.2085
G1 X126.722 Y58.581 E6.31466
G1 X127.082 Y58.726 E6.35597
G1 X128.246 Y59.219 E6.49051
G1 X128.598 Y59.373 E6.5314
G1 X129.038 Y59.574 E6.58288
G1 X129.845 Y59.951 E6.67769
G1 X130.627 Y60.336 E6.77046
G1 X131.489 Y60.778 E6.87356
G1 X131.842 Y60.963 E6.91598
G1 X132.184 Y61.15 E6.95746
G1 X133.024 Y61.617 E7.05975
G1 X133.386 Y61.824 E7.10414
G1 X133.719 Y62.022 E7.14537
G1 X134.559 Y62.529 E7.2498
G1 X134.875 Y62.726 E7.28943
G1 X135.208 Y62.939 E7.3315
G1 X136.038 Y63.48 E7.43695
G1 X136.342 Y63.684 E7.47591
G1 X136.682 Y63.918 E7.51984
G1 X137.473 Y64.475 E7.62281
G1 X137.784 Y64.699 E7.6636
G1 X138.103 Y64.936 E7.7059
G1 X138.873 Y65.518 E7.80863
G1 X139.2 Y65.771 E7.85263
G1 X139.493 Y66.006 E7.89261
G1 X140.234 Y66.608 E7.99422
G1 X140.594 Y66.907 E8.04403
G1 X141.575 Y67.76 E8.18239
G1 X141.885 Y68.037 E8.22664
G1 X142.164 Y68.295 E8.26708
G1 X142.875 Y68.959 E8.37062
G1 X143.196 Y69.268 E8.41804
G1 X144.118 Y70.189 E8.55675
G1 X144.388 Y70.467 E8.59799
G1 X144.672 Y70.767 E8.64196
G1 X145.321 Y71.465 E8.7434
G1 X145.592 Y71.762 E8.78619
G1 X145.858 Y72.064 E8.82903
G1 X146.49 Y72.795 E8.93188
G1 X146.749 Y73.101 E8.97454
G1 X146.995 Y73.401 E9.01584
G1 X147.588 Y74.135 E9.11627
G1 X147.852 Y74.469 E9.16158
G1 X148.089 Y74.781 E9.20328
G1 X148.818 Y75.754 E9.33268
G1 X149.131 Y76.193 E9.39006
G1 X149.682 Y76.982 E9.49249
G1 X149.907 Y77.314 E9.53518
G1 X150.125 Y77.644 E9.57727
G1 X150.65 Y78.455 E9.68009
G1 X150.852 Y78.775 E9.72037
G1 X151.068 Y79.129 E9.76451
G1 X151.573 Y79.972 E9.8691
G1 X151.758 Y80.29 E9.90825
G1 X151.951 Y80.632 E9.95005
G1 X152.442 Y81.519 E10.05795
G1 X152.601 Y81.818 E10.094
G1 X152.792 Y82.184 E10.13794
G1 X153.245 Y83.074 E10.24423
G1 X153.421 Y83.436 E10.28707
G1 X153.999 Y84.671 E10.43219
G1 X154.156 Y85.024 E10.47331
G1 X154.641 Y86.157 E10.60449
G1 X154.841 Y86.648 E10.66091
G1 X155.33 Y87.917 E10.80566
G1 X155.467 Y88.292 E10.84815
G1 X155.909 Y89.57 E10.99207
G1 X156.02 Y89.91 E11.03014
G1 X156.139 Y90.289 E11.07242
G1 X156.401 Y91.142 E11.16739
G1 X156.453 Y91.319 E11.18703
G1 X156.639 Y91.983 E11.26042
G1 X156.897 Y92.948 E11.36673
G1 X156.984 Y93.296 E11.40491
G1 X157.078 Y93.688 E11.44782
G1 X157.31 Y94.7 E11.55832
G1 X157.457 Y95.405 E11.63497
G1 X157.647 Y96.388 E11.74153
G1 X157.706 Y96.723 E11.77773
G1 X157.772 Y97.119 E11.82046
G1 X157.933 Y98.13 E11.92942
G1 X157.981 Y98.468 E11.96576
G1 X158.032 Y98.858 E12.00762
G1 X158.157 Y99.871 E12.11625
G1 X158.193 Y100.213 E12.15285
G1 X158.231 Y100.616 E12.19593
G1 X158.319 Y101.63 E12.30426
G1 X158.342 Y101.963 E12.33979
G1 X158.366 Y102.36 E12.38212
G1 X158.419 Y103.358 E12.48849
G1 X158.433 Y103.758 E12.53109
G1 X158.46 Y105.122 E12.67629
G1 X158.46 Y105.512 E12.7178
G1 X158.439 Y106.887 E12.86416
G1 X158.426 Y107.267 E12.90463
G1 X158.365 Y108.508 E13.03687
G1 X158.333 Y108.987 E13.08797
G1 X158.301 Y109.392 E13.13121
G1 X158.213 Y110.393 E13.23815
G1 X158.178 Y110.732 E13.27443
G1 X158.132 Y111.135 E13.3176
G1 X158.008 Y112.147 E13.42611
G1 X157.961 Y112.487 E13.46264
G1 X157.901 Y112.882 E13.50517
G1 X157.743 Y113.882 E13.61292
G1 X157.685 Y114.212 E13.64858
G1 X157.61 Y114.614 E13.69211
G1 X157.419 Y115.6 E13.799
G1 X157.354 Y115.912 E13.83292
G1 X157.259 Y116.344 E13.88
G1 X157.035 Y117.313 E13.98585
G1 X156.941 Y117.691 E14.02731
G1 X156.584 Y119.034 E14.17521
G1 X156.493 Y119.351 E14.21031
G1 X156.119 Y120.589 E14.34795
G1 X156.008 Y120.939 E14.38703
G1 X155.565 Y122.244 E14.53371
G1 X155.44 Y122.595 E14.57337
G1 X155.26 Y123.077 E14.62813
G1 X154.896 Y124.025 E14.73621
G1 X154.775 Y124.326 E14.77074
G1 X154.618 Y124.705 E14.8144
G1 X154.271 Y125.527 E14.90936
G1 X154.195 Y125.7 E14.92947
G1 X153.915 Y126.319 E15.00178
G1 X153.495 Y127.223 E15.10788
G1 X153.349 Y127.524 E15.14348
G1 X153.155 Y127.915 E15.18994
G1 X152.751 Y128.709 E15.28475
G1 X152.389 Y129.386 E15.36646
G1 X151.865 Y130.335 E15.48184
G1 X151.669 Y130.674 E15.52352
G1 X150.969 Y131.845 E15.66872
G1 X150.785 Y132.142 E15.70591
G1 X150.561 Y132.494 E15.75031
G1 X150.044 Y133.291 E15.85142
G1 X149.826 Y133.62 E15.89343
G1 X149.592 Y133.96 E15.93736
G1 X149.014 Y134.787 E16.04475
G1 X148.829 Y135.042 E16.07828
G1 X148.562 Y135.404 E16.12615
G1 X147.986 Y136.167 E16.2279
G1 X147.764 Y136.455 E16.2666
G1 X147.489 Y136.8 E16.31356
G1 X146.781 Y137.673 E16.43319
G1 X146.627 Y137.857 E16.45873
G1 X145.745 Y138.876 E16.60217
G1 X145.496 Y139.156 E16.64205
G1 X145.212 Y139.464 E16.68664
G1 X144.563 Y140.161 E16.788
G1 X144.276 Y140.461 E16.83219
G1 X143.318 Y141.424 E16.97676
G1 X143.059 Y141.677 E17.0153
G1 X142.741 Y141.979 E17.06197
G1 X141.922 Y142.742 E17.18111
G1 X141.739 Y142.907 E17.20733
G1 X140.713 Y143.801 E17.35217
G1 X140.456 Y144.018 E17.38797
G1 X140.117 Y144.298 E17.43477
G1 X139.359 Y144.913 E17.53866
G1 X139.098 Y145.12 E17.57411
G1 X138.74 Y145.395 E17.62216
G1 X138.455 Y145.611 E17.66022
G1 X138.267 Y146.193 E17.72532
G1 X137.954 Y146.907 E17.80829
G1 X137.599 Y147.539 E17.88544
G1 X137.488 Y147.716 E17.90768
G1 X137.04 Y148.354 E17.99065
G1 X136.53 Y148.943 E18.07357
G1 X136.007 Y149.438 E18.15022
G1 X135.813 Y149.605 E18.17746
G1 X135.197 Y150.082 E18.26038
G1 X134.535 Y150.494 E18.34337
G1 X134.043 Y150.744 E18.40211
G1 X133.898 Y150.811 E18.41911
G1 X133.163 Y151.105 E18.50336
G1 X116.043 Y156.944 E20.42855
G1 X115.294 Y157.158 E20.51146
G1 X114.526 Y157.293 E20.59445
G1 X114.015 Y157.339 E20.64906
G1 X113.729 Y157.355 E20.67954
G1 X112.949 Y157.359 E20.76256
G1 X112.173 Y157.282 E20.84556
G1 X111.132 Y157.05 E20.95907
G1 X110.904 Y156.982 E20.9844
G1 X110.169 Y156.721 E21.06741
G1 X109.465 Y156.387 E21.15034
G1 X108.844 Y156.012 E21.22755
G1 X108.55 Y155.806 E21.26576
G1 X107.837 Y155.815 E21.34165
G1 X107.383 Y155.811 E21.38998
G1 X106.955 Y155.798 E21.43555
G1 X106.072 Y155.777 E21.52956
G1 X105.621 Y155.756 E21.57761
G1 X104.32 Y155.677 E21.71633
G1 X103.869 Y155.641 E21.76449
G1 X103.46 Y155.6 E21.80824
G1 X102.571 Y155.517 E21.90327
G1 X102.12 Y155.465 E21.95159
G1 X101.71 Y155.409 E21.99563
G1 X100.826 Y155.295 E22.09049
G1 X100.381 Y155.227 E22.13841
G1 X99.913 Y155.147 E22.18894
G1 X99.099 Y155.014 E22.27672
G1 X98.641 Y154.929 E22.3263
G1 X98.249 Y154.848 E22.3689
G1 X97.373 Y154.673 E22.46398
G1 X97.073 Y154.606 E22.4967
G1 X96.535 Y154.476 E22.55561
G1 X95.666 Y154.271 E22.65063
G1 X95.387 Y154.2 E22.68128
G1 X93.95 Y153.803 E22.83995
G1 X93.474 Y153.66 E22.89285
G1 X92.273 Y153.283 E23.02682
G1 X92.027 Y153.201 E23.05442
G1 X90.62 Y152.706 E23.21317
G1 X90.372 Y152.614 E23.24132
G1 X88.982 Y152.07 E23.40019
G1 X88.733 Y151.968 E23.42883
G1 X87.363 Y151.375 E23.58771
G1 X87.125 Y151.267 E23.61553
G1 X85.778 Y150.628 E23.77421
G1 X85.373 Y150.425 E23.82243
G1 X84.226 Y149.831 E23.9599
G1 X83.983 Y149.7 E23.98928
G1 X82.682 Y148.968 E24.14817
G1 X82.451 Y148.832 E24.1767
G1 X81.179 Y148.056 E24.33528
G1 X80.813 Y147.823 E24.38146
G1 X80.41 Y147.554 E24.43303
G1 X79.717 Y147.099 E24.52127
G1 X79.345 Y146.844 E24.56927
G1 X78.944 Y146.555 E24.62188
G1 X78.287 Y146.091 E24.70748
G1 X77.894 Y145.799 E24.75959
G1 X77.582 Y145.558 E24.80155
G1 X76.874 Y145.017 E24.89639
G1 X76.531 Y144.744 E24.94305
G1 X76.218 Y144.485 E24.98629
G1 X75.527 Y143.921 E25.08122
G1 X75.176 Y143.621 E25.13036
G1 X74.865 Y143.344 E25.17469
G1 X74.195 Y142.755 E25.26963
G1 X73.878 Y142.466 E25.31529
G1 X72.913 Y141.552 E25.45675
G1 X72.564 Y141.207 E25.50899
G1 X72.307 Y140.943 E25.5482
G1 X71.679 Y140.309 E25.64318
G1 X71.355 Y139.967 E25.69332
G1 X71.1 Y139.685 E25.73378
G1 X70.493 Y139.03 E25.82883
G1 X70.323 Y138.84 E25.85596
G1 X70.097 Y138.578 E25.89279
G1 X69.922 Y138.371 E25.92164
G1 X69.34 Y137.696 E26.0165
G1 X69.031 Y137.32 E26.0683
G1 X68.756 Y136.972 E26.1155
G1 X68.238 Y136.327 E26.20355
G1 X68.083 Y136.128 E26.2304
G1 X67.886 Y135.865 E26.26537
G1 X67.679 Y135.583 E26.3026
G1 X67.068 Y134.76 E26.4117
G1 X66.841 Y134.437 E26.45372
G1 X66.644 Y134.147 E26.49103
G1 X66.176 Y133.472 E26.57845
G1 X66.044 Y133.274 E26.60378
G1 X65.858 Y132.986 E26.64027
G1 X65.711 Y132.753 E26.66959
G1 X65.228 Y132.003 E26.76453
G1 X65.08 Y131.763 E26.79454
G1 X64.319 Y130.479 E26.9534
G1 X64.216 Y130.3 E26.97538
G1 X64.04 Y129.982 E27.01407
G1 X63.91 Y129.74 E27.0433
G1 X63.48 Y128.958 E27.13829
G1 X63.337 Y128.685 E27.17109
G1 X63.069 Y128.147 E27.23506
G1 X62.686 Y127.388 E27.32554
G1 X62.579 Y127.168 E27.35158
G1 X62.438 Y126.864 E27.38725
G1 X62.296 Y126.55 E27.42393
G1 X61.943 Y125.783 E27.51379
G1 X61.76 Y125.361 E27.56275
G1 X61.263 Y124.169 E27.7002
G1 X61.173 Y123.942 E27.72619
G1 X61.055 Y123.633 E27.76139
G1 X60.936 Y123.312 E27.79783
G1 X60.64 Y122.532 E27.88662
G1 X60.559 Y122.309 E27.91188
G1 X60.449 Y121.988 E27.94799
G1 X60.341 Y121.663 E27.98444
G1 X60.069 Y120.861 E28.07458
G1 X60.003 Y120.657 E28.0974
G1 X59.899 Y120.316 E28.13534
G1 X59.803 Y119.989 E28.17161
G1 X59.56 Y119.181 E28.26141
G1 X59.498 Y118.966 E28.28523
G1 X59.402 Y118.604 E28.32509
G1 X59.319 Y118.276 E28.3611
G1 X59.112 Y117.493 E28.4473
G1 X59.055 Y117.263 E28.47252
G1 X58.974 Y116.91 E28.51107
G1 X58.676 Y115.569 E28.65727
G1 X58.605 Y115.206 E28.69664
G1 X58.544 Y114.873 E28.73267
G1 X58.387 Y114.046 E28.82227
G1 X58.309 Y113.575 E28.87308
G1 X58.087 Y112.099 E29.03194
G1 X58.041 Y111.727 E29.07183
G1 X58.004 Y111.393 E29.1076
G1 X57.906 Y110.566 E29.19623
G1 X57.882 Y110.333 E29.22116
G1 X57.851 Y109.972 E29.25973
G1 X57.831 Y109.703 E29.28844
G1 X57.757 Y108.815 E29.38328
G1 X57.743 Y108.612 E29.40493
G1 X57.722 Y108.214 E29.44735
G1 X57.712 Y107.96 E29.47441
G1 X57.668 Y107.072 E29.56904
G1 X57.66 Y106.793 E29.59874
G1 X57.641 Y105.298 E29.75787
G1 X57.641 Y105.058 E29.78342
G1 X57.648 Y104.707 E29.82078
G1 X57.658 Y104.374 E29.85624
G1 X57.676 Y103.549 E29.94407
G1 X57.683 Y103.344 E29.9659
G1 X57.704 Y102.936 E30.00938
G1 X57.726 Y102.606 E30.04458
G1 X57.771 Y101.795 E30.13103
G1 X57.787 Y101.565 E30.15557
G1 X57.82 Y101.198 E30.19479
G1 X57.846 Y100.934 E30.22302
G1 X57.927 Y100.045 E30.31803
G1 X57.953 Y99.806 E30.34362
G1 X57.997 Y99.454 E30.38137
G1 X58.041 Y99.127 E30.41649
G1 X58.143 Y98.309 E30.50423
G1 X58.176 Y98.073 E30.52959
G1 X58.237 Y97.693 E30.57055
G1 X58.282 Y97.432 E30.59874
G1 X58.423 Y96.564 E30.69234
G1 X58.46 Y96.356 E30.71482
G1 X58.536 Y95.962 E30.75753
G1 X58.594 Y95.683 E30.78786
G1 X58.757 Y94.854 E30.87778
G1 X58.818 Y94.573 E30.90838
G1 X59.16 Y93.123 E31.06695
G1 X59.216 Y92.901 E31.09131
G1 X59.312 Y92.546 E31.13045
G1 X59.381 Y92.299 E31.15775
G1 X59.615 Y91.437 E31.25281
G1 X59.679 Y91.216 E31.2773
G1 X59.783 Y90.874 E31.31535
G1 X59.882 Y90.564 E31.34998
G1 X60.132 Y89.755 E31.44011
G1 X60.217 Y89.495 E31.46922
G1 X60.709 Y88.087 E31.62796
G1 X60.788 Y87.871 E31.65244
G1 X60.915 Y87.542 E31.68997
G1 X61.034 Y87.241 E31.72442
G1 X61.336 Y86.46 E31.81355
G1 X61.422 Y86.249 E31.8378
G1 X61.577 Y85.882 E31.8802
G1 X61.707 Y85.587 E31.91451
G1 X62.029 Y84.836 E32.00148
G1 X62.121 Y84.631 E32.02539
G1 X62.282 Y84.285 E32.06601
G1 X62.421 Y83.996 E32.10014
G1 X62.773 Y83.248 E32.18813
G1 X62.869 Y83.051 E32.21145
G1 X63.051 Y82.692 E32.25429
G1 X63.179 Y82.449 E32.28352
G1 X63.566 Y81.693 E32.37392
G1 X63.698 Y81.446 E32.40372
G1 X64.427 Y80.143 E32.56263
G1 X64.673 Y79.726 E32.61416
G1 X64.919 Y79.327 E32.66405
G1 X65.333 Y78.643 E32.74915
G1 X65.441 Y78.469 E32.77094
G1 X65.663 Y78.125 E32.81452
G1 X65.839 Y77.861 E32.84829
G1 X66.288 Y77.173 E32.93573
G1 X66.407 Y76.997 E32.95834
G1 X66.647 Y76.654 E33.0029
G1 X66.833 Y76.396 E33.03675
G1 X67.301 Y75.732 E33.12321
G1 X67.459 Y75.515 E33.15178
G1 X68.361 Y74.327 E33.31054
G1 X68.498 Y74.153 E33.33411
G1 X68.747 Y73.845 E33.37626
G1 X68.948 Y73.603 E33.40974
G1 X69.462 Y72.971 E33.49645
G1 X69.611 Y72.793 E33.52115
G1 X69.865 Y72.5 E33.56242
G1 X70.074 Y72.265 E33.5959
G1 X70.624 Y71.638 E33.68466
G1 X70.76 Y71.487 E33.70629
G1 X71.042 Y71.183 E33.75043
G1 X71.22 Y70.997 E33.77783
G1 X71.811 Y70.365 E33.86992
G1 X71.974 Y70.196 E33.89491
G0 F6000 X72.541 Y70.761
G1 F1200 X72.81 Y70.49 E33.93555
G1 X73.033 Y70.272 E33.96874
G1 X73.627 Y69.682 E34.05785
G1 X73.754 Y69.559 E34.07667
G1 X74.058 Y69.274 E34.12102
G1 X74.288 Y69.065 E34.15409
G1 X74.888 Y68.508 E34.24123
G1 X75.056 Y68.357 E34.26527
