;FLAVOR:Marlin
;TIME:1648
;Filament used: 3.72298m
;Layer height: 0.32
;MINX:69.709
;MINY:69.709
;MINZ:0.32
;MAXX:150.291
;MAXY:150.291
;MAXZ:2.56
;Generated with Cura_SteamEngine 4.12.1
M140 S60
M105
M190 S60
M104 S200
M105
M109 S200
M82 ;absolute extrusion mode
; Ender 3 Custom Start G-code
G92 E0 ; Reset Extruder
G28 ; Home all axes
G29 ; bed level adjust
G1 Z2.0 F3000 ; Move Z Axis up little to prevent scratching of Heat Bed
G1 X0.1 Y20 Z0.3 F5000.0 ; Move to start position
G1 X0.1 Y200.0 Z0.3 F1500.0 E15 ; Draw the first line
G1 X0.4 Y200.0 Z0.3 F5000.0 ; Move to side a little
G1 X0.4 Y20 Z0.3 F1500.0 E30 ; Draw the second line
G92 E0 ; Reset Extruder
G1 Z2.0 F3000 ; Move Z Axis up little to prevent scratching of Heat Bed
G1 X5 Y20 Z0.3 F5000.0 ; Move over to prevent blob squish
G92 E0
G92 E0
G1 F1500 E-6.5
;LAYER_COUNT:8
;LAYER:0
M107
G0 F6000 X81.601 Y81.412 Z0.32
;TYPE:SKIRT
G1 F1500 E0
G1 F1200 X82.441 Y80.604 E0.12405
G1 X82.623 Y80.435 E0.15048
G1 X83.471 Y79.671 E0.27197
G1 X83.669 Y79.498 E0.29995
G1 X84.533 Y78.772 E0.42006
G1 X84.748 Y78.598 E0.4495
G1 X85.657 Y77.889 E0.5722
G1 X85.862 Y77.735 E0.59949
G1 X86.774 Y77.072 E0.71949
G1 X86.997 Y76.916 E0.74846
G1 X87.956 Y76.27 E0.87152
G1 X88.171 Y76.13 E0.89883
G1 X89.138 Y75.525 E1.02023
G1 X89.366 Y75.388 E1.04854
G1 X90.354 Y74.817 E1.17
G1 X90.595 Y74.683 E1.19935
G1 X91.592 Y74.154 E1.31947
G1 X91.824 Y74.036 E1.34717
G1 X92.862 Y73.53 E1.47008
G1 X93.107 Y73.416 E1.49884
G1 X94.136 Y72.959 E1.61867
G1 X94.373 Y72.859 E1.64605
G1 X95.437 Y72.429 E1.76819
G1 X95.686 Y72.333 E1.7966
G1 X96.752 Y71.945 E1.91733
G1 X97.007 Y71.857 E1.94605
G1 X98.099 Y71.503 E2.06822
G1 X98.102 Y71.514 E2.06944
G1 X98.367 Y71.42 E2.09936
G1 X99.45 Y71.111 E2.21923
G1 X99.698 Y71.044 E2.24657
G1 X100.818 Y70.765 E2.36942
G1 X101.08 Y70.705 E2.39803
G1 X102.189 Y70.47 E2.51868
G1 X102.441 Y70.421 E2.546
G1 X103.567 Y70.222 E2.6677
G1 X103.836 Y70.179 E2.6967
G1 X104.957 Y70.022 E2.81717
G1 X105.216 Y69.991 E2.84494
G1 X106.366 Y69.87 E2.96801
G1 X106.629 Y69.847 E2.99611
G1 X107.754 Y69.768 E3.11614
G1 X108.021 Y69.754 E3.1446
G1 X109.167 Y69.714 E3.26664
G1 X109.432 Y69.709 E3.29485
G1 X110.567 Y69.709 E3.41565
G1 X110.836 Y69.714 E3.44429
G1 X111.992 Y69.755 E3.5674
G1 X112.256 Y69.769 E3.59554
G1 X113.38 Y69.848 E3.71546
G1 X113.636 Y69.87 E3.74281
G1 X114.785 Y69.99 E3.86577
G1 X115.055 Y70.023 E3.89472
G1 X116.164 Y70.179 E4.01391
G1 X116.435 Y70.222 E4.04312
G1 X117.51 Y70.413 E4.15932
G1 X117.833 Y70.473 E4.19429
G1 X118.934 Y70.707 E4.31409
G1 X119.214 Y70.772 E4.34468
G1 X120.264 Y71.037 E4.45994
G1 X120.595 Y71.121 E4.49629
G1 X121.665 Y71.43 E4.61482
G1 X121.913 Y71.507 E4.64246
G1 X122.943 Y71.843 E4.75777
G1 X123.25 Y71.945 E4.7922
G1 X124.327 Y72.338 E4.91422
G1 X124.57 Y72.432 E4.94195
G1 X125.634 Y72.862 E5.0641
G1 X125.896 Y72.974 E5.09442
G1 X126.868 Y73.41 E5.20781
G1 X127.175 Y73.548 E5.24363
G1 X128.132 Y74.019 E5.35715
G1 X128.423 Y74.165 E5.39181
G1 X129.374 Y74.672 E5.50651
G1 X129.661 Y74.826 E5.54117
G1 X130.64 Y75.392 E5.66153
G1 X130.872 Y75.532 E5.69037
G1 X131.775 Y76.099 E5.80386
G1 X132.079 Y76.292 E5.84218
G1 X133.25 Y77.088 E5.99288
G1 X134.152 Y77.746 E6.11171
G1 X134.356 Y77.9 E6.13892
G1 X135.215 Y78.572 E6.255
G1 X135.468 Y78.773 E6.28939
G1 X136.326 Y79.493 E6.4086
G1 X136.518 Y79.672 E6.43654
G1 X136.523 Y79.667 E6.43729
G1 X137.367 Y80.425 E6.55803
G1 X137.551 Y80.608 E6.58565
G1 X137.556 Y80.602 E6.58648
G1 X138.372 Y81.385 E6.70684
G1 X138.578 Y81.604 E6.73884
G1 X138.583 Y81.599 E6.7396
G1 X139.387 Y82.432 E6.86282
G1 X139.565 Y82.623 E6.8906
G1 X140.329 Y83.471 E7.01209
G1 X140.502 Y83.669 E7.04007
G1 X141.227 Y84.532 E7.16003
G1 X141.4 Y84.746 E7.18932
G1 X142.11 Y85.656 E7.31217
G1 X142.265 Y85.862 E7.3396
G1 X142.928 Y86.774 E7.45961
G1 X143.083 Y86.995 E7.48834
G1 X143.728 Y87.952 E7.61117
G1 X143.868 Y88.167 E7.63848
G1 X144.474 Y89.135 E7.76003
G1 X144.615 Y89.37 E7.7892
G1 X145.185 Y90.358 E7.9106
G1 X145.319 Y90.601 E7.94013
G1 X145.845 Y91.595 E8.05982
G1 X145.836 Y91.6 E8.06092
G1 X145.963 Y91.822 E8.08814
G1 X146.463 Y92.847 E8.20952
G1 X146.577 Y93.093 E8.23838
G1 X147.04 Y94.135 E8.35974
G1 X147.14 Y94.371 E8.38702
G1 X147.568 Y95.429 E8.50849
G1 X147.665 Y95.681 E8.53723
G1 X148.055 Y96.753 E8.65864
G1 X148.143 Y97.007 E8.68725
G1 X148.497 Y98.099 E8.80943
G1 X148.486 Y98.102 E8.81064
G1 X148.58 Y98.367 E8.84057
G1 X148.889 Y99.45 E8.96043
G1 X148.954 Y99.693 E8.98721
G1 X149.23 Y100.798 E9.10843
G1 X149.291 Y101.063 E9.13737
G1 X149.528 Y102.18 E9.2589
G1 X149.578 Y102.433 E9.28635
G1 X149.777 Y103.558 E9.40794
G1 X149.82 Y103.83 E9.43725
G1 X149.978 Y104.961 E9.5588
G1 X150.009 Y105.213 E9.58582
G1 X150.129 Y106.347 E9.70719
G1 X150.152 Y106.614 E9.73571
G1 X150.232 Y107.752 E9.85713
G1 X150.246 Y108.017 E9.88537
G1 X150.286 Y109.15 E10.00604
G1 X150.291 Y109.418 E10.03457
G1 X150.291 Y110.567 E10.15686
G1 X150.286 Y110.836 E10.18549
G1 X150.245 Y111.992 E10.30861
G1 X150.231 Y112.256 E10.33674
G1 X150.152 Y113.38 E10.45667
G1 X150.13 Y113.638 E10.48423
G1 X150.01 Y114.784 E10.60687
G1 X149.977 Y115.052 E10.6356
G1 X149.82 Y116.168 E10.75555
G1 X149.777 Y116.439 E10.78476
G1 X149.586 Y117.514 E10.90096
G1 X149.53 Y117.817 E10.93376
G1 X149.298 Y118.915 E11.0532
G1 X149.229 Y119.211 E11.08555
G1 X148.953 Y120.3 E11.20512
G1 X148.944 Y120.298 E11.2061
G1 X148.888 Y120.558 E11.23441
G1 X148.579 Y121.638 E11.35397
G1 X148.488 Y121.902 E11.38369
G1 X148.495 Y121.904 E11.38446
G1 X148.162 Y122.926 E11.49887
G1 X148.059 Y123.237 E11.53373
G1 X147.667 Y124.314 E11.65572
G1 X147.571 Y124.564 E11.68422
G1 X147.138 Y125.635 E11.80717
G1 X147.027 Y125.895 E11.83726
G1 X146.594 Y126.861 E11.94993
G1 X146.45 Y127.178 E11.98699
G1 X145.836 Y128.424 E12.13483
G1 X145.328 Y129.377 E12.24977
G1 X145.172 Y129.664 E12.28454
G1 X144.607 Y130.641 E12.40466
G1 X144.467 Y130.873 E12.4335
G1 X143.893 Y131.786 E12.54828
G1 X143.708 Y132.079 E12.58516
G1 X142.912 Y133.25 E12.73586
G1 X142.254 Y134.152 E12.85469
G1 X142.1 Y134.356 E12.8819
G1 X141.428 Y135.215 E12.99798
G1 X141.23 Y135.463 E13.03175
G1 X140.508 Y136.324 E13.15135
G1 X140.323 Y136.537 E13.18137
G1 X139.552 Y137.39 E13.30375
G1 X139.398 Y137.556 E13.32785
G1 X138.614 Y138.373 E13.44836
G1 X138.399 Y138.588 E13.48073
G1 X137.559 Y139.396 E13.60478
G1 X137.377 Y139.565 E13.63121
G1 X136.529 Y140.329 E13.75269
G1 X136.331 Y140.502 E13.78068
G1 X135.467 Y141.228 E13.90079
G1 X135.252 Y141.402 E13.93023
G1 X134.343 Y142.111 E14.05292
G1 X134.138 Y142.265 E14.08021
G1 X133.226 Y142.928 E14.20022
G1 X133.003 Y143.084 E14.22918
G1 X132.044 Y143.73 E14.35225
G1 X131.827 Y143.871 E14.37979
G1 X130.861 Y144.475 E14.50105
G1 X130.638 Y144.609 E14.52874
G1 X129.651 Y145.18 E14.6501
G1 X129.404 Y145.317 E14.68016
G1 X128.406 Y145.846 E14.80038
G1 X128.182 Y145.96 E14.82713
G1 X127.148 Y146.465 E14.94961
G1 X126.897 Y146.582 E14.97908
G1 X125.863 Y147.041 E15.09949
G1 X125.627 Y147.141 E15.12677
G1 X124.563 Y147.571 E15.24891
G1 X124.314 Y147.667 E15.27731
G1 X123.248 Y148.055 E15.39805
G1 X122.993 Y148.143 E15.42676
G1 X121.901 Y148.497 E15.54894
G1 X121.899 Y148.492 E15.54951
G1 X121.634 Y148.58 E15.57923
G1 X120.552 Y148.889 E15.699
G1 X120.304 Y148.955 E15.72631
G1 X119.185 Y149.234 E15.84906
G1 X118.92 Y149.295 E15.878
G1 X117.81 Y149.53 E15.99876
G1 X117.559 Y149.579 E16.02598
G1 X116.433 Y149.778 E16.14768
G1 X116.164 Y149.821 E16.17667
G1 X115.043 Y149.978 E16.29714
G1 X114.784 Y150.009 E16.32491
G1 X113.634 Y150.13 E16.44798
G1 X113.371 Y150.153 E16.47608
G1 X112.246 Y150.232 E16.59611
G1 X111.979 Y150.246 E16.62457
G1 X110.833 Y150.286 E16.74661
G1 X110.568 Y150.291 E16.77482
G1 X109.433 Y150.291 E16.89562
G1 X109.163 Y150.286 E16.92436
G1 X108.01 Y150.245 E17.04716
G1 X107.748 Y150.231 E17.07508
G1 X106.607 Y150.151 E17.19682
G1 X106.347 Y150.129 E17.22459
G1 X105.212 Y150.01 E17.34606
G1 X104.938 Y149.976 E17.37544
G1 X103.823 Y149.818 E17.4953
G1 X103.566 Y149.777 E17.523
G1 X102.497 Y149.587 E17.63856
G1 X102.168 Y149.527 E17.67415
G1 X101.066 Y149.293 E17.79406
G1 X100.784 Y149.228 E17.82486
G1 X99.735 Y148.963 E17.94001
G1 X99.404 Y148.878 E17.97638
G1 X98.335 Y148.569 E18.09482
G1 X98.09 Y148.494 E18.12209
G1 X97.059 Y148.158 E18.2375
G1 X96.75 Y148.055 E18.27217
G1 X95.673 Y147.662 E18.39419
G1 X95.43 Y147.568 E18.42192
G1 X94.366 Y147.138 E18.54406
G1 X94.105 Y147.027 E18.57425
G1 X93.139 Y146.594 E18.68692
G1 X92.823 Y146.451 E18.72383
G1 X91.914 Y146.005 E18.8316
G1 X91.578 Y145.836 E18.87163
G1 X90.626 Y145.329 E18.98643
G1 X90.334 Y145.171 E19.02176
G1 X89.356 Y144.605 E19.14203
G1 X89.129 Y144.468 E19.17025
G1 X88.227 Y143.903 E19.28353
G1 X87.921 Y143.708 E19.32215
G1 X86.75 Y142.912 E19.47285
G1 X85.848 Y142.254 E19.59168
G1 X85.644 Y142.1 E19.61888
G1 X84.785 Y141.428 E19.73496
G1 X84.523 Y141.22 E19.77057
G1 X83.66 Y140.494 E19.8906
G1 X83.463 Y140.321 E19.9185
G1 X82.616 Y139.557 E20.0399
G1 X82.432 Y139.386 E20.06664
G1 X81.603 Y138.587 E20.18918
G1 X81.612 Y138.577 E20.19061
G1 X81.389 Y138.376 E20.22257
G1 X80.601 Y137.556 E20.34361
G1 X80.435 Y137.377 E20.36959
G1 X79.67 Y136.528 E20.49122
G1 X79.496 Y136.328 E20.51944
G1 X78.763 Y135.455 E20.64076
G1 X78.591 Y135.243 E20.66982
G1 X77.888 Y134.342 E20.79145
G1 X77.731 Y134.133 E20.81927
G1 X77.07 Y133.223 E20.93898
G1 X76.916 Y133.003 E20.96756
G1 X76.27 Y132.044 E21.09063
G1 X76.13 Y131.829 E21.11793
G1 X75.525 Y130.862 E21.23934
G1 X75.388 Y130.634 E21.26765
G1 X74.817 Y129.646 E21.3891
G1 X74.683 Y129.405 E21.41845
G1 X74.154 Y128.408 E21.53857
G1 X74.036 Y128.176 E21.56628
G1 X73.53 Y127.138 E21.68918
G1 X73.416 Y126.893 E21.71794
G1 X72.958 Y125.862 E21.83801
G1 X72.858 Y125.625 E21.86539
G1 X72.426 Y124.556 E21.98811
G1 X72.329 Y124.304 E22.01685
G1 X71.939 Y123.231 E22.13836
G1 X71.854 Y122.984 E22.16616
G1 X71.501 Y121.898 E22.2877
G1 X71.421 Y121.637 E22.31675
G1 X71.111 Y120.552 E22.43685
G1 X71.046 Y120.307 E22.46383
G1 X70.766 Y119.187 E22.5867
G1 X70.704 Y118.918 E22.61608
G1 X70.471 Y117.817 E22.73586
G1 X70.422 Y117.565 E22.76319
G1 X70.221 Y116.427 E22.88618
G1 X70.178 Y116.155 E22.91549
G1 X70.022 Y115.037 E23.03563
G1 X69.991 Y114.784 E23.06276
G1 X69.87 Y113.636 E23.18562
G1 X69.847 Y113.371 E23.21393
G1 X69.768 Y112.246 E23.33397
G1 X69.754 Y111.982 E23.3621
G1 X69.714 Y110.85 E23.48266
G1 X69.709 Y110.582 E23.51119
G1 X69.709 Y109.433 E23.63348
G1 X69.714 Y109.164 E23.66212
G1 X69.755 Y108.008 E23.78523
G1 X69.769 Y107.744 E23.81337
G1 X69.848 Y106.62 E23.93329
G1 X69.87 Y106.362 E23.96085
G1 X69.991 Y105.206 E24.08456
G1 X70.024 Y104.936 E24.11351
G1 X70.18 Y103.83 E24.23239
G1 X70.223 Y103.561 E24.26138
G1 X70.414 Y102.486 E24.37759
G1 X70.474 Y102.162 E24.41266
G1 X70.707 Y101.066 E24.53192
G1 X70.772 Y100.788 E24.5623
G1 X71.119 Y99.419 E24.71262
G1 X71.428 Y98.344 E24.83166
G1 X71.506 Y98.09 E24.85994
G1 X71.84 Y97.068 E24.97438
G1 X71.941 Y96.763 E25.00857
G1 X72.333 Y95.686 E25.13056
G1 X72.429 Y95.436 E25.15906
G1 X72.862 Y94.365 E25.28201
G1 X72.972 Y94.107 E25.31187
G1 X73.406 Y93.138 E25.42487
G1 X73.549 Y92.823 E25.46169
G1 X74.018 Y91.868 E25.57493
G1 X74.164 Y91.578 E25.60948
G1 X74.671 Y90.626 E25.72428
G1 X74.828 Y90.336 E25.75938
G1 X75.393 Y89.359 E25.8795
G1 X75.533 Y89.127 E25.90834
G1 X76.107 Y88.214 E26.02312
G1 X76.292 Y87.921 E26.06
G1 X77.088 Y86.75 E26.2107
G1 X77.746 Y85.848 E26.32953
G1 X77.9 Y85.644 E26.35674
G1 X78.572 Y84.785 E26.47282
G1 X78.773 Y84.532 E26.50721
G1 X79.493 Y83.674 E26.62642
G1 X79.677 Y83.463 E26.65622
G1 X80.448 Y82.61 E26.77859
G1 X80.602 Y82.444 E26.80269
G1 X81.386 Y81.627 E26.92321
G1 X81.601 Y81.412 E26.95557
G0 F6000 X82.156 Y81.988
G1 F1200 X82.996 Y81.18 E27.07962
G1 X83.158 Y81.029 E27.10319
G1 X84.006 Y80.265 E27.22467
G1 X84.183 Y80.111 E27.24964
G1 X85.047 Y79.385 E27.36976
G1 X85.24 Y79.229 E27.39617
G1 X86.149 Y78.52 E27.51886
G1 X86.333 Y78.382 E27.54334
G1 X87.245 Y77.719 E27.66335
G1 X87.444 Y77.579 E27.68925
G1 X88.403 Y76.933 E27.81231
G1 X88.595 Y76.808 E27.8367
G1 X89.562 Y76.203 E27.9581
G1 X89.766 Y76.081 E27.9834
G1 X90.754 Y75.51 E28.10485
G1 X90.97 Y75.39 E28.13115
G1 X91.967 Y74.861 E28.25128
G1 X92.174 Y74.756 E28.27598
G1 X93.212 Y74.25 E28.39888
G1 X93.432 Y74.147 E28.42474
G1 X94.461 Y73.69 E28.54457
G1 X94.673 Y73.6 E28.56908
G1 X95.737 Y73.17 E28.69123
G1 X95.959 Y73.085 E28.71653
G1 X97.025 Y72.697 E28.83727
G1 X97.254 Y72.618 E28.86305
G1 X98.346 Y72.264 E28.98523
G1 X98.349 Y72.272 E28.98614
G1 X98.586 Y72.189 E29.01286
G1 X99.669 Y71.88 E29.13273
G1 X99.891 Y71.821 E29.15718
G1 X101.011 Y71.542 E29.28003
G1 X101.245 Y71.488 E29.30559
G1 X102.354 Y71.253 E29.42624
G1 X102.581 Y71.209 E29.45085
G1 X103.707 Y71.01 E29.57255
G1 X103.947 Y70.972 E29.59841
G1 X105.068 Y70.815 E29.71889
G1 X105.299 Y70.786 E29.74367
G1 X106.449 Y70.665 E29.86674
G1 X106.685 Y70.645 E29.89195
G1 X107.81 Y70.566 E30.01198
G1 X108.049 Y70.553 E30.03745
G1 X109.195 Y70.513 E30.1595
G1 X109.432 Y70.509 E30.18473
G1 X110.567 Y70.509 E30.30553
G1 X110.808 Y70.513 E30.33118
G1 X111.964 Y70.554 E30.45429
G1 X112.2 Y70.567 E30.47945
G1 X113.324 Y70.646 E30.59938
G1 X113.553 Y70.666 E30.62384
G1 X114.702 Y70.786 E30.7468
G1 X114.943 Y70.815 E30.77263
G1 X116.052 Y70.971 E30.89183
G1 X116.295 Y71.01 E30.91802
G1 X117.37 Y71.202 E31.03425
G1 X117.667 Y71.256 E31.06638
G1 X118.768 Y71.49 E31.18618
G1 X119.018 Y71.548 E31.21349
G1 X120.068 Y71.813 E31.32875
G1 X120.373 Y71.89 E31.36223
G1 X121.443 Y72.199 E31.48077
G1 X121.665 Y72.267 E31.50548
G1 X122.695 Y72.603 E31.62079
G1 X122.976 Y72.697 E31.65233
G1 X124.053 Y73.09 E31.77435
G1 X124.27 Y73.173 E31.79907
G1 X125.334 Y73.603 E31.92122
G1 X125.569 Y73.704 E31.94844
G1 X126.541 Y74.14 E32.06182
G1 X126.823 Y74.266 E32.0947
G1 X127.78 Y74.736 E32.20817
G1 X128.047 Y74.87 E32.23997
G1 X128.998 Y75.377 E32.35467
G1 X129.26 Y75.519 E32.38639
G1 X130.239 Y76.085 E32.50675
G1 X130.447 Y76.21 E32.53258
G1 X131.35 Y76.776 E32.646
G1 X131.63 Y76.954 E32.68132
G1 X132.779 Y77.734 E32.82912
G1 X133.681 Y78.392 E32.94795
G1 X133.863 Y78.53 E32.97226
G1 X134.722 Y79.202 E33.08834
G1 X134.954 Y79.386 E33.11986
G1 X135.812 Y80.106 E33.23907
G1 X136.833 Y81.02 E33.38492
G1 X137.818 Y81.962 E33.52998
G1 X138.003 Y82.16 E33.55882
G1 X138.008 Y82.155 E33.55957
G1 X138.812 Y82.988 E33.68279
G1 X138.971 Y83.158 E33.70756
G1 X139.735 Y84.006 E33.82905
G1 X139.89 Y84.184 E33.85417
G1 X140.615 Y85.047 E33.97413
G1 X140.769 Y85.238 E34.00024
G1 X141.479 Y86.148 E34.12309
G1 X141.618 Y86.333 E34.14772
G1 X142.281 Y87.245 E34.26772
G1 X142.42 Y87.443 E34.29347
G1 X143.065 Y88.4 E34.4163
G1 X143.19 Y88.592 E34.44068
G1 X143.796 Y89.56 E34.56224
G1 X143.922 Y89.77 E34.5883
G1 X144.492 Y90.758 E34.7097
G1 X144.612 Y90.975 E34.73609
G1 X145.138 Y91.969 E34.85579
G1 X145.244 Y92.173 E34.88025
G1 X145.744 Y93.198 E35.00164
G1 X145.846 Y93.418 E35.02744
G1 X146.309 Y94.46 E35.1488
G1 X146.399 Y94.671 E35.17322
G1 X146.827 Y95.729 E35.29469
G1 X146.913 Y95.954 E35.32032
G1 X147.303 Y97.026 E35.44174
G1 X147.382 Y97.254 E35.46742
G1 X147.736 Y98.346 E35.5896
G1 X147.728 Y98.349 E35.59051
G1 X147.811 Y98.586 E35.61723
G1 X148.12 Y99.669 E35.7371
G1 X148.178 Y99.887 E35.76111
G1 X148.454 Y100.992 E35.88233
G1 X148.509 Y101.229 E35.90822
G1 X148.746 Y102.346 E36.02976
G1 X148.79 Y102.573 E36.05437
G1 X148.989 Y103.698 E36.17596
G1 X149.028 Y103.941 E36.20216
G1 X149.186 Y105.072 E36.3237
G1 X149.213 Y105.297 E36.34782
G1 X149.333 Y106.431 E36.46919
G1 X149.354 Y106.67 E36.49472
G1 X149.434 Y107.808 E36.61614
G1 X149.447 Y108.045 E36.6414
G1 X149.487 Y109.178 E36.76207
G1 X149.491 Y109.418 E36.78761
G1 X149.491 Y110.567 E36.9099
G1 X149.487 Y110.808 E36.93556
G1 X149.446 Y111.964 E37.05867
G1 X149.433 Y112.2 E37.08383
G1 X149.354 Y113.324 E37.20375
G1 X149.334 Y113.555 E37.22843
G1 X149.214 Y114.701 E37.35107
G1 X149.185 Y114.94 E37.37669
G1 X149.028 Y116.056 E37.49664
G1 X148.989 Y116.299 E37.52284
G1 X148.798 Y117.374 E37.63904
G1 X148.747 Y117.652 E37.66912
G1 X148.515 Y118.75 E37.78857
