;FLAVOR:Marlin
;TIME:8737
;Filament used: 12.416m
;Layer height: 0.32
;MINX:29.837
;MINY:51.544
;MINZ:0.32
;MAXX:205.92
;MAXY:164.855
;MAXZ:63.04
;Generated with Cura_SteamEngine 4.12.1
M140 S60
M105
M190 S60
M104 S200
M105
M109 S200
M82 ;absolute extrusion mode
; Ender 3 Custom Start G-code
G92 E0 ; Reset Extruder
G28 ; Home all axes
G29 ; bed level adjust
G1 Z2.0 F3000 ; Move Z Axis up little to prevent scratching of Heat Bed
G1 X0.1 Y20 Z0.3 F5000.0 ; Move to start position
G1 X0.1 Y200.0 Z0.3 F1500.0 E15 ; Draw the first line
G1 X0.4 Y200.0 Z0.3 F5000.0 ; Move to side a little
G1 X0.4 Y20 Z0.3 F1500.0 E30 ; Draw the second line
G92 E0 ; Reset Extruder
G1 Z2.0 F3000 ; Move Z Axis up little to prevent scratching of Heat Bed
G1 X5 Y20 Z0.3 F5000.0 ; Move over to prevent blob squish
G92 E0
G92 E0
G1 F1500 E-6.5
;LAYER_COUNT:197
;LAYER:0
M107
G0 F6000 X36.154 Y61.004 Z0.32
;TYPE:SKIRT
G1 F1500 E0
G1 F1200 X39.091 Y59.315 E0.3606
G1 X39.562 Y59.065 E0.41735
G1 X42.6 Y57.591 E0.77674
G1 X43.079 Y57.379 E0.83249
G1 X46.18 Y56.13 E1.1883
G1 X46.679 Y55.949 E1.2448
G1 X49.905 Y54.905 E1.60568
G1 X50.422 Y54.758 E1.66289
G1 X51.668 Y54.45 E1.79949
G1 X53.676 Y53.949 E2.01976
G1 X54.204 Y53.837 E2.07721
G1 X57.526 Y53.255 E2.43616
G1 X58.046 Y53.182 E2.49205
G1 X61.404 Y52.83 E2.85141
G1 X61.932 Y52.794 E2.90774
G1 X65.302 Y52.677 E3.26663
G1 X65.832 Y52.677 E3.32304
G1 X69.203 Y52.795 E3.68204
G1 X69.732 Y52.832 E3.73848
G1 X73.089 Y53.185 E4.09775
G1 X73.607 Y53.257 E4.15341
G1 X76.93 Y53.84 E4.51248
G1 X77.451 Y53.951 E4.56918
G1 X80.708 Y54.761 E4.92639
G1 X81.214 Y54.905 E4.98238
G1 X84.44 Y55.949 E5.34327
G1 X84.941 Y56.131 E5.4
G1 X88.053 Y57.385 E5.7571
G1 X88.532 Y57.598 E5.81289
G1 X91.577 Y59.077 E6.17318
G1 X92.043 Y59.323 E6.22927
G1 X94.962 Y61 E6.58757
G1 X95.386 Y61.262 E6.64061
G1 X97.797 Y62.866 E6.94882
G1 X98.423 Y63.331 E7.03182
G1 X98.998 Y63.857 E7.11476
G1 X99.516 Y64.439 E7.19769
G1 X99.972 Y65.072 E7.28072
G1 X100.276 Y65.586 E7.34428
G1 X100.372 Y65.764 E7.3658
G1 X100.707 Y66.469 E7.44888
G1 X100.967 Y67.203 E7.53175
G1 X101.151 Y67.961 E7.61477
G1 X101.256 Y68.733 E7.6977
G1 X101.283 Y69.372 E7.76577
G1 X101.283 Y78.733 E8.76208
G1 X101.631 Y78.155 E8.83389
G1 X101.764 Y77.941 E8.8607
G1 X102.683 Y76.523 E9.04055
G1 X102.839 Y76.292 E9.07022
G1 X103.825 Y74.886 E9.25299
G1 X103.98 Y74.673 E9.28103
G1 X104.997 Y73.325 E9.46075
G1 X105.158 Y73.119 E9.48858
G1 X106.239 Y71.784 E9.67141
G1 X106.406 Y71.584 E9.69914
G1 X107.513 Y70.309 E9.87885
G1 X107.698 Y70.104 E9.90824
G1 X108.861 Y68.859 E10.08957
G1 X109.039 Y68.675 E10.11682
G1 X110.243 Y67.47 E10.29811
G1 X110.439 Y67.28 E10.32717
G1 X111.691 Y66.114 E10.50926
G1 X111.699 Y66.123 E10.51054
G1 X111.894 Y65.93 E10.53974
G1 X113.168 Y64.824 E10.7193
G1 X113.367 Y64.657 E10.74695
G1 X114.692 Y63.584 E10.92842
G1 X114.901 Y63.421 E10.95663
G1 X116.273 Y62.387 E11.13948
G1 X116.485 Y62.232 E11.16743
G1 X117.879 Y61.255 E11.34861
G1 X118.104 Y61.103 E11.37751
G1 X119.522 Y60.183 E11.55741
G1 X119.746 Y60.044 E11.58547
G1 X121.206 Y59.167 E11.76674
G1 X121.433 Y59.036 E11.79464
G1 X122.933 Y58.204 E11.9772
G1 X123.173 Y58.076 E12.00615
G1 X124.679 Y57.31 E12.18598
G1 X124.912 Y57.197 E12.21354
G1 X126.468 Y56.471 E12.39629
G1 X126.71 Y56.363 E12.42449
G1 X128.278 Y55.697 E12.60581
G1 X128.528 Y55.596 E12.63451
G1 X130.106 Y54.991 E12.81438
G1 X130.354 Y54.901 E12.84246
G1 X131.964 Y54.347 E13.02367
G1 X132.206 Y54.268 E13.05077
G1 X133.847 Y53.764 E13.23348
G1 X134.123 Y53.685 E13.26403
G1 X135.757 Y53.25 E13.444
G1 X136 Y53.189 E13.47066
G1 X137.665 Y52.804 E13.65255
G1 X137.924 Y52.749 E13.68073
G1 X139.603 Y52.422 E13.86279
G1 X139.869 Y52.375 E13.89154
G1 X141.539 Y52.111 E14.07149
G1 X141.802 Y52.074 E14.09975
G1 X143.508 Y51.865 E14.28269
G1 X143.772 Y51.838 E14.31093
G1 X145.459 Y51.691 E14.49116
G1 X145.72 Y51.672 E14.51902
G1 X147.415 Y51.583 E14.69967
G1 X147.681 Y51.574 E14.72799
G1 X149.392 Y51.544 E14.91013
G1 X149.658 Y51.544 E14.93844
G1 X151.367 Y51.574 E15.12036
G1 X151.633 Y51.583 E15.14869
G1 X153.327 Y51.672 E15.32923
G1 X153.589 Y51.691 E15.35719
G1 X155.272 Y51.838 E15.537
G1 X155.537 Y51.866 E15.56536
G1 X157.248 Y52.076 E15.74883
G1 X157.508 Y52.112 E15.77677
G1 X159.172 Y52.375 E15.95607
G1 X159.439 Y52.422 E15.98493
G1 X161.118 Y52.749 E16.16698
G1 X161.38 Y52.805 E16.1955
G1 X163.051 Y53.192 E16.37805
G1 X163.296 Y53.253 E16.40493
G1 X164.929 Y53.689 E16.58482
G1 X165.189 Y53.763 E16.61359
G1 X166.823 Y54.262 E16.79543
G1 X167.081 Y54.346 E16.82431
G1 X168.699 Y54.904 E17.00647
G1 X168.943 Y54.993 E17.03411
G1 X170.52 Y55.598 E17.21388
G1 X170.771 Y55.7 E17.24272
G1 X172.34 Y56.367 E17.42418
G1 X172.582 Y56.475 E17.45238
G1 X174.137 Y57.201 E17.63503
G1 X174.368 Y57.313 E17.66236
G1 X175.874 Y58.079 E17.84219
G1 X176.111 Y58.205 E17.87075
G1 X177.613 Y59.037 E18.0535
G1 X177.85 Y59.174 E18.08264
G1 X179.31 Y60.053 E18.26402
G1 X179.527 Y60.188 E18.29122
G1 X180.945 Y61.108 E18.47112
G1 X181.169 Y61.26 E18.49993
G1 X182.575 Y62.245 E18.68265
G1 X182.791 Y62.402 E18.71107
G1 X184.139 Y63.419 E18.89079
G1 X184.344 Y63.579 E18.91847
G1 X185.668 Y64.651 E19.09978
G1 X185.875 Y64.824 E19.12849
G1 X187.16 Y65.942 E19.30978
G1 X187.354 Y66.117 E19.33759
G1 X188.61 Y67.288 E19.52035
G1 X188.803 Y67.475 E19.54895
G1 X190.007 Y68.68 E19.73025
G1 X190.187 Y68.866 E19.7578
G1 X191.338 Y70.099 E19.93732
G1 X191.329 Y70.107 E19.93861
G1 X191.53 Y70.31 E19.96901
G1 X192.649 Y71.6 E20.15077
G1 X192.815 Y71.798 E20.17827
G1 X193.899 Y73.137 E20.36163
G1 X194.062 Y73.345 E20.38975
G1 X195.08 Y74.696 E20.56979
G1 X195.237 Y74.913 E20.5983
G1 X196.206 Y76.298 E20.77821
G1 X196.36 Y76.527 E20.80758
G1 X197.3 Y77.98 E20.99176
G1 X197.426 Y78.182 E21.0171
G1 X198.293 Y79.619 E21.19573
G1 X198.438 Y79.868 E21.2264
G1 X199.266 Y81.366 E21.40857
G1 X199.386 Y81.594 E21.43599
G1 X200.159 Y83.112 E21.61729
G1 X200.274 Y83.347 E21.64514
G1 X200.988 Y84.877 E21.82484
G1 X201.098 Y85.124 E21.85362
G1 X201.768 Y86.704 E22.03628
G1 X201.866 Y86.946 E22.06406
G1 X202.472 Y88.524 E22.24397
G1 X202.563 Y88.776 E22.27249
G1 X203.117 Y90.386 E22.45371
G1 X203.198 Y90.635 E22.48158
G1 X203.698 Y92.269 E22.66345
G1 X203.765 Y92.534 E22.69254
G1 X203.772 Y92.532 E22.69331
G1 X204.21 Y94.163 E22.87305
G1 X204.275 Y94.424 E22.90168
G1 X204.658 Y96.083 E23.0829
G1 X204.713 Y96.341 E23.11097
G1 X205.041 Y98.026 E23.29368
G1 X205.087 Y98.287 E23.32189
G1 X205.352 Y99.957 E23.50185
G1 X205.39 Y100.228 E23.53098
G1 X205.598 Y101.933 E23.71379
G1 X205.625 Y102.188 E23.74108
G1 X205.773 Y103.872 E23.92101
G1 X205.792 Y104.139 E23.94949
G1 X205.881 Y105.838 E24.13057
G1 X205.89 Y106.102 E24.15869
G1 X205.92 Y107.806 E24.34007
G1 X205.92 Y108.073 E24.36849
G1 X205.89 Y109.789 E24.55116
G1 X205.881 Y110.052 E24.57917
G1 X205.793 Y111.738 E24.75886
G1 X205.774 Y112.01 E24.78788
G1 X205.624 Y113.709 E24.96941
G1 X205.597 Y113.961 E24.99638
G1 X205.391 Y115.651 E25.17758
G1 X205.353 Y115.922 E25.20671
G1 X205.087 Y117.598 E25.38732
G1 X205.042 Y117.856 E25.4152
G1 X204.716 Y119.535 E25.59723
G1 X204.659 Y119.799 E25.62598
G1 X204.272 Y121.472 E25.80874
G1 X204.21 Y121.724 E25.83636
G1 X203.773 Y123.357 E26.01628
G1 X203.697 Y123.619 E26.04532
G1 X203.194 Y125.26 E26.228
G1 X203.116 Y125.502 E26.25506
G1 X202.563 Y127.112 E26.43624
G1 X202.47 Y127.368 E26.46523
G1 X201.864 Y128.946 E26.64514
G1 X201.763 Y129.194 E26.67364
G1 X201.097 Y130.761 E26.85486
G1 X200.991 Y131 E26.88268
G1 X200.265 Y132.557 E27.06553
G1 X200.149 Y132.794 E27.09361
G1 X199.383 Y134.298 E27.27325
G1 X199.26 Y134.53 E27.3012
G1 X198.444 Y136.004 E27.48052
G1 X198.31 Y136.236 E27.50903
G1 X197.445 Y137.676 E27.68782
G1 X197.309 Y137.894 E27.71517
G1 X196.37 Y139.344 E27.89903
G1 X196.217 Y139.572 E27.92825
G1 X195.222 Y140.993 E28.11288
G1 X195.065 Y141.208 E28.14122
G1 X194.043 Y142.564 E28.32194
G1 X193.881 Y142.772 E28.35
G1 X192.805 Y144.101 E28.532
G1 X192.636 Y144.302 E28.55995
G1 X191.534 Y145.571 E28.73883
G1 X191.339 Y145.774 E28.76879
G1 X191.345 Y145.779 E28.76962
G1 X190.181 Y147.026 E28.95118
G1 X189.995 Y147.218 E28.97963
G1 X188.743 Y148.468 E29.16793
G1 X188.557 Y148.647 E29.1954
G1 X187.349 Y149.774 E29.37124
G1 X187.15 Y149.954 E29.3998
G1 X185.876 Y151.061 E29.57943
G1 X185.675 Y151.229 E29.60731
G1 X184.342 Y152.309 E29.7899
G1 X184.132 Y152.474 E29.81833
G1 X182.781 Y153.492 E29.99837
G1 X182.565 Y153.649 E30.02679
G1 X181.159 Y154.633 E30.20944
G1 X180.94 Y154.78 E30.23752
G1 X179.523 Y155.7 E30.41733
G1 X179.299 Y155.84 E30.44544
G1 X177.838 Y156.718 E30.62686
G1 X177.607 Y156.851 E30.65523
G1 X176.106 Y157.683 E30.83789
G1 X175.868 Y157.81 E30.8666
G1 X174.362 Y158.576 E31.04643
G1 X174.129 Y158.689 E31.07399
G1 X172.573 Y159.415 E31.25674
G1 X172.331 Y159.523 E31.28494
G1 X170.763 Y160.189 E31.46626
G1 X170.513 Y160.29 E31.49496
G1 X168.935 Y160.895 E31.67483
G1 X168.688 Y160.985 E31.70281
G1 X167.079 Y161.539 E31.88392
G1 X166.835 Y161.618 E31.91122
G1 X165.193 Y162.122 E32.09403
G1 X164.918 Y162.201 E32.12448
G1 X163.284 Y162.636 E32.30445
G1 X163.042 Y162.696 E32.33099
G1 X161.378 Y163.081 E32.51277
G1 X161.118 Y163.137 E32.54107
G1 X159.439 Y163.464 E32.72313
G1 X159.172 Y163.511 E32.75199
G1 X157.501 Y163.775 E32.93204
G1 X157.24 Y163.812 E32.9601
G1 X155.535 Y164.021 E33.14292
G1 X155.269 Y164.048 E33.17138
G1 X153.581 Y164.195 E33.35172
G1 X153.321 Y164.214 E33.37946
G1 X151.627 Y164.303 E33.56001
G1 X151.361 Y164.312 E33.58834
G1 X149.65 Y164.342 E33.77047
G1 X149.384 Y164.342 E33.79878
G1 X147.675 Y164.312 E33.9807
G1 X147.409 Y164.303 E34.00903
G1 X145.714 Y164.214 E34.18968
G1 X145.45 Y164.195 E34.21785
G1 X143.76 Y164.047 E34.39841
G1 X143.498 Y164.019 E34.42646
G1 X141.794 Y163.81 E34.60918
G1 X141.532 Y163.774 E34.63732
G1 X139.869 Y163.511 E34.81652
G1 X139.603 Y163.464 E34.84527
G1 X137.924 Y163.137 E35.02733
G1 X137.663 Y163.081 E35.05574
G1 X135.991 Y162.694 E35.2384
G1 X135.745 Y162.633 E35.26537
G1 X134.112 Y162.197 E35.44527
G1 X133.843 Y162.12 E35.47505
G1 X132.203 Y161.617 E35.65762
G1 X131.961 Y161.538 E35.68471
G1 X130.35 Y160.984 E35.86603
G1 X130.1 Y160.893 E35.89435
G1 X128.522 Y160.288 E36.07422
G1 X128.27 Y160.186 E36.10315
G1 X126.701 Y159.519 E36.28461
G1 X126.459 Y159.411 E36.31281
G1 X124.904 Y158.685 E36.49547
G1 X124.673 Y158.573 E36.52279
G1 X123.167 Y157.807 E36.70262
G1 X122.929 Y157.68 E36.73133
G1 X121.426 Y156.847 E36.91422
G1 X121.189 Y156.711 E36.94331
G1 X119.731 Y155.833 E37.12445
G1 X119.518 Y155.699 E37.15123
G1 X118.099 Y154.779 E37.33123
G1 X117.869 Y154.624 E37.36075
G1 X116.476 Y153.647 E37.54184
G1 X116.264 Y153.493 E37.56972
G1 X114.893 Y152.459 E37.75249
G1 X114.687 Y152.298 E37.78032
G1 X113.363 Y151.226 E37.96163
G1 X113.16 Y151.056 E37.98981
G1 X111.885 Y149.948 E38.1696
G1 X111.685 Y149.768 E38.19824
G1 X110.429 Y148.596 E38.38107
G1 X110.238 Y148.411 E38.40937
G1 X109.034 Y147.206 E38.59067
G1 X108.853 Y147.019 E38.61837
G1 X107.695 Y145.778 E38.79903
G1 X107.704 Y145.769 E38.80038
G1 X107.502 Y145.565 E38.83094
G1 X106.397 Y144.29 E39.01051
G1 X106.231 Y144.093 E39.03793
G1 X105.155 Y142.763 E39.22001
G1 X105.164 Y142.756 E39.22122
G1 X104.987 Y142.549 E39.25021
G1 X103.963 Y141.189 E39.4314
G1 X103.808 Y140.977 E39.45935
G1 X102.832 Y139.583 E39.64047
G1 X102.682 Y139.361 E39.66898
G1 X101.762 Y137.943 E39.84889
G1 X101.623 Y137.72 E39.87686
G1 X101.283 Y137.154 E39.94713
G1 X101.283 Y148.168 E41.11938
G1 X101.243 Y148.946 E41.20229
G1 X101.124 Y149.717 E41.28532
G1 X100.926 Y150.471 E41.36829
G1 X100.652 Y151.2 E41.45118
G1 X100.365 Y151.789 E41.52092
G1 X100.268 Y151.968 E41.54258
G1 X99.862 Y152.633 E41.62551
G1 X99.39 Y153.254 E41.70853
G1 X98.857 Y153.822 E41.79143
G1 X98.268 Y154.333 E41.87442
G1 X97.76 Y154.698 E41.941
G1 X95.169 Y156.401 E42.271
G1 X94.756 Y156.654 E42.32255
G1 X91.831 Y158.32 E42.68082
G1 X91.368 Y158.563 E42.73647
G1 X88.37 Y160.007 E43.09064
G1 X87.888 Y160.219 E43.14669
G1 X84.767 Y161.464 E43.50432
G1 X84.263 Y161.645 E43.56131
G1 X81.09 Y162.662 E43.91594
G1 X80.582 Y162.806 E43.97214
G1 X77.343 Y163.604 E44.32719
G1 X76.826 Y163.713 E44.38342
G1 X73.528 Y164.286 E44.73969
G1 X73.005 Y164.358 E44.79588
G1 X69.689 Y164.703 E45.15072
G1 X69.159 Y164.74 E45.20726
G1 X65.815 Y164.855 E45.56338
G1 X65.291 Y164.854 E45.61915
G1 X61.945 Y164.738 E45.97549
G1 X61.42 Y164.702 E46.0315
G1 X58.091 Y164.355 E46.38773
G1 X57.576 Y164.284 E46.44306
G1 X54.277 Y163.71 E46.79946
G1 X53.759 Y163.601 E46.8558
G1 X50.521 Y162.802 E47.21076
G1 X50.019 Y162.659 E47.26632
G1 X46.832 Y161.636 E47.62257
G1 X46.338 Y161.459 E47.67842
G1 X43.218 Y160.214 E48.03595
G1 X42.737 Y160.002 E48.09189
G1 X39.737 Y158.557 E48.4463
G1 X39.275 Y158.314 E48.50186
G1 X36.356 Y156.652 E48.85936
G1 X35.935 Y156.395 E48.91186
G1 X33.544 Y154.82 E49.21659
G1 X32.916 Y154.358 E49.29957
G1 X32.339 Y153.835 E49.38245
G1 X31.818 Y153.255 E49.46543
G1 X31.359 Y152.624 E49.54848
G1 X31.043 Y152.094 E49.61415
G1 X30.946 Y151.915 E49.63582
G1 X30.61 Y151.211 E49.71885
G1 X30.348 Y150.477 E49.8018
G1 X30.163 Y149.72 E49.88474
G1 X30.056 Y148.948 E49.96769
G1 X30.028 Y148.294 E50.03736
G1 X30.028 Y143.414 E50.55675
G1 X29.837 Y74.008 E57.94383
G1 X29.837 Y69.371 E58.43735
G1 X29.877 Y68.593 E58.52027
G1 X29.996 Y67.822 E58.6033
G1 X30.194 Y67.068 E58.68627
G1 X30.468 Y66.339 E58.76916
G1 X30.732 Y65.793 E58.83371
G1 X30.827 Y65.615 E58.85518
G1 X31.229 Y64.947 E58.93816
G1 X31.697 Y64.323 E59.02118
G1 X32.227 Y63.751 E59.10417
G1 X32.812 Y63.236 E59.18713
G1 X33.328 Y62.862 E59.25495
G1 X35.739 Y61.261 E59.56299
G1 X36.154 Y61.004 E59.61494
G0 F6000 X36.553 Y61.697
G1 F1200 X39.49 Y60.008 E59.97553
G1 X39.912 Y59.785 E60.02633
G1 X42.95 Y58.311 E60.38572
G1 X43.377 Y58.121 E60.43547
G1 X46.478 Y56.872 E60.79128
G1 X46.925 Y56.71 E60.84188
G1 X50.151 Y55.666 E61.20277
G1 X50.614 Y55.534 E61.25401
G1 X51.877 Y55.222 E61.39247
G1 X53.87 Y54.725 E61.61109
G1 X54.343 Y54.625 E61.66254
G1 X57.665 Y54.043 E62.0215
G1 X58.129 Y53.978 E62.07136
G1 X61.487 Y53.626 E62.43072
G1 X61.96 Y53.593 E62.48119
G1 X65.33 Y53.476 E62.84008
G1 X65.804 Y53.476 E62.89053
G1 X69.175 Y53.594 E63.24953
G1 X69.648 Y53.627 E63.3
G1 X73.005 Y53.98 E63.65926
G1 X73.469 Y54.045 E63.70913
G1 X76.792 Y54.628 E64.06821
G1 X77.258 Y54.727 E64.11891
G1 X80.515 Y55.537 E64.47612
G1 X80.968 Y55.666 E64.52625
G1 X84.194 Y56.71 E64.88713
G1 X84.642 Y56.873 E64.93787
G1 X87.754 Y58.127 E65.29497
G1 X88.183 Y58.317 E65.34491
G1 X91.228 Y59.796 E65.7052
G1 X91.644 Y60.017 E65.75534
G1 X94.563 Y61.694 E66.11363
G1 X94.943 Y61.928 E66.16113
G1 X97.354 Y63.532 E66.46934
G1 X97.944 Y63.974 E66.5478
G1 X98.484 Y64.476 E66.62628
G1 X98.966 Y65.034 E66.70475
G1 X99.385 Y65.641 E66.78325
G1 X99.572 Y65.966 E66.82316
G1 X99.668 Y66.144 E66.84469
G1 X99.982 Y66.811 E66.92315
G1 X100.223 Y67.508 E67.00164
G1 X100.386 Y68.227 E67.08011
G1 X100.47 Y68.96 E67.15864
G1 X100.483 Y69.372 E67.20251
G1 X100.483 Y81.74 E68.51886
G1 X101.307 Y80.252 E68.6999
G1 X101.43 Y80.039 E68.72608
G1 X102.316 Y78.567 E68.90893
G1 X102.436 Y78.376 E68.93294
G1 X103.355 Y76.958 E69.11279
G1 X103.494 Y76.752 E69.13924
G1 X104.48 Y75.346 E69.32201
G1 X104.619 Y75.155 E69.34715
G1 X105.636 Y73.807 E69.52687
G1 X105.779 Y73.623 E69.55168
G1 X106.86 Y72.288 E69.73451
G1 X107.01 Y72.109 E69.75936
G1 X108.117 Y70.834 E69.93907
G1 X108.283 Y70.65 E69.96545
G1 X109.446 Y69.405 E70.14678
G1 X109.605 Y69.241 E70.17109
G1 X110.809 Y68.036 E70.35239
G1 X110.985 Y67.866 E70.37843
G1 X112.237 Y66.7 E70.56052
G1 X112.418 Y66.534 E70.58666
G1 X113.692 Y65.428 E70.76623
G1 X113.871 Y65.278 E70.79108
G1 X115.196 Y64.205 E70.97255
G1 X115.382 Y64.06 E70.99765
G1 X116.754 Y63.026 E71.1805
G1 X116.944 Y62.887 E71.20556
G1 X118.338 Y61.91 E71.38673
G1 X118.54 Y61.774 E71.41265
G1 X119.958 Y60.854 E71.59255
G1 X120.157 Y60.73 E71.61751
G1 X121.617 Y59.853 E71.79878
G1 X121.821 Y59.735 E71.82386
G1 X123.321 Y58.903 E72.00643
G1 X123.536 Y58.789 E72.03233
G1 X125.042 Y58.023 E72.21216
G1 X125.25 Y57.922 E72.23677
