;FLAVOR:Marlin
;TIME:2252
;Filament used: 4.85762m
;Layer height: 0.32
;MINX:58.469
;MINY:84.5
;MINZ:0.32
;MAXX:162
;MAXY:135.5
;MAXZ:41.92
;Generated with Cura_SteamEngine 4.12.1
M140 S60
M105
M190 S60
M104 S200
M105
M109 S200
M82 ;absolute extrusion mode
; Ender 3 Custom Start G-code
G92 E0 ; Reset Extruder
G28 ; Home all axes
G29 ; bed level adjust
G1 Z2.0 F3000 ; Move Z Axis up little to prevent scratching of Heat Bed
G1 X0.1 Y20 Z0.3 F5000.0 ; Move to start position
G1 X0.1 Y200.0 Z0.3 F1500.0 E15 ; Draw the first line
G1 X0.4 Y200.0 Z0.3 F5000.0 ; Move to side a little
G1 X0.4 Y20 Z0.3 F1500.0 E30 ; Draw the second line
G92 E0 ; Reset Extruder
G1 Z2.0 F3000 ; Move Z Axis up little to prevent scratching of Heat Bed
G1 X5 Y20 Z0.3 F5000.0 ; Move over to prevent blob squish
G92 E0
G92 E0
G1 F1500 E-6.5
;LAYER_COUNT:131
;LAYER:0
M107
G0 F6000 X63.949 Y86.673 Z0.32
;TYPE:SKIRT
G1 F1500 E0
G1 F1200 X64.797 Y86.144 E0.13297
G1 X65.686 Y85.685 E0.26608
G1 X66.608 Y85.298 E0.39911
G1 X67.557 Y84.986 E0.53201
G1 X68.529 Y84.751 E0.66505
G1 X69.517 Y84.595 E0.79813
G1 X70.628 Y84.514 E0.94633
G1 X70.949 Y84.505 E0.98905
G1 X71.299 Y84.5 E1.03562
G1 X111.793 Y84.5 E6.42296
G1 X112.673 Y84.511 E6.54005
G1 X113.671 Y84.565 E6.67301
G1 X114.662 Y84.699 E6.80606
G1 X115.639 Y84.912 E6.93909
G1 X116.596 Y85.202 E7.07213
G1 X117.527 Y85.567 E7.20517
G1 X118.425 Y86.006 E7.33815
G1 X119.285 Y86.515 E7.4711
G1 X120.102 Y87.091 E7.6041
G1 X120.997 Y87.847 E7.75996
G1 X121.234 Y88.067 E7.80298
G1 X123.14 Y89.79 E8.14481
G1 X125.04 Y91.411 E8.47708
G1 X126.944 Y92.947 E8.80254
G1 X128.95 Y94.471 E9.1377
G1 X130.941 Y95.899 E9.46368
G1 X132.992 Y97.283 E9.79285
G1 X135.086 Y98.612 E10.12281
G1 X137.198 Y99.869 E10.4498
G1 X139.365 Y101.078 E10.77993
G1 X141.566 Y102.225 E11.11013
G1 X143.781 Y103.301 E11.43774
G1 X146.045 Y104.322 E11.76816
G1 X148.344 Y105.282 E12.09961
G1 X150.664 Y106.177 E12.43044
G1 X152.97 Y106.988 E12.75565
G1 X153.494 Y107.165 E12.82923
G1 X154.427 Y107.523 E12.96218
G1 X155.329 Y107.954 E13.09518
G1 X156.194 Y108.456 E13.22824
G1 X157.016 Y109.026 E13.36132
G1 X157.789 Y109.659 E13.49424
G1 X158.51 Y110.352 E13.62728
G1 X159.173 Y111.1 E13.76026
G1 X159.774 Y111.899 E13.89328
G1 X160.309 Y112.744 E14.02633
G1 X160.775 Y113.629 E14.1594
G1 X161.168 Y114.548 E14.29238
G1 X161.488 Y115.495 E14.42536
G1 X161.73 Y116.465 E14.55837
G1 X161.894 Y117.451 E14.69135
G1 X161.986 Y118.659 E14.85253
G1 X161.995 Y118.982 E14.89552
G1 X162 Y119.33 E14.94182
G1 X161.999 Y122.419 E15.35278
G1 X161.99 Y123.146 E15.44951
G1 X161.938 Y124.144 E15.58246
G1 X161.806 Y125.135 E15.71547
G1 X161.595 Y126.113 E15.84858
G1 X161.307 Y127.07 E15.98154
G1 X160.943 Y128.001 E16.11453
G1 X160.506 Y128.9 E16.24751
G1 X159.998 Y129.762 E16.38063
G1 X159.424 Y130.58 E16.51358
G1 X158.785 Y131.349 E16.6466
G1 X158.088 Y132.066 E16.77963
G1 X157.335 Y132.724 E16.91267
G1 X156.532 Y133.319 E17.04563
G1 X155.684 Y133.849 E17.17867
G1 X154.796 Y134.309 E17.31172
G1 X153.875 Y134.697 E17.44468
G1 X152.925 Y135.01 E17.57775
G1 X151.954 Y135.246 E17.7107
G1 X150.967 Y135.404 E17.84368
G1 X149.841 Y135.486 E17.99388
G1 X149.52 Y135.495 E18.0366
G1 X149.17 Y135.5 E18.08317
G1 X135.029 Y135.499 E19.9645
G1 X134.326 Y135.489 E20.05803
G1 X133.328 Y135.435 E20.191
G1 X132.337 Y135.301 E20.32405
G1 X131.36 Y135.088 E20.45708
G1 X130.403 Y134.798 E20.59012
G1 X129.473 Y134.433 E20.72303
G1 X128.574 Y133.994 E20.85614
G1 X127.714 Y133.485 E20.98909
G1 X126.799 Y132.833 E21.13856
G1 X125.982 Y132.193 E21.27664
G1 X123.917 Y130.621 E21.62191
G1 X121.919 Y129.188 E21.94903
G1 X119.875 Y127.809 E22.27706
G1 X117.763 Y126.467 E22.60997
G1 X115.647 Y125.206 E22.93768
G1 X113.48 Y123.997 E23.26781
G1 X111.288 Y122.854 E23.5967
G1 X109.093 Y121.786 E23.92146
G1 X106.794 Y120.747 E24.25711
G1 X104.5 Y119.787 E24.58795
G1 X102.225 Y118.914 E24.91213
G1 X99.908 Y118.095 E25.23908
G1 X97.534 Y117.332 E25.57083
G1 X95.153 Y116.64 E25.90071
G1 X92.735 Y116.011 E26.23311
G1 X90.337 Y115.458 E26.56051
G1 X87.914 Y114.974 E26.88923
G1 X85.492 Y114.559 E27.21616
G1 X83.016 Y114.206 E27.54889
G1 X80.577 Y113.929 E27.87547
G1 X78.117 Y113.721 E28.20391
G1 X75.673 Y113.582 E28.52959
G1 X71.804 Y113.5 E29.04444
G1 X71.497 Y113.499 E29.08528
G1 X70.799 Y113.489 E29.17816
G1 X69.801 Y113.434 E29.31113
G1 X68.81 Y113.301 E29.44416
G1 X67.833 Y113.088 E29.57719
G1 X66.876 Y112.798 E29.71023
G1 X65.946 Y112.432 E29.84319
G1 X65.047 Y111.993 E29.97629
G1 X64.187 Y111.484 E30.10925
G1 X63.37 Y110.908 E30.24224
G1 X62.601 Y110.268 E30.37534
G1 X61.887 Y109.569 E30.50828
G1 X61.23 Y108.815 E30.64133
G1 X60.636 Y108.011 E30.77432
G1 X60.108 Y107.162 E30.90733
G1 X59.649 Y106.273 E31.04044
G1 X59.263 Y105.351 E31.17342
G1 X58.952 Y104.401 E31.30641
G1 X58.718 Y103.429 E31.43942
G1 X58.563 Y102.441 E31.57247
G1 X58.483 Y101.329 E31.72079
G1 X58.474 Y100.997 E31.76498
G1 X58.469 Y100.658 E31.81008
G1 X58.47 Y97.505 E32.22956
G1 X58.479 Y96.84 E32.31804
G1 X58.533 Y95.841 E32.45114
G1 X58.666 Y94.851 E32.58404
G1 X58.878 Y93.873 E32.71717
G1 X59.167 Y92.916 E32.85017
G1 X59.532 Y91.986 E32.98308
G1 X59.97 Y91.087 E33.11613
G1 X60.478 Y90.226 E33.24913
G1 X61.054 Y89.409 E33.38212
G1 X61.693 Y88.64 E33.51514
G1 X62.392 Y87.925 E33.64817
G1 X63.145 Y87.267 E33.78121
G1 X63.949 Y86.673 E33.9142
G0 F6000 X64.905 Y87.243
G1 F1200 X65.74 Y86.771 E34.04181
G1 X66.611 Y86.37 E34.16938
G1 X67.513 Y86.044 E34.29698
G1 X68.438 Y85.793 E34.42449
G1 X69.382 Y85.62 E34.55217
G1 X70.656 Y85.514 E34.72225
G1 X70.977 Y85.505 E34.76497
G1 X71.299 Y85.5 E34.80782
G1 X111.793 Y85.5 E40.19516
G1 X112.659 Y85.511 E40.31038
G1 X113.616 Y85.565 E40.4379
G1 X114.566 Y85.698 E40.56553
G1 X115.501 Y85.91 E40.69308
G1 X116.416 Y86.199 E40.82074
G1 X117.303 Y86.563 E40.94829
G1 X118.156 Y87 E41.0758
G1 X118.971 Y87.506 E41.20343
G1 X119.74 Y88.079 E41.33101
G1 X120.317 Y88.58 E41.43268
G1 X120.552 Y88.798 E41.47532
G1 X122.492 Y90.551 E41.82318
G1 X124.396 Y92.176 E42.15621
G1 X126.344 Y93.748 E42.48923
G1 X128.326 Y95.254 E42.8204
G1 X130.392 Y96.736 E43.15867
G1 X132.41 Y98.097 E43.48249
G1 X134.569 Y99.467 E43.82268
G1 X136.704 Y100.738 E44.15324
G1 X138.904 Y101.965 E44.48838
G1 X141.1 Y103.109 E44.8178
G1 X143.394 Y104.224 E45.15713
G1 X145.637 Y105.236 E45.48451
G1 X147.957 Y106.205 E45.81901
G1 X150.308 Y107.112 E46.15425
G1 X152.732 Y107.964 E46.49608
G1 X153.173 Y108.113 E46.55801
G1 X154.068 Y108.457 E46.68558
G1 X154.931 Y108.875 E46.81315
G1 X155.757 Y109.364 E46.94086
G1 X156.538 Y109.919 E47.06832
G1 X157.271 Y110.538 E47.19596
G1 X157.949 Y111.216 E47.32353
G1 X158.569 Y111.947 E47.45105
G1 X159.126 Y112.728 E47.57867
G1 X159.615 Y113.553 E47.70626
G1 X160.035 Y114.415 E47.83383
G1 X160.38 Y115.31 E47.96144
G1 X160.651 Y116.23 E48.08904
G1 X160.843 Y117.169 E48.21655
G1 X160.957 Y118.121 E48.34411
G1 X160.987 Y118.687 E48.41952
G1 X160.996 Y119.01 E48.4625
G1 X161 Y119.33 E48.50508
G1 X160.999 Y122.406 E48.91431
G1 X160.99 Y123.133 E49.01104
G1 X160.938 Y124.091 E49.13868
G1 X160.807 Y125.041 E49.26627
G1 X160.597 Y125.976 E49.39376
G1 X160.309 Y126.891 E49.52138
G1 X159.947 Y127.779 E49.64896
G1 X159.512 Y128.634 E49.77658
G1 X159.007 Y129.449 E49.90414
G1 X158.435 Y130.219 E50.03175
G1 X157.802 Y130.939 E50.1593
G1 X157.111 Y131.604 E50.28688
G1 X156.367 Y132.209 E50.41446
G1 X155.575 Y132.75 E50.54207
G1 X154.741 Y133.223 E50.66963
G1 X153.87 Y133.625 E50.79725
G1 X152.969 Y133.952 E50.92477
G1 X152.044 Y134.204 E51.05232
G1 X151.1 Y134.378 E51.18002
G1 X149.813 Y134.486 E51.35185
G1 X149.492 Y134.495 E51.39457
G1 X149.17 Y134.5 E51.43742
G1 X135.043 Y134.499 E53.31688
G1 X134.34 Y134.489 E53.41042
G1 X133.383 Y134.435 E53.53794
G1 X132.433 Y134.302 E53.66556
G1 X131.498 Y134.09 E53.79311
G1 X130.584 Y133.801 E53.92064
G1 X129.697 Y133.437 E54.0482
G1 X128.843 Y133 E54.17583
G1 X128.029 Y132.494 E54.30334
G1 X127.415 Y132.045 E54.40454
G1 X126.58 Y131.391 E54.54565
G1 X124.534 Y129.834 E54.8877
G1 X122.467 Y128.351 E55.22615
G1 X120.425 Y126.973 E55.55389
G1 X118.297 Y125.622 E55.88924
G1 X116.158 Y124.347 E56.22053
G1 X113.954 Y123.116 E56.55639
G1 X111.741 Y121.962 E56.88843
G1 X109.509 Y120.877 E57.21861
G1 X107.202 Y119.835 E57.55539
G1 X104.878 Y118.862 E57.89058
G1 X102.546 Y117.966 E58.22294
G1 X100.231 Y117.149 E58.54955
G1 X97.802 Y116.368 E58.889
G1 X95.433 Y115.679 E59.21723
G1 X92.994 Y115.045 E59.5525
G1 X90.523 Y114.475 E59.88987
G1 X88.132 Y113.998 E60.21424
G1 X85.626 Y113.568 E60.55251
G1 X83.167 Y113.218 E60.88296
G1 X80.665 Y112.934 E61.21796
G1 X78.187 Y112.723 E61.54883
G1 X75.695 Y112.582 E61.8809
G1 X71.825 Y112.5 E62.39588
G1 X71.511 Y112.499 E62.43766
G1 X70.813 Y112.489 E62.53053
G1 X69.856 Y112.435 E62.65805
G1 X68.906 Y112.302 E62.78567
G1 X67.971 Y112.09 E62.91322
G1 X67.057 Y111.801 E63.04075
G1 X66.17 Y111.436 E63.16836
G1 X65.316 Y111 E63.29593
G1 X64.502 Y110.493 E63.42351
G1 X63.732 Y109.92 E63.5512
G1 X63.014 Y109.286 E63.67864
G1 X62.35 Y108.593 E63.80633
G1 X61.747 Y107.848 E63.93384
G1 X61.207 Y107.055 E64.06148
G1 X60.736 Y106.22 E64.18902
G1 X60.336 Y105.348 E64.31666
G1 X60.01 Y104.447 E64.44413
G1 X59.76 Y103.521 E64.57174
G1 X59.588 Y102.577 E64.69939
G1 X59.482 Y101.302 E64.86961
G1 X59.473 Y100.97 E64.91379
G1 X59.469 Y100.658 E64.9553
G1 X59.47 Y97.518 E65.37305
G1 X59.479 Y96.853 E65.46153
G1 X59.532 Y95.896 E65.58905
G1 X59.665 Y94.946 E65.71667
G1 X59.876 Y94.011 E65.84419
G1 X60.164 Y93.096 E65.97181
G1 X60.528 Y92.209 E66.09937
G1 X60.964 Y91.355 E66.22693
G1 X61.47 Y90.54 E66.35456
G1 X62.042 Y89.77 E66.48217
G1 X62.676 Y89.051 E66.60971
G1 X63.368 Y88.387 E66.7373
G1 X64.113 Y87.783 E66.86489
G1 X64.905 Y87.243 E66.99242
G0 F6000 X65.075 Y88.325
G1 F1200 X65.855 Y87.844 E67.11434
G1 X66.673 Y87.432 E67.23619
G1 X67.524 Y87.093 E67.35806
G1 X68.402 Y86.83 E67.48
G1 X69.299 Y86.644 E67.60187
G1 X70.209 Y86.537 E67.72377
G1 X70.684 Y86.513 E67.78705
G1 X71.005 Y86.504 E67.82977
G1 X71.299 Y86.5 E67.86889
G1 X111.793 Y86.5 E73.25623
G1 X112.645 Y86.511 E73.36959
G1 X113.559 Y86.564 E73.4914
G1 X114.466 Y86.697 E73.61336
G1 X115.358 Y86.908 E73.7353
G1 X116.227 Y87.196 E73.8571
G1 X117.069 Y87.559 E73.97909
G1 X117.875 Y87.993 E74.10087
G1 X118.641 Y88.497 E74.22286
G1 X119.637 Y89.313 E74.39416
G1 X119.908 Y89.564 E74.44331
G1 X121.825 Y91.297 E74.78711
G1 X123.748 Y92.939 E75.12353
G1 X125.727 Y94.535 E75.46176
G1 X127.75 Y96.071 E75.79969
G1 X129.805 Y97.546 E76.13623
G1 X131.886 Y98.95 E76.4702
G1 X134.011 Y100.298 E76.805
G1 X136.209 Y101.606 E77.14528
G1 X138.444 Y102.853 E77.48578
G1 X140.662 Y104.009 E77.81854
G1 X142.936 Y105.114 E78.1549
G1 X145.258 Y106.161 E78.49377
G1 X147.571 Y107.128 E78.8273
G1 X149.983 Y108.058 E79.17122
G1 X152.348 Y108.889 E79.50472
G1 X152.853 Y109.06 E79.57565
G1 X153.708 Y109.391 E79.69763
G1 X154.53 Y109.795 E79.81948
G1 X155.314 Y110.269 E79.94137
G1 X156.053 Y110.81 E80.06322
G1 X156.743 Y111.414 E80.18522
G1 X157.377 Y112.075 E80.30707
G1 X157.952 Y112.789 E80.42903
G1 X158.462 Y113.55 E80.55091
G1 X158.903 Y114.353 E80.67279
G1 X159.273 Y115.191 E80.79466
G1 X159.569 Y116.059 E80.91667
G1 X159.787 Y116.949 E81.03858
G1 X159.928 Y117.854 E81.16043
G1 X159.987 Y118.715 E81.27525
G1 X159.996 Y119.038 E81.31824
G1 X160 Y119.33 E81.35709
G1 X159.999 Y122.394 E81.76473
G1 X159.99 Y123.121 E81.86145
G1 X159.939 Y124.036 E81.98337
G1 X159.808 Y124.943 E82.10529
G1 X159.599 Y125.835 E82.22718
G1 X159.312 Y126.705 E82.34906
G1 X158.951 Y127.547 E82.47094
G1 X158.518 Y128.355 E82.5929
G1 X158.016 Y129.121 E82.71475
G1 X157.449 Y129.841 E82.83667
G1 X156.821 Y130.509 E82.95865
G1 X156.138 Y131.119 E83.08048
G1 X155.404 Y131.668 E83.20243
G1 X154.625 Y132.15 E83.3243
G1 X153.807 Y132.563 E83.44621
G1 X152.956 Y132.903 E83.56813
G1 X152.079 Y133.167 E83.68998
G1 X151.182 Y133.354 E83.81188
G1 X150.272 Y133.462 E83.9338
G1 X149.785 Y133.487 E83.99867
G1 X149.464 Y133.496 E84.0414
G1 X149.17 Y133.5 E84.08051
G1 X135.058 Y133.499 E85.95798
G1 X134.355 Y133.489 E86.05152
G1 X133.44 Y133.436 E86.17345
G1 X132.533 Y133.303 E86.29541
G1 X131.642 Y133.092 E86.41723
G1 X130.772 Y132.804 E86.53915
G1 X129.93 Y132.442 E86.66109
G1 X129.124 Y132.007 E86.78294
G1 X128.032 Y131.258 E86.95911
G1 X127.168 Y130.582 E87.10506
G1 X125.129 Y129.029 E87.44605
G1 X123.054 Y127.541 E87.78575
G1 X120.95 Y126.121 E88.12346
G1 X118.841 Y124.781 E88.45588
G1 X116.654 Y123.478 E88.79457
G1 X114.43 Y122.237 E89.1334
G1 X112.207 Y121.077 E89.46699
G1 X109.896 Y119.954 E89.80883
G1 X107.611 Y118.921 E90.14245
G1 X105.246 Y117.932 E90.48349
G1 X102.943 Y117.047 E90.81173
G1 X100.523 Y116.192 E91.15319
G1 X98.103 Y115.415 E91.49134
G1 X95.689 Y114.712 E91.82584
G1 X93.245 Y114.077 E92.16178
G1 X90.741 Y113.5 E92.50365
G1 X88.28 Y113.008 E92.83754
G1 X85.795 Y112.582 E93.17297
G1 X83.28 Y112.224 E93.51094
G1 X80.759 Y111.937 E93.8485
G1 X78.256 Y111.725 E94.18269
G1 X75.772 Y111.584 E94.5137
G1 X71.799 Y111.5 E95.04239
G1 X71.526 Y111.499 E95.07871
G1 X70.828 Y111.489 E95.17158
G1 X69.913 Y111.436 E95.29351
G1 X69.006 Y111.303 E95.41547
G1 X68.115 Y111.092 E95.53729
G1 X67.245 Y110.804 E95.65921
G1 X66.403 Y110.441 E95.7812
G1 X65.597 Y110.006 E95.90305
G1 X64.831 Y109.503 E96.02497
G1 X64.112 Y108.934 E96.14695
G1 X63.446 Y108.306 E96.26874
G1 X62.837 Y107.621 E96.39068
G1 X62.29 Y106.886 E96.51257
G1 X61.809 Y106.106 E96.63449
G1 X61.398 Y105.287 E96.7564
G1 X61.059 Y104.436 E96.87827
G1 X60.797 Y103.558 E97.00017
G1 X60.612 Y102.66 E97.12215
G1 X60.506 Y101.75 E97.24403
G1 X60.482 Y101.275 E97.30731
G1 X60.473 Y100.943 E97.35149
G1 X60.469 Y100.658 E97.38941
G1 X60.47 Y97.532 E97.8053
G1 X60.479 Y96.867 E97.89378
G1 X60.531 Y95.952 E98.01571
G1 X60.663 Y95.045 E98.13764
G1 X60.874 Y94.154 E98.25946
G1 X61.161 Y93.284 E98.38134
G1 X61.523 Y92.442 E98.50328
G1 X61.958 Y91.635 E98.62525
G1 X62.46 Y90.869 E98.74709
G1 X63.028 Y90.15 E98.86899
G1 X63.656 Y89.483 E98.99087
G1 X64.34 Y88.873 E99.1128
G1 X65.075 Y88.325 E99.23478
G1 F1500 E92.73478
;MESH:Nema Holder.stl
G0 F6000 X71.733 Y96.335
G0 X71.733 Y97.764
G0 X112.878 Y99.5
;TYPE:WALL-INNER
G1 F1500 E99.23478
G1 F1200 X111.673 Y99.5 E99.39509
G1 X72.469 Y99.5 E104.61081
G1 X72.469 Y98.5 E104.74385
G1 X111.878 Y98.5 E109.98685
G1 X112.878 Y99.5 E110.09446
G1 F1500 E103.59446
G0 F6000 X135.122 Y121.5
G1 F1500 E110.09446
G1 F1200 X134.122 Y120.5 E110.28261
G1 X135.327 Y120.5 E110.3624
G1 X148 Y120.5 E112.04842
G1 X148 Y121.5 E112.18146
G1 X135.122 Y121.5 E113.89476
G0 F6000 X134.85 Y122.158
G0 X134.708 Y122.5
;TYPE:WALL-OUTER
G1 F1200 X112.707 Y100.5 E118.0341
G1 X71.469 Y100.5 E123.52043
G1 X71.469 Y97.5 E123.91955
G1 X112.292 Y97.5 E129.35066
G1 X134.293 Y119.5 E133.49001
G1 X149 Y119.5 E135.44663
G1 X149 Y122.5 E135.84576
G1 X134.708 Y122.5 E137.74717
G0 F6000 X135.128 Y121.484
G0 X134.164 Y120.022
;TYPE:SKIN
G1 F1200 X113.407 Y99.265 E139.69986
G0 F6000 X113.2 Y99.765
G1 F1200 X133.76 Y120.325 E141.63402
G0 F6000 X133.807 Y120.673
;MESH:NONMESH
G0 F300 X133.807 Y120.673 Z0.64
G0 F6000 X112.878 Y99.5
;TIME_ELAPSED:63.161297
;LAYER:1
M106 S127.5
;TYPE:WALL-INNER
;MESH:Nema Holder.stl
G1 F1350 X111.673 Y99.5 E141.79434
G1 X72.152 Y99.5 E147.05223
G1 X72.153 Y98.5 E147.18527
G1 X111.878 Y98.5 E152.47031
G1 X112.878 Y99.5 E152.57792
G1 F1500 E146.07792
G0 F7500 X135.122 Y121.5
G1 F1500 E152.57792
G1 F1350 X134.122 Y120.5 E152.76607
G1 X135.327 Y120.5 E152.84586
G1 X148 Y120.5 E154.53188
G1 X148 Y121.5 E154.66492
G1 X135.122 Y121.5 E156.37822
G0 F7500 X134.85 Y122.158
G0 X134.708 Y122.5
;TYPE:WALL-OUTER
G1 F1350 X112.707 Y100.5 E160.51756
G1 X71.152 Y100.5 E166.04606
G1 X71.153 Y97.5 E166.44518
G1 X112.292 Y97.5 E171.91834
G1 X134.293 Y119.5 E176.05768
G1 X149 Y119.5 E178.01431
G1 X149 Y122.5 E178.41343
G1 X134.708 Y122.5 E180.31485
G0 F7500 X135.128 Y121.484
G0 X134.028 Y119.822
G0 X133.675 Y120.175
;TYPE:SKIN
G1 F1350 X133.321 Y119.822 E180.3804
G1 X116.351 Y102.851 E183.52763
G1 X113.522 Y100.023 E184.05219
G1 X112.877 Y99.961 E184.13716
G0 F7500 X112.772 Y99.747
;MESH:NONMESH
