;FLAVOR:Marlin
;TIME:8548
;Filament used: 18.7558m
;Layer height: 0.32
;MINX:36.121
;MINY:57.547
;MINZ:0.32
;MAXX:183.88
;MAXY:162.453
;MAXZ:55.68
;Generated with Cura_SteamEngine 4.12.1
M140 S60
M105
M190 S60
M104 S200
M105
M109 S200
M82 ;absolute extrusion mode
; Ender 3 Custom Start G-code
G92 E0 ; Reset Extruder
G28 ; Home all axes
G29 ; bed level adjust
G1 Z2.0 F3000 ; Move Z Axis up little to prevent scratching of Heat Bed
G1 X0.1 Y20 Z0.3 F5000.0 ; Move to start position
G1 X0.1 Y200.0 Z0.3 F1500.0 E15 ; Draw the first line
G1 X0.4 Y200.0 Z0.3 F5000.0 ; Move to side a little
G1 X0.4 Y20 Z0.3 F1500.0 E30 ; Draw the second line
G92 E0 ; Reset Extruder
G1 Z2.0 F3000 ; Move Z Axis up little to prevent scratching of Heat Bed
G1 X5 Y20 Z0.3 F5000.0 ; Move over to prevent blob squish
G92 E0
G92 E0
G1 F1500 E-6.5
;LAYER_COUNT:174
;LAYER:0
M107
G0 F6000 X43.347 Y83.691 Z0.32
;TYPE:SKIRT
G1 F1500 E0
G1 F1200 X44.269 Y83.305 E0.13298
G1 X44.8 Y83.121 E0.20774
G1 X45.218 Y82.988 E0.2661
G1 X47.172 Y82.387 E0.53808
G1 X49.516 Y81.593 E0.86734
G1 X51.866 Y80.723 E1.20072
G1 X54.123 Y79.812 E1.52453
G1 X56.389 Y78.823 E1.85346
G1 X58.672 Y77.75 E2.18907
G1 X60.852 Y76.647 E2.5141
G1 X63.044 Y75.462 E2.84562
G1 X65.157 Y74.237 E3.17056
G1 X67.272 Y72.933 E3.50112
G1 X69.341 Y71.575 E3.83038
G1 X71.105 Y70.333 E4.11739
G1 X71.204 Y70.269 E4.13308
G1 X79.192 Y64.654 E5.43209
G1 X79.763 Y64.263 E5.52416
G1 X80.609 Y63.732 E5.65705
G1 X81.496 Y63.27 E5.7901
G1 X82.324 Y62.915 E5.90996
G1 X83.179 Y62.585 E6.03188
G1 X83.385 Y62.508 E6.06114
G1 X91.721 Y59.458 E7.24207
G1 X92.495 Y59.186 E7.35122
G1 X93.451 Y58.893 E7.48424
G1 X94.427 Y58.678 E7.6172
G1 X95.292 Y58.555 E7.73344
G1 X96.195 Y58.458 E7.85427
G1 X96.418 Y58.436 E7.88408
G1 X105.396 Y57.635 E9.08326
G1 X106.083 Y57.583 E9.17492
G1 X107.082 Y57.547 E9.30792
G1 X108.081 Y57.592 E9.44096
G1 X108.957 Y57.697 E9.55834
G1 X109.859 Y57.838 E9.6798
G1 X110.077 Y57.874 E9.70919
G1 X118.936 Y59.421 E10.90563
G1 X119.626 Y59.551 E10.99905
G1 X120.601 Y59.775 E11.13214
G1 X121.554 Y60.077 E11.26514
G1 X122.376 Y60.407 E11.38299
G1 X123.399 Y60.862 E11.53194
G1 X131.601 Y64.669 E12.73495
G1 X132.2 Y64.956 E12.82332
G1 X133.084 Y65.424 E12.95639
G1 X134.33 Y66.252 E13.15543
G1 X134.875 Y66.663 E13.24624
G1 X136.961 Y68.193 E13.59041
G1 X138.979 Y69.585 E13.91656
G1 X141.049 Y70.929 E14.24491
G1 X143.18 Y72.229 E14.57701
G1 X145.327 Y73.456 E14.906
G1 X147.498 Y74.617 E15.23354
G1 X149.712 Y75.722 E15.56274
G1 X151.973 Y76.77 E15.89429
G1 X154.242 Y77.747 E16.22295
G1 X156.541 Y78.66 E16.55205
G1 X158.886 Y79.514 E16.88407
G1 X161.188 Y80.28 E17.20684
G1 X163.584 Y81.003 E17.5398
G1 X165.949 Y81.644 E17.8658
G1 X168.356 Y82.224 E18.19519
G1 X169.538 Y82.468 E18.35576
G1 X169.733 Y82.516 E18.38248
G1 X171.003 Y82.79 E18.55533
G1 X171.971 Y83.04 E18.68834
G1 X172.916 Y83.366 E18.82133
G1 X173.832 Y83.766 E18.95431
G1 X174.713 Y84.239 E19.08734
G1 X175.554 Y84.78 E19.22038
G1 X176.348 Y85.387 E19.35335
G1 X177.092 Y86.056 E19.48646
G1 X177.779 Y86.781 E19.61934
G1 X178.407 Y87.56 E19.75246
G1 X178.97 Y88.386 E19.88545
G1 X179.466 Y89.254 E20.01845
G1 X179.89 Y90.159 E20.15142
G1 X180.241 Y91.095 E20.28441
G1 X180.464 Y91.85 E20.38914
G1 X180.551 Y92.183 E20.43493
G1 X180.636 Y92.53 E20.48246
G1 X183.436 Y104.659 E22.13855
G1 X183.591 Y105.38 E22.23667
G1 X183.762 Y106.365 E22.36967
G1 X183.869 Y107.824 E22.5643
G1 X183.88 Y108.689 E22.67939
G1 X183.879 Y111.47 E23.04937
G1 X183.869 Y112.172 E23.14278
G1 X183.815 Y113.17 E23.27575
G1 X183.596 Y114.597 E23.46782
G1 X183.408 Y115.473 E23.58701
G1 X180.722 Y127.109 E25.17578
G1 X180.503 Y127.998 E25.29759
G1 X180.224 Y128.958 E25.4306
G1 X179.869 Y129.893 E25.56365
G1 X179.44 Y130.796 E25.69666
G1 X178.941 Y131.662 E25.82963
G1 X178.374 Y132.486 E25.9627
G1 X177.743 Y133.261 E26.09566
G1 X177.052 Y133.984 E26.22871
G1 X176.306 Y134.649 E26.36167
G1 X175.508 Y135.252 E26.49474
G1 X174.665 Y135.79 E26.62779
G1 X173.782 Y136.259 E26.7608
G1 X172.864 Y136.655 E26.89381
G1 X171.918 Y136.977 E27.02676
G1 X170.848 Y137.243 E27.17345
G1 X170.02 Y137.41 E27.28582
G1 X167.542 Y137.945 E27.62309
G1 X165.167 Y138.526 E27.94838
G1 X162.722 Y139.2 E28.2858
G1 X160.378 Y139.917 E28.61191
G1 X158.045 Y140.704 E28.93948
G1 X155.707 Y141.567 E29.27104
G1 X153.424 Y142.484 E29.59836
G1 X151.136 Y143.48 E29.93034
G1 X148.922 Y144.518 E30.25566
G1 X146.682 Y145.646 E30.58932
G1 X144.534 Y146.806 E30.9141
G1 X142.368 Y148.056 E31.24681
G1 X140.261 Y149.352 E31.57591
G1 X138.179 Y150.715 E31.90698
G1 X136.781 Y151.679 E32.1329
G1 X131.513 Y155.382 E32.98958
G1 X130.983 Y155.744 E33.07497
G1 X130.136 Y156.275 E33.20797
G1 X129.249 Y156.736 E33.34097
G1 X128.445 Y157.079 E33.45726
G1 X127.368 Y157.494 E33.61081
G1 X119.036 Y160.545 E34.79129
G1 X118.242 Y160.823 E34.90321
G1 X117.286 Y161.114 E35.03616
G1 X116.309 Y161.327 E35.16919
G1 X115.474 Y161.446 E35.2814
G1 X114.557 Y161.545 E35.40411
G1 X114.325 Y161.568 E35.43512
G1 X105.545 Y162.351 E36.60786
G1 X104.676 Y162.417 E36.7238
G1 X103.677 Y162.453 E36.85679
G1 X102.678 Y162.408 E36.98984
G1 X101.807 Y162.304 E37.10654
G1 X100.897 Y162.162 E37.22907
G1 X100.675 Y162.125 E37.25901
G1 X91.752 Y160.566 E38.46412
G1 X91.098 Y160.441 E38.5527
G1 X90.125 Y160.214 E38.68562
G1 X89.172 Y159.91 E38.81871
G1 X88.378 Y159.59 E38.9326
G1 X87.539 Y159.218 E39.0547
G1 X79.327 Y155.41 E40.25897
G1 X79.16 Y155.332 E40.2835
G1 X78.552 Y155.039 E40.37329
G1 X77.67 Y154.569 E40.50625
G1 X76.828 Y154.03 E40.63926
G1 X76.137 Y153.512 E40.75415
G1 X75.333 Y152.864 E40.89153
G1 X73.296 Y151.268 E41.23581
G1 X71.318 Y149.806 E41.56304
G1 X69.294 Y148.4 E41.89091
G1 X67.204 Y147.031 E42.22331
G1 X65.1 Y145.738 E42.55186
G1 X62.956 Y144.502 E42.8811
G1 X60.76 Y143.318 E43.21302
G1 X58.577 Y142.219 E43.53817
G1 X56.334 Y141.168 E43.86772
G1 X54.028 Y140.167 E44.20217
G1 X51.772 Y139.261 E44.52561
G1 X49.435 Y138.4 E44.85695
G1 X47.044 Y137.595 E45.1926
G1 X45.89 Y137.234 E45.35346
G1 X44.986 Y136.957 E45.47925
G1 X44.042 Y136.626 E45.61234
G1 X43.128 Y136.22 E45.74539
G1 X42.25 Y135.743 E45.87833
G1 X41.412 Y135.198 E46.01132
G1 X40.621 Y134.587 E46.14429
G1 X39.88 Y133.915 E46.27738
G1 X39.196 Y133.185 E46.41047
G1 X38.573 Y132.404 E46.54338
G1 X38.014 Y131.575 E46.6764
G1 X37.523 Y130.704 E46.80943
G1 X37.103 Y129.797 E46.9424
G1 X36.757 Y128.859 E47.07542
G1 X36.487 Y127.896 E47.20847
G1 X36.295 Y126.915 E47.34146
G1 X36.182 Y125.921 E47.47456
G1 X36.154 Y125.386 E47.54583
G1 X36.144 Y125.058 E47.58949
G1 X36.138 Y124.685 E47.63912
G1 X36.121 Y95.536 E51.51712
G1 X36.131 Y94.84 E51.60972
G1 X36.186 Y93.842 E51.7427
G1 X36.32 Y92.851 E51.87574
G1 X36.532 Y91.874 E52.00875
G1 X36.822 Y90.918 E52.14166
G1 X37.188 Y89.987 E52.27475
G1 X37.627 Y89.089 E52.40773
G1 X38.136 Y88.228 E52.5408
G1 X38.712 Y87.411 E52.67379
G1 X39.352 Y86.643 E52.80679
G1 X40.051 Y85.928 E52.93982
G1 X40.805 Y85.272 E53.07278
G1 X41.61 Y84.678 E53.20588
G1 X42.459 Y84.15 E53.33889
G1 X43.347 Y83.691 E53.47188
G0 F6000 X43.401 Y84.778
G1 F1200 X44.272 Y84.378 E53.5994
G1 X45.107 Y84.073 E53.71766
G1 X45.512 Y83.944 E53.77421
G1 X47.471 Y83.342 E54.04687
G1 X49.857 Y82.533 E54.38205
G1 X52.209 Y81.662 E54.71573
G1 X54.538 Y80.723 E55.04982
G1 X56.796 Y79.737 E55.37762
G1 X59.102 Y78.653 E55.71661
G1 X61.304 Y77.539 E56.04492
G1 X63.533 Y76.334 E56.38203
G1 X65.68 Y75.09 E56.71215
G1 X67.816 Y73.772 E57.04607
G1 X69.875 Y72.42 E57.37378
G1 X71.68 Y71.15 E57.6674
G1 X71.805 Y71.07 E57.68714
G1 X79.757 Y65.479 E58.9804
G1 X80.328 Y65.088 E59.07247
G1 X81.141 Y64.58 E59.20001
G1 X81.993 Y64.141 E59.32753
G1 X82.684 Y63.848 E59.42738
G1 X83.539 Y63.518 E59.54931
G1 X92.065 Y60.397 E60.75722
G1 X92.826 Y60.129 E60.86456
G1 X93.743 Y59.85 E60.99208
G1 X94.681 Y59.649 E61.1197
G1 X95.399 Y59.549 E61.21615
G1 X96.302 Y59.452 E61.33698
G1 X96.507 Y59.432 E61.36438
G1 X105.471 Y58.632 E62.56169
G1 X106.158 Y58.58 E62.65335
G1 X107.116 Y58.547 E62.78088
G1 X108.074 Y58.595 E62.9085
G1 X108.802 Y58.685 E63.00609
G1 X109.905 Y58.859 E63.15464
G1 X118.599 Y60.376 E64.32877
G1 X119.441 Y60.534 E64.44275
G1 X120.375 Y60.751 E64.57032
G1 X121.288 Y61.044 E64.69789
G1 X121.971 Y61.321 E64.79594
G1 X122.979 Y61.769 E64.9427
G1 X131.041 Y65.51 E66.12512
G1 X131.768 Y65.858 E66.23235
G1 X132.615 Y66.308 E66.35995
G1 X133.727 Y67.05 E66.5378
G1 X134.281 Y67.468 E66.63013
G1 X136.373 Y69.002 E66.97526
G1 X138.413 Y70.409 E67.30496
G1 X140.538 Y71.789 E67.64205
G1 X142.651 Y73.078 E67.97134
G1 X144.835 Y74.326 E68.306
G1 X147.055 Y75.514 E68.64098
G1 X149.293 Y76.631 E68.97375
G1 X151.543 Y77.674 E69.30369
G1 X153.855 Y78.669 E69.63855
G1 X156.207 Y79.603 E69.97523
G1 X158.523 Y80.446 E70.30313
G1 X160.899 Y81.237 E70.63629
G1 X163.308 Y81.965 E70.9711
G1 X165.746 Y82.625 E71.30713
G1 X168.127 Y83.198 E71.63294
G1 X169.336 Y83.448 E71.79719
G1 X169.522 Y83.494 E71.82268
G1 X170.792 Y83.768 E71.99553
G1 X171.72 Y84.009 E72.12309
G1 X172.625 Y84.326 E72.25066
G1 X173.5 Y84.718 E72.37822
G1 X174.34 Y85.181 E72.50583
G1 X175.138 Y85.713 E72.63342
G1 X175.889 Y86.309 E72.76098
G1 X176.588 Y86.966 E72.8886
G1 X177.23 Y87.678 E73.01615
G1 X177.81 Y88.442 E73.14376
G1 X178.324 Y89.251 E73.27128
G1 X178.769 Y90.101 E73.39892
G1 X179.142 Y90.984 E73.52645
G1 X179.497 Y92.103 E73.68264
G1 X179.584 Y92.436 E73.72842
G1 X179.662 Y92.755 E73.77211
G1 X182.42 Y104.698 E75.40283
G1 X182.613 Y105.59 E75.52425
G1 X182.775 Y106.535 E75.65181
G1 X182.869 Y107.838 E75.82561
G1 X182.88 Y108.689 E75.93884
G1 X182.879 Y111.456 E76.30696
G1 X182.869 Y112.158 E76.40037
G1 X182.815 Y113.115 E76.52789
G1 X182.618 Y114.389 E76.6994
G1 X182.476 Y115.056 E76.79012
G1 X179.747 Y126.884 E78.40507
G1 X179.532 Y127.757 E78.52468
G1 X179.263 Y128.678 E78.65233
G1 X178.918 Y129.573 E78.77994
G1 X178.5 Y130.435 E78.9074
G1 X178.011 Y131.26 E79.03499
G1 X177.455 Y132.042 E79.16264
G1 X176.836 Y132.774 E79.29018
G1 X176.158 Y133.453 E79.41784
G1 X175.426 Y134.072 E79.54538
G1 X174.645 Y134.628 E79.67292
G1 X173.82 Y135.118 E79.80058
G1 X172.957 Y135.536 E79.92815
G1 X172.063 Y135.882 E80.05569
G1 X171.143 Y136.152 E80.18325
G1 X170.65 Y136.263 E80.25048
G1 X169.837 Y136.427 E80.36082
G1 X167.311 Y136.972 E80.70461
G1 X164.906 Y137.56 E81.034
G1 X162.448 Y138.238 E81.37322
G1 X160.092 Y138.959 E81.70102
G1 X157.696 Y139.767 E82.03742
G1 X155.335 Y140.639 E82.37227
G1 X153.041 Y141.56 E82.70114
G1 X150.746 Y142.559 E83.03414
G1 X148.467 Y143.627 E83.36898
G1 X146.218 Y144.76 E83.70401
G1 X144.048 Y145.932 E84.03213
G1 X141.848 Y147.201 E84.37002
G1 X139.744 Y148.496 E84.69871
G1 X137.609 Y149.894 E85.03823
G1 X136.219 Y150.852 E85.26282
G1 X130.949 Y154.556 E86.11979
G1 X130.419 Y154.918 E86.20518
G1 X129.605 Y155.426 E86.33284
G1 X128.752 Y155.864 E86.46041
G1 X128.084 Y156.147 E86.55693
G1 X127.221 Y156.481 E86.68004
G1 X127.024 Y156.555 E86.70804
G1 X118.519 Y159.668 E87.91296
G1 X117.913 Y159.879 E87.99833
G1 X116.995 Y160.156 E88.1259
G1 X116.058 Y160.356 E88.25337
G1 X115.366 Y160.452 E88.34631
G1 X114.449 Y160.551 E88.46902
G1 X114.237 Y160.572 E88.49736
G1 X105.457 Y161.355 E89.67009
G1 X104.601 Y161.42 E89.7843
G1 X103.643 Y161.453 E89.91183
G1 X102.685 Y161.405 E90.03944
G1 X101.961 Y161.315 E90.13651
G1 X100.847 Y161.14 E90.28653
G1 X91.94 Y159.584 E91.48947
G1 X91.286 Y159.459 E91.57805
G1 X90.352 Y159.239 E91.70571
G1 X89.44 Y158.943 E91.83328
G1 X88.784 Y158.676 E91.9275
G1 X87.945 Y158.304 E92.0496
G1 X79.748 Y154.503 E93.25168
G1 X78.987 Y154.138 E93.36397
G1 X78.141 Y153.686 E93.49157
G1 X77.336 Y153.165 E93.61915
G1 X76.764 Y152.733 E93.71451
G1 X75.953 Y152.079 E93.85312
G1 X73.89 Y150.463 E94.20176
G1 X71.911 Y149.001 E94.5291
G1 X69.842 Y147.563 E94.86432
G1 X67.746 Y146.19 E95.19767
G1 X65.619 Y144.884 E95.52973
G1 X63.442 Y143.628 E95.86411
G1 X61.223 Y142.432 E96.19948
G1 X59.017 Y141.321 E96.52808
G1 X56.722 Y140.246 E96.86525
G1 X54.439 Y139.254 E97.19641
G1 X52.131 Y138.328 E97.52726
G1 X49.753 Y137.452 E97.86442
G1 X47.373 Y136.65 E98.19855
G1 X46.117 Y136.257 E98.37363
G1 X45.279 Y136 E98.49025
G1 X44.374 Y135.681 E98.61791
G1 X43.5 Y135.288 E98.7454
G1 X42.661 Y134.824 E98.87296
G1 X41.864 Y134.291 E99.00051
G1 X41.114 Y133.693 E99.12813
G1 X40.416 Y133.035 E99.25575
G1 X39.776 Y132.321 E99.38332
G1 X39.197 Y131.557 E99.51085
G1 X38.684 Y130.747 E99.63841
G1 X38.24 Y129.896 E99.76611
G1 X37.869 Y129.012 E99.89365
G1 X37.572 Y128.1 E100.02126
G1 X37.353 Y127.167 E100.14876
G1 X37.212 Y126.218 E100.2764
G1 X37.153 Y125.355 E100.39148
G1 X37.143 Y125.027 E100.43514
G1 X37.138 Y124.684 E100.48078
G1 X37.121 Y95.551 E104.35665
G1 X37.131 Y94.855 E104.44925
G1 X37.185 Y93.897 E104.57691
G1 X37.318 Y92.948 E104.7044
G1 X37.53 Y92.012 E104.83208
G1 X37.819 Y91.098 E104.95961
G1 X38.184 Y90.211 E105.08722
G1 X38.621 Y89.357 E105.21485
G1 X39.127 Y88.543 E105.34236
G1 X39.7 Y87.774 E105.46995
G1 X40.335 Y87.055 E105.59757
G1 X41.027 Y86.392 E105.72507
G1 X41.772 Y85.788 E105.85266
G1 X42.565 Y85.249 E105.98023
G1 X43.401 Y84.778 E106.10789
G0 F6000 X44.333 Y85.439
G1 F1200 X45.413 Y85.025 E106.26177
G1 X45.806 Y84.899 E106.31667
G1 X47.801 Y84.286 E106.59433
G1 X50.198 Y83.473 E106.93108
G1 X52.553 Y82.601 E107.26518
G1 X54.922 Y81.646 E107.60499
G1 X57.219 Y80.643 E107.93845
G1 X59.531 Y79.556 E108.27834
G1 X61.798 Y78.41 E108.61629
G1 X63.995 Y77.221 E108.94864
G1 X66.202 Y75.943 E109.28794
G1 X68.36 Y74.612 E109.62525
G1 X70.445 Y73.242 E109.95717
G1 X72.256 Y71.968 E110.25175
G1 X72.366 Y71.898 E110.26909
G1 X80.322 Y66.305 E111.56294
G1 X80.893 Y65.914 E111.65501
G1 X81.67 Y65.429 E111.77687
G1 X82.488 Y65.015 E111.89884
G1 X83.044 Y64.781 E111.97909
G1 X84.072 Y64.386 E112.12561
G1 X92.545 Y61.287 E113.32589
G1 X93.156 Y61.073 E113.41202
G1 X94.033 Y60.808 E113.53391
G1 X94.93 Y60.621 E113.65581
G1 X95.506 Y60.543 E113.73314
G1 X96.409 Y60.446 E113.85397
G1 X105.405 Y59.641 E115.05558
G1 X106.234 Y59.577 E115.1662
G1 X107.149 Y59.548 E115.288
G1 X108.064 Y59.598 E115.40991
G1 X108.648 Y59.673 E115.48824
G1 X109.733 Y59.844 E115.63437
G1 X118.427 Y61.361 E116.80851
G1 X119.256 Y61.517 E116.92073
G1 X120.148 Y61.725 E117.04259
G1 X121.019 Y62.011 E117.16455
G1 X121.566 Y62.235 E117.24319
G1 X122.558 Y62.676 E117.38762
G1 X130.62 Y66.417 E118.57004
G1 X131.336 Y66.76 E118.67567
G1 X132.144 Y67.191 E118.7975
G1 X133.125 Y67.849 E118.95465
G1 X133.627 Y68.228 E119.03834
G1 X135.808 Y69.827 E119.39813
G1 X137.871 Y71.25 E119.73155
G1 X139.987 Y72.624 E120.0672
G1 X142.165 Y73.953 E120.40665
G1 X144.343 Y75.198 E120.74041
G1 X146.597 Y76.403 E121.08045
G1 X148.845 Y77.525 E121.41471
G1 X151.147 Y78.592 E121.75227
G1 X153.48 Y79.596 E122.09017
G1 X155.843 Y80.535 E122.42846
G1 X158.192 Y81.39 E122.76103
G1 X160.61 Y82.195 E123.10008
G1 X163.009 Y82.919 E123.43346
G1 X165.492 Y83.592 E123.77572
G1 X167.904 Y84.173 E124.10579
G1 X169.134 Y84.427 E124.27288
G1 X169.331 Y84.477 E124.29992
G1 X170.581 Y84.746 E124.47003
G1 X171.468 Y84.977 E124.59197
G1 X172.331 Y85.286 E124.71393
G1 X173.163 Y85.668 E124.83573
G1 X173.96 Y86.121 E124.95769
G1 X174.713 Y86.643 E125.07959
G1 X175.419 Y87.228 E125.20157
G1 X176.07 Y87.872 E125.3234
G1 X176.663 Y88.57 E125.44525
G1 X177.193 Y89.318 E125.56721
G1 X177.656 Y90.109 E125.68915
G1 X178.048 Y90.937 E125.81103
G1 X178.366 Y91.796 E125.93289
G1 X178.529 Y92.356 E126.01048
G1 X178.616 Y92.689 E126.05627
G1 X178.688 Y92.98 E126.09615
G1 X181.446 Y104.923 E127.72687
G1 X181.635 Y105.8 E127.84623
G1 X181.789 Y106.704 E127.96823
G1 X181.869 Y107.853 E128.12146
G1 X181.88 Y108.689 E128.23269
G1 X181.879 Y111.442 E128.59896
G1 X181.869 Y112.144 E128.69236
G1 X181.816 Y113.058 E128.81416
G1 X181.64 Y114.18 E128.96526
G1 X181.459 Y115.023 E129.07997
G1 X178.734 Y126.823 E130.69116
G1 X178.562 Y127.517 E130.78629
G1 X178.303 Y128.396 E130.9082
G1 X177.968 Y129.249 E131.03012
G1 X177.56 Y130.069 E131.15197
G1 X177.082 Y130.851 E131.27391
G1 X176.538 Y131.589 E131.39588
G1 X175.932 Y132.276 E131.51776
G1 X175.268 Y132.907 E131.63962
G1 X174.552 Y133.478 E131.76146
