;FLAVOR:Marlin
;TIME:510
;Filament used: 1.27002m
;Layer height: 0.32
;MINX:38.606
;MINY:69
;MINZ:0.32
;MAXX:196.682
;MAXY:153.486
;MAXZ:1.92
;Generated with Cura_SteamEngine 4.12.1
M140 S60
M105
M190 S60
M104 S200
M105
M109 S200
M82 ;absolute extrusion mode
; Ender 3 Custom Start G-code
G92 E0 ; Reset Extruder
G28 ; Home all axes
G29 ; bed level adjust
G1 Z2.0 F3000 ; Move Z Axis up little to prevent scratching of Heat Bed
G1 X0.1 Y20 Z0.3 F5000.0 ; Move to start position
G1 X0.1 Y200.0 Z0.3 F1500.0 E15 ; Draw the first line
G1 X0.4 Y200.0 Z0.3 F5000.0 ; Move to side a little
G1 X0.4 Y20 Z0.3 F1500.0 E30 ; Draw the second line
G92 E0 ; Reset Extruder
G1 Z2.0 F3000 ; Move Z Axis up little to prevent scratching of Heat Bed
G1 X5 Y20 Z0.3 F5000.0 ; Move over to prevent blob squish
G92 E0
G92 E0
G1 F1500 E-6.5
;LAYER_COUNT:6
;LAYER:0
M107
G0 F6000 X48.389 Y74.556 Z0.32
;TYPE:SKIRT
G1 F1500 E0
G1 F1200 X49.105 Y74.108 E0.11237
G1 X50.872 Y73.136 E0.38067
G1 X51.646 Y72.766 E0.4948
G1 X53.427 Y72.037 E0.75083
G1 X53.716 Y71.925 E0.79207
G1 X54.454 Y71.658 E0.89648
G1 X54.951 Y71.498 E0.96594
G1 X57.064 Y70.896 E1.25824
G1 X57.631 Y70.758 E1.33588
G1 X60.451 Y70.187 E1.71867
G1 X60.925 Y70.107 E1.78262
G1 X64.509 Y69.618 E2.26385
G1 X64.885 Y69.576 E2.31419
G1 X68.809 Y69.241 E2.83814
G1 X69.156 Y69.22 E2.88439
G1 X74.664 Y69.006 E3.61773
G1 X75 Y69 E3.66244
G1 X80.696 Y69.034 E4.42025
G1 X81.009 Y69.043 E4.46191
G1 X86.345 Y69.298 E5.17262
G1 X86.662 Y69.319 E5.21489
G1 X91.484 Y69.755 E5.85903
G1 X91.838 Y69.796 E5.90644
G1 X95.708 Y70.332 E6.42622
G1 X96.107 Y70.398 E6.48002
G1 X99.181 Y70.994 E6.89661
G1 X99.67 Y71.106 E6.96335
G1 X101.966 Y71.713 E7.2793
G1 X102.602 Y71.912 E7.36796
G1 X104.563 Y72.622 E7.64543
G1 X105.42 Y72.994 E7.76972
G1 X106.27 Y73.428 E7.89669
G1 X107.288 Y73.769 E8.03953
G1 X108.353 Y74.22 E8.1934
G1 X109.682 Y74.908 E8.39249
G1 X110.35 Y75.299 E8.49547
G1 X110.67 Y75.52 E8.54721
G1 X111.863 Y76.395 E8.74404
G1 X112.463 Y76.885 E8.8471
G1 X112.748 Y77.157 E8.89952
G1 X113.789 Y78.205 E9.09604
G1 X114.306 Y78.782 E9.19911
G1 X114.552 Y79.106 E9.25323
G1 X115.44 Y80.338 E9.45527
G1 X115.86 Y80.988 E9.55823
G1 X116.048 Y81.337 E9.61097
G1 X116.758 Y82.74 E9.82017
G1 X117.198 Y83.806 E9.9736
G1 X117.712 Y85.386 E10.19464
G1 X117.972 Y86.437 E10.33868
G1 X118.274 Y88.196 E10.57613
G1 X118.378 Y89.207 E10.71134
G1 X118.444 Y91.121 E10.96613
G1 X118.434 Y91.835 E11.06113
G1 X116.002 Y131.744 E16.3805
G1 X115.883 Y132.696 E16.50814
G1 X115.762 Y133.329 E16.59387
G1 X115.647 Y133.834 E16.66278
G1 X115.104 Y135.892 E16.94595
G1 X114.835 Y136.715 E17.06114
G1 X114.114 Y138.555 E17.32406
G1 X113.724 Y139.394 E17.44715
G1 X112.831 Y141.041 E17.6964
G1 X112.304 Y141.877 E17.82788
G1 X111.248 Y143.329 E18.06674
G1 X110.583 Y144.121 E18.20432
G1 X109.373 Y145.377 E18.43635
G1 X108.597 Y146.078 E18.57548
G1 X107.29 Y147.102 E18.79637
G1 X106.412 Y147.695 E18.93733
G1 X104.921 Y148.555 E19.16632
G1 X103.936 Y149.031 E19.31187
G1 X102.3 Y149.679 E19.54597
G1 X101.274 Y150.002 E19.68908
G1 X99.521 Y150.419 E19.92881
G1 X98.492 Y150.59 E20.06758
G1 X96.687 Y150.761 E20.3088
G1 X96.115 Y150.793 E20.38501
G1 X88.004 Y150.938 E21.46428
G1 X78.468 Y151 E22.73298
G1 X78.289 Y150.999 E22.75679
G1 X71.402 Y150.88 E23.67318
G1 X71.195 Y150.873 E23.70074
G1 X64.779 Y150.584 E24.55519
G1 X64.532 Y150.569 E24.58811
G1 X58.049 Y150.063 E25.45324
G1 X57.452 Y149.992 E25.53322
G1 X55.865 Y149.739 E25.74702
G1 X54.85 Y149.504 E25.88563
G1 X53.256 Y149.016 E26.10741
G1 X52.201 Y148.604 E26.25809
G1 X50.721 Y147.892 E26.47659
G1 X49.752 Y147.333 E26.62542
G1 X48.518 Y146.493 E26.82402
G1 X47.688 Y145.838 E26.96469
G1 X46.568 Y144.818 E27.16623
G1 X45.863 Y144.082 E27.30182
G1 X44.857 Y142.878 E27.51055
G1 X44.291 Y142.105 E27.63802
G1 X43.397 Y140.705 E27.85901
G1 X42.956 Y139.913 E27.97961
G1 X42.188 Y138.312 E28.21585
G1 X41.878 Y137.565 E28.32345
G1 X41.234 Y135.741 E28.58079
G1 X41.027 Y135.052 E28.67651
G1 X40.544 Y133.108 E28.943
G1 X40.397 Y132.348 E29.04598
G1 X40.33 Y131.619 E29.14338
G1 X38.611 Y91.182 E34.528
G1 X38.606 Y90.705 E34.59146
G1 X38.627 Y89.711 E34.72373
G1 X38.723 Y88.66 E34.86414
G1 X38.94 Y87.332 E35.04316
G1 X39.211 Y86.219 E35.19556
G1 X39.636 Y84.914 E35.37816
G1 X40.052 Y83.896 E35.52446
G1 X40.715 Y82.563 E35.72253
G1 X41.219 Y81.699 E35.85561
G1 X42.124 Y80.362 E36.0704
G1 X42.692 Y79.625 E36.19419
G1 X43.839 Y78.315 E36.42584
G1 X44.457 Y77.688 E36.54296
G1 X45.925 Y76.363 E36.80606
G1 X46.619 Y75.808 E36.92428
G1 X48.389 Y74.556 E37.21272
G0 F6000 X48.966 Y75.372
G1 F1200 X49.587 Y74.984 E37.31014
G1 X51.354 Y74.012 E37.57844
G1 X52.025 Y73.691 E37.6774
G1 X53.806 Y72.962 E37.93342
G1 X54.057 Y72.866 E37.96918
G1 X54.795 Y72.599 E38.07359
G1 X55.225 Y72.46 E38.13371
G1 X57.338 Y71.858 E38.42601
G1 X57.829 Y71.738 E38.49326
G1 X60.649 Y71.167 E38.87604
G1 X61.06 Y71.098 E38.93149
G1 X64.644 Y70.609 E39.41272
G1 X64.97 Y70.573 E39.45636
G1 X68.894 Y70.238 E39.98031
G1 X69.195 Y70.219 E40.02043
G1 X74.703 Y70.005 E40.75377
G1 X74.994 Y70 E40.7925
G1 X80.69 Y70.034 E41.55031
G1 X80.961 Y70.041 E41.58637
G1 X86.297 Y70.296 E42.29709
G1 X86.572 Y70.315 E42.33376
G1 X91.394 Y70.751 E42.9779
G1 X91.701 Y70.786 E43.01901
G1 X95.571 Y71.322 E43.53879
G1 X95.916 Y71.38 E43.58533
G1 X98.99 Y71.976 E44.00192
G1 X99.414 Y72.073 E44.05978
G1 X101.71 Y72.68 E44.37574
G1 X102.262 Y72.852 E44.45266
G1 X104.223 Y73.562 E44.73012
G1 X104.965 Y73.885 E44.83779
G1 X105.879 Y74.351 E44.97428
G1 X106.97 Y74.717 E45.12738
G1 X107.893 Y75.108 E45.26074
G1 X109.222 Y75.796 E45.45984
G1 X110.078 Y76.327 E45.59385
G1 X111.271 Y77.202 E45.79068
G1 X112.039 Y77.862 E45.9254
G1 X113.08 Y78.91 E46.12192
G1 X113.741 Y79.69 E46.25795
G1 X114.629 Y80.922 E46.45999
G1 X115.156 Y81.788 E46.59486
G1 X115.866 Y83.191 E46.80406
G1 X116.247 Y84.115 E46.93703
G1 X116.761 Y85.695 E47.15807
G1 X116.986 Y86.606 E47.28292
G1 X117.288 Y88.365 E47.52036
G1 X117.378 Y89.241 E47.63751
G1 X117.444 Y91.155 E47.89231
G1 X117.436 Y91.774 E47.97466
G1 X115.004 Y131.683 E53.29403
G1 X114.9 Y132.508 E53.40466
G1 X114.779 Y133.141 E53.4904
G1 X114.68 Y133.579 E53.55014
G1 X114.137 Y135.637 E53.8333
G1 X113.904 Y136.35 E53.9331
G1 X113.183 Y138.19 E54.19602
G1 X112.845 Y138.917 E54.30268
G1 X111.952 Y140.564 E54.55193
G1 X111.495 Y141.289 E54.66595
G1 X110.439 Y142.741 E54.90481
G1 X109.863 Y143.428 E55.02408
G1 X108.653 Y144.684 E55.25611
G1 X107.981 Y145.291 E55.37659
G1 X106.674 Y146.315 E55.59748
G1 X105.913 Y146.829 E55.71966
G1 X104.422 Y147.689 E55.94865
G1 X103.568 Y148.101 E56.0748
G1 X101.932 Y148.749 E56.3089
G1 X101.042 Y149.03 E56.43307
G1 X99.289 Y149.447 E56.6728
G1 X98.398 Y149.594 E56.79294
G1 X96.593 Y149.765 E57.03416
G1 X96.097 Y149.793 E57.10025
G1 X87.997 Y149.938 E58.17805
G1 X78.461 Y150 E59.44675
G1 X78.307 Y149.999 E59.46724
G1 X71.42 Y149.88 E60.38363
G1 X71.24 Y149.874 E60.40759
G1 X64.824 Y149.585 E61.26204
G1 X64.61 Y149.572 E61.29056
G1 X58.127 Y149.066 E62.15569
G1 X57.61 Y149.005 E62.22495
G1 X56.023 Y148.752 E62.43875
G1 X55.143 Y148.548 E62.55893
G1 X53.549 Y148.06 E62.78071
G1 X52.634 Y147.702 E62.91143
G1 X51.154 Y146.99 E63.12993
G1 X50.314 Y146.506 E63.25891
G1 X49.08 Y145.666 E63.45751
G1 X48.361 Y145.099 E63.57933
G1 X47.241 Y144.079 E63.78087
G1 X46.63 Y143.441 E63.89839
G1 X45.624 Y142.237 E64.10713
G1 X45.134 Y141.567 E64.21756
G1 X44.24 Y140.167 E64.43855
G1 X43.857 Y139.48 E64.54319
G1 X43.089 Y137.879 E64.77943
G1 X42.821 Y137.232 E64.8726
G1 X42.177 Y135.408 E65.12995
G1 X41.998 Y134.811 E65.21287
G1 X41.515 Y132.867 E65.47936
G1 X41.38 Y132.159 E65.57525
G1 X41.329 Y131.576 E65.65311
G1 X39.61 Y91.139 E71.03773
G1 X39.605 Y90.726 E71.09268
G1 X39.626 Y89.732 E71.22495
G1 X39.71 Y88.821 E71.34666
G1 X39.927 Y87.493 E71.52568
G1 X40.161 Y86.528 E71.65779
G1 X40.586 Y85.223 E71.84038
G1 X40.947 Y84.341 E71.96717
G1 X41.61 Y83.008 E72.16524
G1 X42.047 Y82.259 E72.28061
G1 X42.952 Y80.922 E72.4954
G1 X43.445 Y80.284 E72.60267
G1 X44.592 Y78.974 E72.83432
G1 X45.127 Y78.431 E72.93573
G1 X46.595 Y77.106 E73.19882
G1 X47.196 Y76.624 E73.30132
G1 X48.966 Y75.372 E73.58976
G0 F6000 X49.544 Y76.189
G1 F1200 X50.069 Y75.86 E73.67218
G1 X51.836 Y74.888 E73.94049
G1 X52.404 Y74.617 E74.02421
G1 X54.185 Y73.888 E74.28024
G1 X54.397 Y73.806 E74.31048
G1 X55.135 Y73.539 E74.41489
G1 X55.499 Y73.421 E74.4658
G1 X57.612 Y72.819 E74.7581
G1 X58.027 Y72.718 E74.81493
G1 X60.847 Y72.147 E75.19771
G1 X61.195 Y72.088 E75.24467
G1 X64.779 Y71.599 E75.72591
G1 X65.055 Y71.569 E75.76284
G1 X68.979 Y71.234 E76.28679
G1 X69.233 Y71.218 E76.32065
G1 X74.741 Y71.004 E77.05399
G1 X74.988 Y71 E77.08686
G1 X80.684 Y71.034 E77.84467
G1 X80.914 Y71.04 E77.87528
G1 X86.25 Y71.295 E78.58599
G1 X86.482 Y71.311 E78.61693
G1 X91.304 Y71.747 E79.26107
G1 X91.564 Y71.777 E79.29589
G1 X95.434 Y72.313 E79.81567
G1 X95.726 Y72.362 E79.85506
G1 X98.8 Y72.958 E80.27165
G1 X99.159 Y73.04 E80.32064
G1 X101.455 Y73.647 E80.63659
G1 X101.921 Y73.793 E80.70156
G1 X103.882 Y74.503 E80.97903
G1 X104.51 Y74.775 E81.07008
G1 X105.493 Y75.277 E81.21692
G1 X106.652 Y75.665 E81.37953
G1 X107.434 Y75.996 E81.4925
G1 X108.763 Y76.684 E81.6916
G1 X109.487 Y77.133 E81.80494
G1 X110.68 Y78.008 E82.00177
G1 X111.329 Y78.567 E82.11573
G1 X112.37 Y79.615 E82.31225
G1 X112.93 Y80.275 E82.42741
G1 X113.818 Y81.507 E82.62945
G1 X114.263 Y82.24 E82.74353
G1 X114.973 Y83.643 E82.95273
G1 X115.296 Y84.425 E83.06529
G1 X115.81 Y86.005 E83.28634
G1 X116.001 Y86.775 E83.39189
G1 X116.303 Y88.534 E83.62933
G1 X116.379 Y89.275 E83.72843
G1 X116.445 Y91.189 E83.98322
G1 X116.438 Y91.714 E84.05307
G1 X114.006 Y131.623 E89.37244
G1 X113.918 Y132.321 E89.46603
G1 X113.797 Y132.954 E89.55177
G1 X113.713 Y133.324 E89.60225
G1 X113.17 Y135.382 E89.88542
G1 X112.973 Y135.986 E89.96994
G1 X112.252 Y137.826 E90.23286
G1 X111.966 Y138.441 E90.32309
G1 X111.073 Y140.088 E90.57235
G1 X110.686 Y140.701 E90.66879
G1 X109.63 Y142.153 E90.90765
G1 X109.143 Y142.734 E91.00851
G1 X107.933 Y143.99 E91.24054
G1 X107.364 Y144.503 E91.34246
G1 X106.057 Y145.527 E91.56336
G1 X105.413 Y145.962 E91.66675
G1 X103.922 Y146.822 E91.89575
G1 X103.199 Y147.171 E92.00255
G1 X101.563 Y147.819 E92.23666
G1 X100.811 Y148.057 E92.3416
G1 X99.058 Y148.474 E92.58133
G1 X98.304 Y148.598 E92.68299
G1 X96.499 Y148.769 E92.9242
G1 X96.079 Y148.793 E92.98017
G1 X87.991 Y148.938 E94.05637
G1 X78.455 Y149 E95.32507
G1 X71.437 Y148.88 E96.25889
G1 X71.285 Y148.875 E96.27912
G1 X64.869 Y148.586 E97.13358
G1 X64.688 Y148.575 E97.1577
G1 X58.205 Y148.069 E98.02282
G1 X57.767 Y148.017 E98.08151
G1 X56.18 Y147.764 E98.29531
G1 X55.436 Y147.592 E98.3969
G1 X53.842 Y147.104 E98.61868
G1 X53.068 Y146.801 E98.72927
G1 X51.588 Y146.089 E98.94777
G1 X50.877 Y145.68 E99.05689
G1 X49.643 Y144.84 E99.25549
G1 X49.035 Y144.359 E99.35863
G1 X47.915 Y143.339 E99.56017
G1 X47.397 Y142.8 E99.65962
G1 X46.391 Y141.596 E99.86836
G1 X45.977 Y141.029 E99.96176
G1 X45.083 Y139.629 E100.18276
G1 X44.759 Y139.048 E100.27126
G1 X43.991 Y137.447 E100.5075
G1 X43.764 Y136.899 E100.58641
G1 X43.12 Y135.075 E100.84376
G1 X42.968 Y134.57 E100.91392
G1 X42.485 Y132.626 E101.18041
G1 X42.364 Y131.974 E101.26864
G1 X42.328 Y131.534 E101.32737
G1 X40.609 Y91.097 E106.71199
G1 X40.605 Y90.747 E106.75856
G1 X40.626 Y89.753 E106.89083
G1 X40.697 Y88.982 E106.99384
G1 X40.914 Y87.654 E107.17286
G1 X41.112 Y86.838 E107.28457
G1 X41.537 Y85.533 E107.46716
G1 X41.842 Y84.787 E107.57438
G1 X42.505 Y83.454 E107.77245
G1 X42.875 Y82.82 E107.87011
G1 X43.78 Y81.483 E108.08491
G1 X44.197 Y80.943 E108.17568
G1 X45.344 Y79.633 E108.40732
G1 X45.797 Y79.173 E108.49321
G1 X47.265 Y77.848 E108.75631
G1 X47.774 Y77.441 E108.84301
G1 X49.544 Y76.189 E109.13145
G0 F6000 X50.121 Y77.005
G1 F1200 X50.551 Y76.736 E109.19893
G1 X52.318 Y75.764 E109.46723
G1 X52.782 Y75.542 E109.53566
G1 X54.563 Y74.813 E109.79169
G1 X54.737 Y74.746 E109.8165
G1 X55.475 Y74.479 E109.92091
G1 X55.773 Y74.383 E109.96256
G1 X57.886 Y73.781 E110.25486
G1 X58.226 Y73.699 E110.30139
G1 X61.046 Y73.128 E110.68418
G1 X61.331 Y73.079 E110.72265
G1 X64.915 Y72.59 E111.20389
G1 X65.14 Y72.565 E111.23401
G1 X69.064 Y72.23 E111.75796
G1 X69.272 Y72.217 E111.78568
G1 X74.78 Y72.003 E112.51902
G1 X74.982 Y72 E112.5459
G1 X80.678 Y72.034 E113.30371
G1 X80.866 Y72.039 E113.32873
G1 X86.202 Y72.294 E114.03945
G1 X86.392 Y72.307 E114.06478
G1 X91.214 Y72.743 E114.70892
G1 X91.426 Y72.768 E114.73732
G1 X95.296 Y73.304 E115.2571
G1 X95.536 Y73.343 E115.28945
G1 X98.61 Y73.939 E115.70604
G1 X98.903 Y74.006 E115.74602
G1 X101.199 Y74.613 E116.06198
G1 X101.581 Y74.733 E116.11525
G1 X103.542 Y75.443 E116.39271
G1 X104.056 Y75.666 E116.46726
G1 X105.102 Y76.2 E116.6235
G1 X106.335 Y76.613 E116.7965
G1 X106.974 Y76.884 E116.88884
G1 X108.303 Y77.572 E117.08794
G1 X108.895 Y77.939 E117.18061
G1 X110.088 Y78.814 E117.37744
G1 X110.62 Y79.272 E117.47083
G1 X111.661 Y80.32 E117.66735
G1 X112.119 Y80.86 E117.76155
G1 X113.007 Y82.092 E117.9636
G1 X113.371 Y82.691 E118.05685
G1 X114.081 Y84.094 E118.26605
G1 X114.345 Y84.734 E118.35815
G1 X114.859 Y86.314 E118.5792
G1 X115.015 Y86.945 E118.66567
G1 X115.317 Y88.704 E118.90312
G1 X115.379 Y89.31 E118.98416
G1 X115.445 Y91.224 E119.23895
G1 X115.44 Y91.653 E119.29603
G1 X113.008 Y131.562 E124.61539
G1 X112.936 Y132.133 E124.69196
G1 X112.815 Y132.766 E124.7777
G1 X112.746 Y133.069 E124.81904
G1 X112.203 Y135.127 E125.10221
G1 X112.042 Y135.621 E125.17134
G1 X111.321 Y137.461 E125.43425
G1 X111.087 Y137.964 E125.50806
G1 X110.194 Y139.611 E125.75731
G1 X109.877 Y140.113 E125.8363
G1 X108.821 Y141.565 E126.07516
G1 X108.423 Y142.04 E126.15761
G1 X107.213 Y143.296 E126.38963
G1 X106.747 Y143.716 E126.47309
G1 X105.44 Y144.74 E126.69399
G1 X104.913 Y145.096 E126.7786
G1 X103.422 Y145.956 E127.0076
G1 X102.831 Y146.242 E127.09495
G1 X101.195 Y146.89 E127.32905
G1 X100.579 Y147.084 E127.41497
G1 X98.826 Y147.501 E127.6547
G1 X98.209 Y147.603 E127.7379
G1 X96.404 Y147.774 E127.97911
G1 X96.061 Y147.793 E128.02482
G1 X87.984 Y147.938 E129.09956
G1 X78.448 Y148 E130.36826
G1 X71.454 Y147.88 E131.29888
G1 X71.33 Y147.876 E131.31539
G1 X64.914 Y147.587 E132.16984
G1 X64.766 Y147.578 E132.18957
G1 X58.283 Y147.072 E133.05469
G1 X57.925 Y147.03 E133.10265
G1 X56.338 Y146.777 E133.31645
G1 X55.729 Y146.636 E133.39962
G1 X54.135 Y146.148 E133.6214
G1 X53.501 Y145.9 E133.71197
G1 X52.021 Y145.188 E133.93047
G1 X51.44 Y144.853 E134.01969
G1 X50.206 Y144.013 E134.21829
G1 X49.708 Y143.62 E134.30269
G1 X48.588 Y142.6 E134.50423
G1 X48.165 Y142.158 E134.58562
G1 X47.159 Y140.954 E134.79436
G1 X46.819 Y140.491 E134.87078
G1 X45.925 Y139.091 E135.09178
G1 X45.661 Y138.615 E135.16419
G1 X44.893 Y137.014 E135.40043
G1 X44.707 Y136.566 E135.46496
G1 X44.063 Y134.742 E135.72231
G1 X43.939 Y134.329 E135.77968
G1 X43.456 Y132.385 E136.04617
G1 X43.35 Y131.795 E136.12592
G1 X43.327 Y131.491 E136.16648
G1 X41.608 Y91.054 E141.5511
G1 X41.605 Y90.768 E141.58915
G1 X41.626 Y89.774 E141.72143
G1 X41.684 Y89.143 E141.80573
G1 X41.901 Y87.815 E141.98475
G1 X42.063 Y87.148 E142.07607
G1 X42.488 Y85.843 E142.25866
G1 X42.738 Y85.232 E142.34649
G1 X43.401 Y83.899 E142.54456
G1 X43.703 Y83.381 E142.62433
G1 X44.608 Y82.044 E142.83912
G1 X44.949 Y81.602 E142.91339
G1 X46.096 Y80.292 E143.14504
G1 X46.467 Y79.915 E143.21541
G1 X47.935 Y78.59 E143.4785
G1 X48.351 Y78.257 E143.54939
G1 X50.121 Y77.005 E143.83783
G0 F6000 X50.699 Y77.822
G1 F1200 X51.033 Y77.612 E143.89032
G1 X52.8 Y76.64 E144.15862
G1 X53.161 Y76.468 E144.21182
G1 X54.942 Y75.739 E144.46785
G1 X55.077 Y75.687 E144.4871
G1 X55.815 Y75.42 E144.59151
G1 X56.047 Y75.345 E144.62395
G1 X58.16 Y74.743 E144.91625
G1 X58.424 Y74.679 E144.95239
G1 X61.244 Y74.108 E145.33518
G1 X61.466 Y74.07 E145.36514
G1 X65.05 Y73.581 E145.84638
G1 X65.225 Y73.562 E145.86979
G1 X69.149 Y73.227 E146.39374
G1 X69.311 Y73.217 E146.41534
G1 X74.819 Y73.003 E147.14868
G1 X74.976 Y73 E147.16957
G1 X80.672 Y73.034 E147.92738
G1 X80.818 Y73.038 E147.94681
