;FLAVOR:Marlin
;TIME:174
;Filament used: 0.499885m
;Layer height: 0.32
;MINX:64.036
;MINY:65.512
;MINZ:0.32
;MAXX:155.964
;MAXY:154.488
;MAXZ:1.92
;Generated with Cura_SteamEngine 4.12.1
M140 S60
M105
M190 S60
M104 S200
M105
M109 S200
M82 ;absolute extrusion mode
; Ender 3 Custom Start G-code
G92 E0 ; Reset Extruder
G28 ; Home all axes
G29 ; bed level adjust
G1 Z2.0 F3000 ; Move Z Axis up little to prevent scratching of Heat Bed
G1 X0.1 Y20 Z0.3 F5000.0 ; Move to start position
G1 X0.1 Y200.0 Z0.3 F1500.0 E15 ; Draw the first line
G1 X0.4 Y200.0 Z0.3 F5000.0 ; Move to side a little
G1 X0.4 Y20 Z0.3 F1500.0 E30 ; Draw the second line
G92 E0 ; Reset Extruder
G1 Z2.0 F3000 ; Move Z Axis up little to prevent scratching of Heat Bed
G1 X5 Y20 Z0.3 F5000.0 ; Move over to prevent blob squish
G92 E0
G92 E0
G1 F1500 E-6.5
;LAYER_COUNT:6
;LAYER:0
M107
G0 F6000 X71.054 Y72.857 Z0.32
;TYPE:SKIRT
G1 F1500 E0
G1 F1200 X72.066 Y71.871 E0.18798
G1 X72.43 Y71.56 E0.25167
G1 X72.838 Y71.224 E0.32199
G1 X73.323 Y70.831 E0.40504
G1 X74.087 Y70.231 E0.53428
G1 X75.298 Y69.393 E0.7302
G1 X75.6 Y69.212 E0.77705
G1 X75.966 Y68.997 E0.83352
G1 X76.785 Y68.531 E0.95888
G1 X77.371 Y68.206 E1.04803
G1 X78.645 Y67.591 E1.23624
G1 X79.11 Y67.402 E1.30302
G1 X79.616 Y67.208 E1.37512
G1 X80.377 Y66.926 E1.48309
G1 X81.058 Y66.682 E1.57933
G1 X82.494 Y66.262 E1.77838
G1 X82.883 Y66.175 E1.83141
G1 X83.403 Y66.068 E1.90204
G1 X84.208 Y65.911 E2.01115
G1 X84.898 Y65.784 E2.10449
G1 X86.287 Y65.608 E2.29077
G1 X86.501 Y65.593 E2.31931
G1 X86.845 Y65.573 E2.36515
G1 X87.251 Y65.557 E2.41921
G1 X88.222 Y65.526 E2.54845
G1 X88.863 Y65.514 E2.63375
G1 X89.183 Y65.512 E2.67632
G1 X89.643 Y65.52 E2.73753
G1 X90.321 Y65.546 E2.8278
G1 X136.921 Y67.768 E9.03453
G1 X137.562 Y67.808 E9.11997
G1 X138.252 Y67.871 E9.21215
G1 X138.869 Y67.944 E9.29481
G1 X139.229 Y67.991 E9.34311
G1 X139.797 Y68.075 E9.4195
G1 X140.779 Y68.261 E9.55247
G1 X141.503 Y68.451 E9.65205
G1 X142.083 Y68.622 E9.7325
G1 X142.468 Y68.743 E9.78619
G1 X143.013 Y68.923 E9.86255
G1 X144.242 Y69.402 E10.03804
G1 X144.675 Y69.605 E10.10166
G1 X145.119 Y69.823 E10.16747
G1 X145.436 Y69.984 E10.21477
G1 X145.977 Y70.269 E10.29612
G1 X146.842 Y70.77 E10.42911
G1 X147.486 Y71.206 E10.53258
G1 X147.969 Y71.556 E10.61193
G1 X148.246 Y71.763 E10.65794
G1 X148.711 Y72.12 E10.73593
G1 X149.479 Y72.76 E10.86893
G1 X150.005 Y73.264 E10.96585
G1 X150.393 Y73.658 E11.03942
G1 X150.653 Y73.93 E11.08948
G1 X151.074 Y74.384 E11.17185
G1 X151.724 Y75.143 E11.3048
G1 X152.184 Y75.766 E11.40783
G1 X152.531 Y76.267 E11.48891
G1 X152.725 Y76.556 E11.53522
G1 X153.04 Y77.039 E11.61193
G1 X153.345 Y77.53 E11.68883
G1 X153.913 Y78.608 E11.85094
G1 X154.147 Y79.11 E11.92463
G1 X154.284 Y79.415 E11.96911
G1 X154.524 Y79.968 E12.04931
G1 X154.885 Y80.9 E12.18228
G1 X155.109 Y81.628 E12.28362
G1 X155.262 Y82.184 E12.36034
G1 X155.356 Y82.546 E12.41009
G1 X155.499 Y83.134 E12.4906
G1 X155.696 Y84.114 E12.62359
G1 X155.788 Y84.815 E12.71765
G1 X155.845 Y85.372 E12.79214
G1 X155.88 Y85.776 E12.84609
G1 X155.925 Y86.422 E12.93224
G1 X155.954 Y87.117 E13.02479
G1 X155.964 Y87.939 E13.13415
G1 X155.963 Y132.203 E19.02306
G1 X155.953 Y132.91 E19.11713
G1 X155.924 Y133.597 E19.20861
G1 X155.884 Y134.174 E19.28556
G1 X155.853 Y134.546 E19.33522
G1 X155.793 Y135.15 E19.41597
G1 X155.654 Y136.14 E19.54898
G1 X155.496 Y136.885 E19.6503
G1 X155.358 Y137.449 E19.72754
G1 X155.266 Y137.802 E19.77608
G1 X155.106 Y138.382 E19.85612
G1 X154.802 Y139.335 E19.9892
G1 X154.529 Y140.019 E20.08718
G1 X154.302 Y140.544 E20.16328
G1 X154.153 Y140.877 E20.21181
G1 X153.901 Y141.416 E20.29097
G1 X153.441 Y142.304 E20.42402
G1 X153.062 Y142.928 E20.52115
G1 X152.742 Y143.421 E20.59935
G1 X152.521 Y143.75 E20.65208
G1 X152.179 Y144.242 E20.73179
G1 X151.576 Y145.039 E20.86476
G1 X151.096 Y145.59 E20.96198
G1 X150.671 Y146.05 E21.0453
G1 X150.394 Y146.34 E21.09865
G1 X149.994 Y146.746 E21.17448
G1 X149.265 Y147.429 E21.30738
G1 X148.696 Y147.892 E21.40497
G1 X148.25 Y148.234 E21.47975
G1 X147.957 Y148.452 E21.52833
G1 X147.458 Y148.812 E21.61019
G1 X146.625 Y149.364 E21.74314
G1 X145.973 Y149.733 E21.84281
G1 X145.474 Y149.996 E21.91786
G1 X145.131 Y150.17 E21.96902
G1 X144.574 Y150.442 E22.05149
G1 X143.379 Y150.951 E22.2243
G1 X142.906 Y151.115 E22.2909
G1 X142.436 Y151.268 E22.35666
G1 X142.131 Y151.363 E22.39916
G1 X141.536 Y151.54 E22.48175
G1 X140.567 Y151.787 E22.61478
G1 X139.779 Y151.928 E22.72129
G1 X139.211 Y152.011 E22.79765
G1 X138.86 Y152.057 E22.84475
G1 X138.212 Y152.133 E22.93155
G1 X137.526 Y152.194 E23.02318
G1 X136.735 Y152.242 E23.12861
G1 X90.408 Y154.45 E29.29897
G1 X89.535 Y154.48 E29.41519
G1 X89.197 Y154.487 E29.46016
G1 X89.034 Y154.488 E29.48185
G1 X88.703 Y154.485 E29.52589
G1 X88.145 Y154.473 E29.60014
G1 X87.296 Y154.443 E29.71316
G1 X86.589 Y154.41 E29.80732
G1 X85.256 Y154.276 E29.98556
G1 X85.069 Y154.247 E30.01074
G1 X84.677 Y154.18 E30.06365
G1 X84.242 Y154.098 E30.12254
G1 X83.52 Y153.955 E30.22046
G1 X82.659 Y153.772 E30.33757
G1 X81.355 Y153.419 E30.51729
G1 X81.167 Y153.357 E30.54363
G1 X80.825 Y153.239 E30.59176
G1 X80.39 Y153.081 E30.65334
G1 X79.752 Y152.843 E30.74393
G1 X78.914 Y152.517 E30.86356
G1 X77.699 Y151.968 E31.04094
G1 X77.535 Y151.883 E31.06551
G1 X77.189 Y151.697 E31.11777
G1 X76.822 Y151.491 E31.17376
G1 X75.981 Y151.01 E31.30266
G1 X75.387 Y150.658 E31.39452
G1 X74.184 Y149.847 E31.58754
G1 X74.037 Y149.735 E31.61212
G1 X73.467 Y149.284 E31.70882
G1 X72.825 Y148.763 E31.81882
G1 X72.261 Y148.293 E31.9165
G1 X71.277 Y147.379 E32.09517
G1 X71.16 Y147.258 E32.11756
G1 X70.908 Y146.99 E32.1665
G1 X70.5 Y146.54 E32.24732
G1 X70.013 Y145.991 E32.34495
G1 X69.525 Y145.428 E32.44407
G1 X68.63 Y144.263 E32.63952
G1 X68.4 Y143.921 E32.69436
G1 X68.123 Y143.496 E32.76185
G1 X67.667 Y142.777 E32.87512
G1 X67.288 Y142.162 E32.97123
G1 X66.615 Y140.916 E33.15963
G1 X66.538 Y140.752 E33.18374
G1 X66.406 Y140.461 E33.22625
G1 X66.189 Y139.966 E33.29815
G1 X65.887 Y139.256 E33.4008
G1 X65.604 Y138.569 E33.49965
G1 X65.118 Y137.154 E33.6987
G1 X65.013 Y136.767 E33.75205
G1 X64.9 Y136.325 E33.81274
G1 X64.675 Y135.411 E33.93797
G1 X64.528 Y134.779 E34.0243
G1 X64.285 Y133.377 E34.2136
G1 X64.234 Y132.904 E34.27689
G1 X64.191 Y132.427 E34.34061
G1 X64.118 Y131.518 E34.46193
G1 X64.073 Y130.84 E34.55233
G1 X64.052 Y130.409 E34.60974
G1 X64.043 Y130.052 E34.65725
G1 X64.036 Y129.435 E34.73934
G1 X64.037 Y90.518 E39.91688
G1 X64.047 Y89.812 E40.01082
G1 X64.059 Y89.405 E40.06499
G1 X64.08 Y89.027 E40.11536
G1 X64.127 Y88.36 E40.20432
G1 X64.191 Y87.598 E40.30605
G1 X64.259 Y86.879 E40.40213
G1 X64.446 Y85.605 E40.57344
G1 X64.484 Y85.415 E40.59922
G1 X64.603 Y84.881 E40.67201
G1 X64.858 Y83.844 E40.81408
G1 X65.078 Y83.002 E40.92986
G1 X65.459 Y81.802 E41.09736
G1 X65.517 Y81.647 E41.11938
G1 X65.691 Y81.206 E41.18245
G1 X65.906 Y80.695 E41.25621
G1 X66.228 Y79.946 E41.36467
G1 X66.522 Y79.288 E41.46056
G1 X67.186 Y78.007 E41.65252
G1 X67.422 Y77.614 E41.7135
G1 X67.667 Y77.22 E41.77523
G1 X68.125 Y76.502 E41.88853
G1 X68.519 Y75.902 E41.98403
G1 X69.33 Y74.804 E42.16563
G1 X69.458 Y74.649 E42.19238
G1 X69.669 Y74.4 E42.2358
G1 X69.973 Y74.052 E42.29727
G1 X70.558 Y73.398 E42.41401
G1 X71.054 Y72.857 E42.51166
G0 F6000 X71.791 Y73.532
G1 F1200 X72.722 Y72.626 E42.68449
G1 X72.837 Y72.526 E42.70476
G1 X73.067 Y72.332 E42.74479
G1 X73.468 Y72.001 E42.81397
G1 X74.105 Y71.487 E42.92287
G1 X74.703 Y71.019 E43.02389
G1 X75.818 Y70.248 E43.20424
G1 X76.107 Y70.073 E43.24919
G1 X76.462 Y69.866 E43.30386
G1 X77.27 Y69.405 E43.42762
G1 X77.856 Y69.08 E43.51677
G1 X79.028 Y68.514 E43.68993
G1 X79.204 Y68.441 E43.71528
G1 X79.47 Y68.335 E43.75337
G1 X79.965 Y68.145 E43.82391
G1 X80.714 Y67.867 E43.9302
G1 X81.395 Y67.623 E44.02644
G1 X82.717 Y67.237 E44.20967
G1 X83.088 Y67.154 E44.26024
G1 X83.595 Y67.049 E44.32913
G1 X84.389 Y66.894 E44.43676
G1 X85.079 Y66.767 E44.5301
G1 X86.357 Y66.605 E44.70148
G1 X86.571 Y66.59 E44.73002
G1 X86.888 Y66.572 E44.77226
G1 X87.284 Y66.556 E44.82499
G1 X88.241 Y66.526 E44.95237
G1 X88.882 Y66.514 E45.03767
G1 X89.183 Y66.512 E45.07771
G1 X89.606 Y66.52 E45.134
G1 X90.273 Y66.545 E45.2228
G1 X136.858 Y68.766 E51.42753
G1 X137.499 Y68.806 E51.51298
G1 X138.134 Y68.864 E51.59781
G1 X138.751 Y68.937 E51.68047
G1 X139.082 Y68.981 E51.72489
G1 X139.65 Y69.065 E51.80128
G1 X140.592 Y69.244 E51.92885
G1 X141.22 Y69.41 E52.01527
G1 X141.8 Y69.581 E52.09571
G1 X142.155 Y69.692 E52.1452
G1 X142.7 Y69.872 E52.22156
G1 X143.83 Y70.313 E52.38294
G1 X144.234 Y70.502 E52.44228
G1 X144.678 Y70.72 E52.50808
G1 X144.97 Y70.868 E52.55164
G1 X145.511 Y71.153 E52.63299
G1 X146.34 Y71.635 E52.76056
G1 X146.899 Y72.016 E52.85057
G1 X147.382 Y72.366 E52.92992
G1 X147.637 Y72.556 E52.97223
G1 X148.102 Y72.913 E53.05022
G1 X148.838 Y73.528 E53.17782
G1 X149.293 Y73.966 E53.26185
G1 X149.681 Y74.36 E53.33542
G1 X149.919 Y74.61 E53.38134
G1 X150.34 Y75.064 E53.46371
G1 X150.963 Y75.793 E53.59129
G1 X151.362 Y76.335 E53.68083
G1 X151.709 Y76.836 E53.76191
G1 X151.888 Y77.102 E53.80456
G1 X152.203 Y77.585 E53.88128
G1 X152.484 Y78.039 E53.95231
G1 X153.006 Y79.03 E54.10133
G1 X153.24 Y79.532 E54.17501
G1 X153.366 Y79.813 E54.21599
G1 X153.606 Y80.366 E54.29619
G1 X153.951 Y81.26 E54.42367
G1 X154.145 Y81.893 E54.51176
G1 X154.298 Y82.449 E54.58848
G1 X154.384 Y82.782 E54.63423
G1 X154.527 Y83.37 E54.71474
G1 X154.715 Y84.311 E54.8424
G1 X154.793 Y84.917 E54.92369
G1 X154.85 Y85.474 E54.99818
G1 X154.882 Y85.846 E55.04786
G1 X154.927 Y86.492 E55.13401
G1 X154.954 Y87.131 E55.2191
G1 X154.964 Y87.939 E55.3266
G1 X154.963 Y132.189 E61.21365
G1 X154.953 Y132.896 E61.30772
G1 X154.926 Y133.528 E61.39187
G1 X154.886 Y134.105 E61.46882
G1 X154.858 Y134.447 E61.51448
G1 X154.798 Y135.051 E61.59523
G1 X154.663 Y136 E61.72275
G1 X154.524 Y136.647 E61.81079
G1 X154.386 Y137.211 E61.88804
G1 X154.302 Y137.536 E61.9327
G1 X154.142 Y138.116 E62.01275
G1 X153.849 Y139.029 E62.14032
G1 X153.612 Y139.622 E62.22528
G1 X153.385 Y140.147 E62.30137
G1 X153.247 Y140.454 E62.34615
G1 X152.995 Y140.993 E62.42531
G1 X152.553 Y141.844 E62.55289
G1 X152.223 Y142.383 E62.63697
G1 X151.903 Y142.876 E62.71516
G1 X151.7 Y143.179 E62.76369
G1 X151.358 Y143.671 E62.8434
G1 X150.778 Y144.435 E62.97102
G1 X150.362 Y144.911 E63.05512
G1 X149.937 Y145.371 E63.13844
G1 X149.682 Y145.638 E63.18756
G1 X149.282 Y146.044 E63.26339
G1 X148.581 Y146.698 E63.39093
G1 X148.088 Y147.099 E63.47548
G1 X147.642 Y147.441 E63.55025
G1 X147.372 Y147.641 E63.59496
G1 X146.873 Y148.001 E63.67682
G1 X146.073 Y148.529 E63.80434
G1 X145.507 Y148.848 E63.89078
G1 X145.008 Y149.111 E63.96582
G1 X144.692 Y149.272 E64.013
G1 X144.135 Y149.544 E64.09547
G1 X143.036 Y150.012 E64.25439
G1 X142.597 Y150.164 E64.31619
G1 X142.127 Y150.317 E64.38195
G1 X141.846 Y150.405 E64.42113
G1 X141.251 Y150.582 E64.50371
G1 X140.321 Y150.816 E64.6313
G1 X139.635 Y150.938 E64.724
G1 X139.067 Y151.021 E64.80037
G1 X138.744 Y151.064 E64.84372
G1 X138.096 Y151.14 E64.93052
G1 X137.464 Y151.196 E65.01493
G1 X136.687 Y151.243 E65.11849
G1 X90.194 Y153.458 E71.31096
G1 X89.501 Y153.481 E71.40321
G1 X89.028 Y153.488 E71.46614
G1 X88.723 Y153.486 E71.50672
G1 X88.178 Y153.474 E71.57925
G1 X87.493 Y153.451 E71.67043
G1 X86.636 Y153.411 E71.78457
G1 X85.41 Y153.288 E71.9485
G1 X85.223 Y153.259 E71.97367
G1 X84.861 Y153.197 E72.02253
G1 X84.437 Y153.117 E72.07994
G1 X83.547 Y152.939 E72.20069
G1 X82.868 Y152.794 E72.29306
G1 X81.668 Y152.469 E72.45846
G1 X81.48 Y152.407 E72.4848
G1 X81.165 Y152.299 E72.5291
G1 X80.74 Y152.144 E72.58929
G1 X79.947 Y151.847 E72.70194
G1 X79.277 Y151.586 E72.79761
G1 X78.159 Y151.08 E72.96087
G1 X77.995 Y150.995 E72.98544
G1 X77.677 Y150.824 E73.03348
G1 X77.318 Y150.622 E73.08828
G1 X76.491 Y150.149 E73.21503
G1 X75.897 Y149.797 E73.30689
G1 X74.791 Y149.051 E73.48438
G1 X74.456 Y148.794 E73.54055
G1 X74.096 Y148.507 E73.6018
G1 X73.465 Y147.995 E73.70991
G1 X72.901 Y147.525 E73.80758
G1 X71.996 Y146.684 E73.97195
G1 X71.879 Y146.563 E73.99434
G1 X71.647 Y146.316 E74.03942
G1 X71.247 Y145.876 E74.11854
G1 X70.769 Y145.336 E74.21448
G1 X70.281 Y144.773 E74.3136
G1 X69.457 Y143.701 E74.49349
G1 X69.236 Y143.373 E74.54611
G1 X68.967 Y142.96 E74.61168
G1 X68.604 Y142.389 E74.7017
G1 X68.14 Y141.637 E74.81925
G1 X67.52 Y140.491 E74.9926
G1 X67.443 Y140.327 E75.0167
G1 X67.322 Y140.06 E75.0557
G1 X67.109 Y139.573 E75.12642
G1 X66.812 Y138.875 E75.22734
G1 X66.529 Y138.188 E75.32619
G1 X66.082 Y136.886 E75.50933
G1 X65.981 Y136.517 E75.56023
G1 X65.871 Y136.086 E75.61941
G1 X65.649 Y135.184 E75.74299
G1 X65.502 Y134.552 E75.82932
G1 X65.279 Y133.263 E76.00336
G1 X65.23 Y132.813 E76.06358
G1 X65.187 Y132.346 E76.12597
G1 X65.116 Y131.452 E76.24528
G1 X65.071 Y130.774 E76.33568
G1 X65.052 Y130.377 E76.38856
G1 X65.043 Y130.039 E76.43354
G1 X65.036 Y129.435 E76.51391
G1 X65.037 Y90.532 E81.68958
G1 X65.047 Y89.826 E81.78352
G1 X65.058 Y89.443 E81.83449
G1 X65.077 Y89.095 E81.88086
G1 X65.123 Y88.442 E81.96795
G1 X65.186 Y87.692 E82.06808
G1 X65.254 Y86.973 E82.16417
G1 X65.426 Y85.801 E82.32176
G1 X65.464 Y85.611 E82.34754
G1 X65.574 Y85.12 E82.41448
G1 X65.875 Y83.902 E82.5814
G1 X66.045 Y83.256 E82.67027
G1 X66.395 Y82.153 E82.82422
G1 X66.453 Y81.998 E82.84624
G1 X66.614 Y81.592 E82.90435
G1 X66.825 Y81.089 E82.97692
G1 X67.141 Y80.354 E83.08336
G1 X67.435 Y79.696 E83.17924
G1 X68.046 Y78.517 E83.3559
G1 X68.272 Y78.141 E83.41427
G1 X68.51 Y77.757 E83.47437
G1 X68.961 Y77.051 E83.58583
G1 X69.355 Y76.451 E83.68132
G1 X70.101 Y75.44 E83.84848
G1 X70.229 Y75.285 E83.87523
G1 X70.423 Y75.056 E83.91515
G1 X70.719 Y74.718 E83.97493
G1 X71.295 Y74.073 E84.08998
G1 X71.791 Y73.532 E84.18762
G0 F6000 X72.528 Y74.208
G1 F1200 X73.378 Y73.381 E84.3454
G1 X73.703 Y73.103 E84.4023
G1 X74.098 Y72.778 E84.47035
G1 X74.722 Y72.274 E84.57706
G1 X75.32 Y71.806 E84.67809
G1 X76.337 Y71.103 E84.84257
G1 X76.615 Y70.935 E84.88579
G1 X76.958 Y70.734 E84.93868
G1 X77.755 Y70.28 E85.06071
G1 X78.341 Y69.955 E85.14986
G1 X79.411 Y69.438 E85.30795
G1 X79.587 Y69.365 E85.3333
G1 X79.83 Y69.268 E85.36811
G1 X80.314 Y69.082 E85.4371
G1 X81.051 Y68.808 E85.5417
G1 X81.732 Y68.564 E85.63794
G1 X82.939 Y68.212 E85.80521
G1 X83.293 Y68.133 E85.85347
G1 X83.788 Y68.03 E85.92073
G1 X84.57 Y67.877 E86.02674
G1 X85.26 Y67.75 E86.12008
G1 X86.427 Y67.603 E86.27657
G1 X86.93 Y67.571 E86.34362
G1 X87.316 Y67.556 E86.39502
G1 X88.259 Y67.526 E86.52054
G1 X89.097 Y67.512 E86.63204
G1 X89.569 Y67.519 E86.69484
G1 X90.226 Y67.544 E86.78231
G1 X136.796 Y69.764 E92.98505
G1 X137.437 Y69.804 E93.07049
G1 X138.017 Y69.857 E93.14798
G1 X138.634 Y69.93 E93.23064
G1 X138.936 Y69.97 E93.27117
G1 X139.504 Y70.054 E93.34755
G1 X140.404 Y70.227 E93.46948
G1 X140.937 Y70.37 E93.5429
G1 X141.517 Y70.541 E93.62335
G1 X141.841 Y70.642 E93.6685
G1 X142.386 Y70.822 E93.74486
G1 X143.418 Y71.224 E93.89221
G1 X143.794 Y71.4 E93.94744
G1 X144.238 Y71.618 E94.01324
G1 X144.504 Y71.753 E94.05293
G1 X145.045 Y72.038 E94.13428
G1 X145.836 Y72.5 E94.25615
G1 X146.312 Y72.826 E94.33291
G1 X146.795 Y73.176 E94.41226
G1 X147.028 Y73.349 E94.45087
G1 X147.493 Y73.706 E94.52886
G1 X148.195 Y74.296 E94.65086
G1 X148.58 Y74.668 E94.72209
G1 X148.968 Y75.062 E94.79566
G1 X149.186 Y75.289 E94.83753
G1 X149.607 Y75.743 E94.9199
G1 X150.2 Y76.442 E95.04185
G1 X150.54 Y76.905 E95.11827
G1 X150.887 Y77.406 E95.19935
G1 X151.05 Y77.648 E95.23817
G1 X151.365 Y78.131 E95.31489
G1 X151.623 Y78.547 E95.38001
G1 X152.1 Y79.453 E95.51623
G1 X152.334 Y79.955 E95.58992
G1 X152.449 Y80.211 E95.62726
G1 X152.689 Y80.764 E95.70746
G1 X153.017 Y81.619 E95.82929
G1 X153.181 Y82.158 E95.90424
G1 X153.334 Y82.714 E95.98096
G1 X153.413 Y83.019 E96.02288
G1 X153.556 Y83.607 E96.10339
G1 X153.733 Y84.506 E96.22529
G1 X153.798 Y85.019 E96.29408
G1 X153.855 Y85.576 E96.36857
G1 X153.885 Y85.915 E96.41385
G1 X153.93 Y86.561 E96.5
G1 X153.954 Y87.145 E96.57777
G1 X153.964 Y87.939 E96.68341
G1 X153.963 Y132.174 E102.56846
G1 X153.953 Y132.881 E102.66253
