;FLAVOR:Marlin
;TIME:219
;Filament used: 0.628674m
;Layer height: 0.32
;MINX:63.5
;MINY:54
;MINZ:0.32
;MAXX:156.5
;MAXY:166
;MAXZ:1.92
;Generated with Cura_SteamEngine 4.12.1
M140 S60
M105
M190 S60
M104 S200
M105
M109 S200
M82 ;absolute extrusion mode
; Ender 3 Custom Start G-code
G92 E0 ; Reset Extruder
G28 ; Home all axes
G29 ; bed level adjust
G1 Z2.0 F3000 ; Move Z Axis up little to prevent scratching of Heat Bed
G1 X0.1 Y20 Z0.3 F5000.0 ; Move to start position
G1 X0.1 Y200.0 Z0.3 F1500.0 E15 ; Draw the first line
G1 X0.4 Y200.0 Z0.3 F5000.0 ; Move to side a little
G1 X0.4 Y20 Z0.3 F1500.0 E30 ; Draw the second line
G92 E0 ; Reset Extruder
G1 Z2.0 F3000 ; Move Z Axis up little to prevent scratching of Heat Bed
G1 X5 Y20 Z0.3 F5000.0 ; Move over to prevent blob squish
G92 E0
G92 E0
G1 F1500 E-6.5
;LAYER_COUNT:6
;LAYER:0
M107
G0 F6000 X66.724 Y58.14 Z0.32
;TYPE:SKIRT
G1 F1500 E0
G1 F1200 X67.423 Y57.425 E0.13303
G1 X68.176 Y56.767 E0.26607
G1 X68.98 Y56.173 E0.39906
G1 X69.828 Y55.644 E0.53203
G1 X70.717 Y55.185 E0.66514
G1 X71.639 Y54.798 E0.79817
G1 X72.588 Y54.486 E0.93107
G1 X73.56 Y54.251 E1.06411
G1 X74.548 Y54.095 E1.19718
G1 X75.659 Y54.014 E1.34538
G1 X75.98 Y54.005 E1.38811
G1 X76.33 Y54 E1.43468
G1 X143.293 Y54 E10.34347
G1 X144.17 Y54.011 E10.46016
G1 X145.168 Y54.066 E10.59313
G1 X146.159 Y54.199 E10.72616
G1 X147.136 Y54.412 E10.85919
G1 X148.093 Y54.702 E10.99223
G1 X149.023 Y55.068 E11.12519
G1 X149.922 Y55.507 E11.25829
G1 X150.782 Y56.016 E11.39125
G1 X151.599 Y56.592 E11.52424
G1 X152.368 Y57.232 E11.65734
G1 X153.082 Y57.931 E11.79028
G1 X153.739 Y58.685 E11.92333
G1 X154.333 Y59.489 E12.05632
G1 X154.861 Y60.338 E12.18933
G1 X155.32 Y61.227 E12.32244
G1 X155.706 Y62.149 E12.45542
G1 X156.017 Y63.099 E12.58841
G1 X156.251 Y64.071 E12.72142
G1 X156.406 Y65.059 E12.85447
G1 X156.486 Y66.159 E13.0012
G1 X156.495 Y66.479 E13.04379
G1 X156.5 Y66.83 E13.09049
G1 X156.499 Y131.936 E21.75223
G1 X156.489 Y132.664 E21.84909
G1 X156.435 Y133.662 E21.98206
G1 X156.302 Y134.653 E22.11509
G1 X156.09 Y135.63 E22.24809
G1 X155.8 Y136.587 E22.38113
G1 X155.435 Y137.518 E22.51417
G1 X154.997 Y138.416 E22.64709
G1 X154.488 Y139.277 E22.78016
G1 X153.912 Y140.094 E22.91315
G1 X153.273 Y140.863 E23.04617
G1 X152.574 Y141.578 E23.1792
G1 X151.821 Y142.235 E23.31215
G1 X151.017 Y142.83 E23.44522
G1 X150.168 Y143.358 E23.57823
G1 X149.28 Y143.817 E23.71122
G1 X148.183 Y144.268 E23.86902
G1 X147.655 Y144.456 E23.94359
G1 X146.087 Y144.987 E24.16383
G1 X143.789 Y145.837 E24.4898
G1 X141.464 Y146.772 E24.8232
G1 X139.21 Y147.754 E25.15029
G1 X136.978 Y148.802 E25.47834
G1 X134.758 Y149.922 E25.80915
G1 X132.578 Y151.1 E26.13882
G1 X130.457 Y152.325 E26.46468
G1 X128.311 Y153.647 E26.80001
G1 X126.263 Y154.989 E27.12576
G1 X124.238 Y156.401 E27.45419
G1 X122.253 Y157.869 E27.78265
G1 X120.281 Y159.417 E28.11619
G1 X118.392 Y160.987 E28.44297
G1 X116.199 Y162.917 E28.83162
G1 X115.419 Y163.543 E28.96468
G1 X114.592 Y164.105 E29.09771
G1 X113.723 Y164.598 E29.23063
G1 X112.817 Y165.021 E29.36365
G1 X111.88 Y165.37 E29.49668
G1 X110.918 Y165.643 E29.62972
G1 X109.937 Y165.838 E29.76278
G1 X108.944 Y165.954 E29.89579
G1 X108.342 Y165.986 E29.976
G1 X108.023 Y165.995 E30.01845
G1 X107.67 Y166 E30.06542
G1 X76.546 Y165.999 E34.20617
G1 X75.848 Y165.99 E34.29904
G1 X74.849 Y165.937 E34.43214
G1 X73.858 Y165.805 E34.56515
G1 X72.881 Y165.593 E34.69815
G1 X71.924 Y165.305 E34.83111
G1 X70.993 Y164.94 E34.96415
G1 X70.094 Y164.503 E35.09714
G1 X69.233 Y163.995 E35.23014
G1 X68.415 Y163.42 E35.36316
G1 X67.646 Y162.781 E35.49618
G1 X66.93 Y162.083 E35.62921
G1 X66.272 Y161.33 E35.76225
G1 X65.677 Y160.527 E35.89521
G1 X65.148 Y159.678 E36.0283
G1 X64.688 Y158.791 E36.16123
G1 X64.301 Y157.869 E36.29426
G1 X63.988 Y156.919 E36.42733
G1 X63.753 Y155.948 E36.56024
G1 X63.596 Y154.96 E36.69334
G1 X63.514 Y153.829 E36.8442
G1 X63.505 Y153.496 E36.88852
G1 X63.5 Y153.158 E36.93349
G1 X63.501 Y67.005 E48.39533
G1 X63.51 Y66.34 E48.48381
G1 X63.564 Y65.341 E48.61691
G1 X63.697 Y64.351 E48.74981
G1 X63.909 Y63.373 E48.88294
G1 X64.198 Y62.416 E49.01594
G1 X64.563 Y61.486 E49.14886
G1 X65.001 Y60.587 E49.2819
G1 X65.509 Y59.726 E49.4149
G1 X66.085 Y58.909 E49.54789
G1 X66.724 Y58.14 E49.68091
G0 F6000 X67.707 Y58.551
G1 F1200 X68.399 Y57.887 E49.8085
G1 X69.144 Y57.283 E49.9361
G1 X69.936 Y56.743 E50.06363
G1 X70.771 Y56.271 E50.19124
G1 X71.642 Y55.87 E50.31881
G1 X72.544 Y55.544 E50.44641
G1 X73.469 Y55.293 E50.57392
G1 X74.413 Y55.12 E50.7016
G1 X75.687 Y55.014 E50.87168
G1 X76.008 Y55.005 E50.9144
G1 X76.33 Y55 E50.95725
G1 X143.293 Y55 E59.86604
G1 X144.156 Y55.011 E59.98086
G1 X145.113 Y55.065 E60.10839
G1 X146.063 Y55.198 E60.23601
G1 X146.998 Y55.41 E60.36356
G1 X147.912 Y55.699 E60.49109
G1 X148.799 Y56.064 E60.6187
G1 X149.653 Y56.5 E60.74627
G1 X150.467 Y57.007 E60.87385
G1 X151.237 Y57.58 E61.00154
G1 X151.955 Y58.214 E61.12898
G1 X152.619 Y58.907 E61.25666
G1 X153.222 Y59.652 E61.38418
G1 X153.762 Y60.445 E61.51182
G1 X154.233 Y61.28 E61.63936
G1 X154.633 Y62.152 E61.76699
G1 X154.959 Y63.053 E61.89447
G1 X155.209 Y63.979 E62.02207
G1 X155.381 Y64.923 E62.14973
G1 X155.486 Y66.187 E62.31847
G1 X155.495 Y66.507 E62.36106
G1 X155.5 Y66.83 E62.40404
G1 X155.499 Y131.922 E71.06392
G1 X155.489 Y132.65 E71.16078
G1 X155.436 Y133.607 E71.28829
G1 X155.303 Y134.557 E71.41592
G1 X155.092 Y135.493 E71.54357
G1 X154.803 Y136.407 E71.6711
G1 X154.439 Y137.294 E71.79866
G1 X154.003 Y138.148 E71.92622
G1 X153.497 Y138.963 E72.05385
G1 X152.925 Y139.732 E72.18136
G1 X152.29 Y140.452 E72.30908
G1 X151.598 Y141.115 E72.43658
G1 X150.853 Y141.719 E72.56417
G1 X150.061 Y142.259 E72.6917
G1 X149.226 Y142.731 E72.81931
G1 X148.355 Y143.132 E72.94688
G1 X147.847 Y143.326 E73.01923
G1 X147.141 Y143.576 E73.11887
G1 X145.737 Y144.05 E73.31601
G1 X143.428 Y144.904 E73.64354
G1 X141.098 Y145.841 E73.97765
G1 X138.788 Y146.848 E74.31291
G1 X136.521 Y147.912 E74.64608
G1 X134.293 Y149.036 E74.97808
G1 X132.122 Y150.21 E75.30643
G1 X129.906 Y151.489 E75.64683
G1 X127.81 Y152.781 E75.97441
G1 X125.698 Y154.164 E76.31027
G1 X123.66 Y155.585 E76.64081
G1 X121.616 Y157.097 E76.97906
G1 X119.675 Y158.62 E77.30729
G1 X117.746 Y160.224 E77.64106
G1 X115.542 Y162.163 E78.03161
G1 X114.793 Y162.762 E78.1592
G1 X113.997 Y163.297 E78.2868
G1 X113.159 Y163.763 E78.41436
G1 X112.285 Y164.158 E78.54196
G1 X111.382 Y164.479 E78.66946
G1 X110.455 Y164.724 E78.79703
G1 X109.51 Y164.89 E78.92468
G1 X108.313 Y164.986 E79.08444
G1 X107.994 Y164.995 E79.12689
G1 X107.67 Y165 E79.17
G1 X76.559 Y164.999 E83.30903
G1 X75.861 Y164.99 E83.4019
G1 X74.903 Y164.938 E83.52954
G1 X73.953 Y164.806 E83.65714
G1 X73.018 Y164.595 E83.78466
G1 X72.103 Y164.307 E83.91228
G1 X71.215 Y163.944 E84.03991
G1 X70.361 Y163.509 E84.16742
G1 X69.546 Y163.003 E84.29504
G1 X68.776 Y162.432 E84.42258
G1 X68.056 Y161.798 E84.55021
G1 X67.392 Y161.107 E84.67771
G1 X66.787 Y160.362 E84.80539
G1 X66.247 Y159.57 E84.93292
G1 X65.775 Y158.736 E85.06041
G1 X65.373 Y157.865 E85.18804
G1 X65.046 Y156.963 E85.31568
G1 X64.795 Y156.038 E85.44319
G1 X64.621 Y155.095 E85.57077
G1 X64.513 Y153.802 E85.74339
G1 X64.504 Y153.469 E85.78771
G1 X64.5 Y153.158 E85.82909
G1 X64.501 Y67.018 E97.2892
G1 X64.51 Y66.353 E97.37768
G1 X64.563 Y65.396 E97.50519
G1 X64.696 Y64.446 E97.63281
G1 X64.907 Y63.511 E97.76034
G1 X65.195 Y62.596 E97.88796
G1 X65.559 Y61.709 E98.01551
G1 X65.995 Y60.855 E98.14308
G1 X66.501 Y60.04 E98.27071
G1 X67.073 Y59.27 E98.39832
G1 X67.707 Y58.551 E98.52585
G0 F6000 X68.059 Y59.65
G1 F1200 X68.687 Y58.983 E98.64773
G1 X69.371 Y58.373 E98.76966
G1 X70.106 Y57.825 E98.89164
G1 X70.886 Y57.344 E99.01355
G1 X71.704 Y56.932 E99.1354
G1 X72.555 Y56.593 E99.25727
G1 X73.433 Y56.33 E99.37921
G1 X74.33 Y56.144 E99.50109
G1 X75.24 Y56.037 E99.62299
G1 X75.715 Y56.013 E99.68626
G1 X76.036 Y56.004 E99.72899
G1 X76.33 Y56 E99.7681
G1 X143.293 Y56 E108.6769
G1 X144.141 Y56.011 E108.78972
G1 X145.056 Y56.064 E108.91166
G1 X145.963 Y56.197 E109.03362
G1 X146.854 Y56.408 E109.15544
G1 X147.724 Y56.696 E109.27736
G1 X148.566 Y57.059 E109.39935
G1 X149.372 Y57.494 E109.5212
G1 X150.138 Y57.997 E109.64311
G1 X150.857 Y58.566 E109.7651
G1 X151.523 Y59.194 E109.88688
G1 X152.132 Y59.879 E110.00882
G1 X152.679 Y60.614 E110.13072
G1 X153.16 Y61.394 E110.25263
G1 X153.571 Y62.213 E110.37454
G1 X153.91 Y63.064 E110.49641
G1 X154.172 Y63.942 E110.61831
G1 X154.357 Y64.84 E110.74029
G1 X154.463 Y65.75 E110.86218
G1 X154.487 Y66.215 E110.92412
G1 X154.496 Y66.535 E110.96671
G1 X154.5 Y66.83 E111.00596
G1 X154.499 Y131.908 E119.66398
G1 X154.489 Y132.636 E119.76084
G1 X154.436 Y133.551 E119.88278
G1 X154.304 Y134.458 E120.00471
G1 X154.094 Y135.349 E120.1265
G1 X153.806 Y136.219 E120.24842
G1 X153.444 Y137.061 E120.37036
G1 X153.009 Y137.868 E120.49233
G1 X152.506 Y138.634 E120.61424
G1 X151.938 Y139.353 E120.73615
G1 X151.31 Y140.02 E120.85803
G1 X150.626 Y140.629 E120.97987
G1 X149.891 Y141.177 E121.10184
G1 X149.112 Y141.658 E121.22364
G1 X148.293 Y142.07 E121.34562
G1 X147.512 Y142.384 E121.4576
G1 X146.984 Y142.572 E121.53217
G1 X145.429 Y143.098 E121.75056
G1 X143.055 Y143.976 E122.08731
G1 X140.715 Y144.917 E122.42285
G1 X138.383 Y145.933 E122.76127
G1 X136.078 Y147.015 E123.10003
G1 X133.857 Y148.136 E123.43102
G1 X131.608 Y149.352 E123.77116
G1 X129.395 Y150.629 E124.11108
G1 X127.257 Y151.946 E124.44516
G1 X125.156 Y153.323 E124.77936
G1 X123.064 Y154.782 E125.11869
G1 X121.015 Y156.298 E125.45779
G1 X119.034 Y157.852 E125.79275
G1 X117.096 Y159.464 E126.12812
G1 X114.885 Y161.409 E126.51989
G1 X114.169 Y161.98 E126.64173
G1 X113.405 Y162.486 E126.76365
G1 X112.6 Y162.924 E126.88557
G1 X111.76 Y163.29 E127.00747
G1 X110.891 Y163.582 E127.12944
G1 X110.001 Y163.796 E127.25122
G1 X109.095 Y163.933 E127.37312
G1 X108.285 Y163.987 E127.48112
G1 X107.966 Y163.996 E127.52358
G1 X107.67 Y164 E127.56296
G1 X76.572 Y163.999 E131.70026
G1 X75.874 Y163.99 E131.79313
G1 X74.959 Y163.938 E131.91506
G1 X74.052 Y163.807 E132.03698
G1 X73.16 Y163.597 E132.15889
G1 X72.29 Y163.31 E132.28077
G1 X71.448 Y162.949 E132.40266
G1 X70.641 Y162.515 E132.52456
G1 X69.874 Y162.013 E132.64652
G1 X69.155 Y161.445 E132.76842
G1 X68.487 Y160.817 E132.8904
G1 X67.877 Y160.134 E133.01223
G1 X67.329 Y159.4 E133.13409
G1 X66.847 Y158.62 E133.25608
G1 X66.435 Y157.802 E133.37793
G1 X66.095 Y156.951 E133.49985
G1 X65.832 Y156.073 E133.62179
G1 X65.645 Y155.176 E133.74369
G1 X65.538 Y154.266 E133.86559
G1 X65.513 Y153.775 E133.931
G1 X65.504 Y153.442 E133.97532
G1 X65.5 Y153.158 E134.01311
G1 X65.501 Y67.032 E145.47136
G1 X65.51 Y66.367 E145.55984
G1 X65.562 Y65.452 E145.68176
G1 X65.694 Y64.545 E145.8037
G1 X65.905 Y63.654 E145.92552
G1 X66.192 Y62.784 E146.0474
G1 X66.554 Y61.942 E146.16934
G1 X66.989 Y61.135 E146.2913
G1 X67.491 Y60.369 E146.41315
G1 X68.059 Y59.65 E146.53505
G1 F1500 E140.03505
;MESH:holder-Body.stl
G0 F6000 X75.335 Y67.27
G0 X76.77 Y67.27
G0 X77.222 Y152.278
G0 X106.778 Y152.278
G0 X106.85 Y152
G1 F1500 E146.53505
G0 F6000 X106.5 Y152
;TYPE:WALL-OUTER
G1 F1200 X106.5 Y131 E149.3289
G1 X142.5 Y131 E154.11836
G1 X142.5 Y68 E162.49992
G1 X77.5 Y68 E171.14755
G1 X77.5 Y152 E182.32296
G1 X106.5 Y152 E186.18113
G0 F6000 X106.85 Y152
G0 X107.18 Y152.68
G0 X107.5 Y153
G1 F1200 X76.5 Y153 E190.30539
G1 X76.5 Y67 E201.74688
G1 X143.5 Y67 E210.66059
G1 X143.5 Y132 E219.30823
G1 X107.5 Y132 E224.09769
G1 X107.5 Y153 E226.89154
;MESH:NONMESH
G0 F300 X107.5 Y153 Z0.64
G0 F6000 X107.18 Y152.68
G0 X106.85 Y152
G0 X106.5 Y152
;TIME_ELAPSED:93.270497
;LAYER:1
M106 S127.5
;TYPE:WALL-OUTER
;MESH:holder-Body.stl
G1 F1350 X106.5 Y131 E229.68539
G1 X142.5 Y131 E234.47485
G1 X142.5 Y68 E242.8564
G1 X77.5 Y68 E251.50404
G1 X77.5 Y152 E262.67944
G1 X106.5 Y152 E266.53762
G0 F7500 X106.85 Y152
G0 X107.18 Y152.68
G0 X107.5 Y153
G1 F1350 X76.5 Y153 E270.66188
G1 X76.5 Y67 E282.10336
G1 X143.5 Y67 E291.01708
G1 X143.5 Y132 E299.66471
G1 X107.5 Y132 E304.45417
G1 X107.5 Y153 E307.24802
;MESH:NONMESH
G0 F300 X107.5 Y153 Z0.96
G0 F7500 X107.18 Y152.68
G0 X106.85 Y152
G0 X106.5 Y152
;TIME_ELAPSED:120.694930
;LAYER:2
M106 S255
;TYPE:WALL-OUTER
;MESH:holder-Body.stl
G1 F1500 X106.5 Y131 E310.04188
G1 X142.5 Y131 E314.83133
G1 X142.5 Y68 E323.21289
G1 X77.5 Y68 E331.86052
G1 X77.5 Y152 E343.03593
G1 X106.5 Y152 E346.8941
G0 F9000 X106.85 Y152
G0 X107.18 Y152.68
G0 X107.5 Y153
G1 F1500 X76.5 Y153 E351.01836
G1 X76.5 Y67 E362.45985
G1 X143.5 Y67 E371.37356
G1 X143.5 Y132 E380.0212
G1 X107.5 Y132 E384.81066
G1 X107.5 Y153 E387.60451
;MESH:NONMESH
G0 F300 X107.5 Y153 Z1.28
G0 F9000 X107.18 Y152.68
G0 X106.85 Y152
G0 X106.5 Y152
;TIME_ELAPSED:145.490479
;LAYER:3
;TYPE:WALL-OUTER
;MESH:holder-Body.stl
G1 F1500 X106.5 Y131 E390.39836
G1 X142.5 Y131 E395.18782
G1 X142.5 Y68 E403.56937
G1 X77.5 Y68 E412.21701
G1 X77.5 Y152 E423.39242
G1 X106.5 Y152 E427.25059
G0 F9000 X106.85 Y152
G0 X107.18 Y152.68
G0 X107.5 Y153
G1 F1500 X76.5 Y153 E431.37485
G1 X76.5 Y67 E442.81633
G1 X143.5 Y67 E451.73005
G1 X143.5 Y132 E460.37769
G1 X107.5 Y132 E465.16714
G1 X107.5 Y153 E467.961
;MESH:NONMESH
G0 F300 X107.5 Y153 Z1.6
G0 F9000 X107.18 Y152.68
G0 X106.85 Y152
G0 X106.5 Y152
;TIME_ELAPSED:170.286029
;LAYER:4
;TYPE:WALL-OUTER
;MESH:holder-Body.stl
G1 F1500 X106.5 Y131 E470.75485
G1 X142.5 Y131 E475.54431
G1 X142.5 Y68 E483.92586
G1 X77.5 Y68 E492.5735
G1 X77.5 Y152 E503.7489
G1 X106.5 Y152 E507.60708
G0 F9000 X106.85 Y152
G0 X107.18 Y152.68
G0 X107.5 Y153
G1 F1500 X76.5 Y153 E511.73133
G1 X76.5 Y67 E523.17282
G1 X143.5 Y67 E532.08654
G1 X143.5 Y132 E540.73417
G1 X107.5 Y132 E545.52363
G1 X107.5 Y153 E548.31748
;MESH:NONMESH
G0 F300 X107.5 Y153 Z1.92
G0 F9000 X107.18 Y152.68
G0 X106.85 Y152
G0 X106.5 Y152
;TIME_ELAPSED:195.081579
;LAYER:5
;TYPE:WALL-OUTER
;MESH:holder-Body.stl
G1 F1500 X106.5 Y131 E551.11133
G1 X142.5 Y131 E555.90079
G1 X142.5 Y68 E564.28235
G1 X77.5 Y68 E572.92998
G1 X77.5 Y152 E584.10539
G1 X106.5 Y152 E587.96356
G0 F9000 X106.85 Y152
G0 X107.18 Y152.68
G0 X107.5 Y153
G1 F1500 X76.5 Y153 E592.08782
G1 X76.5 Y67 E603.52931
G1 X143.5 Y67 E612.44302
G1 X143.5 Y132 E621.09066
G1 X107.5 Y132 E625.88012
G1 X107.5 Y153 E628.67397
;TIME_ELAPSED:219.678354
G1 F1500 E622.17397
M140 S0
M107
G91 ;Relative positioning
G1 E-2 F2700 ;Retract a bit
G1 E-2 Z0.2 F2400 ;Retract and raise Z
G1 X5 Y5 F3000 ;Wipe out
G1 Z10 ;Raise Z more
G90 ;Absolute positioning

G1 X0 Y220 ;Present print
M106 S0 ;Turn-off fan
M104 S0 ;Turn-off hotend
M140 S0 ;Turn-off bed

M84 X Y E ;Disable all steppers but Z

M82 ;absolute extrusion mode
M104 S0
;End of Gcode
;SETTING_3 {"global_quality": "[general]\\nversion = 4\\nname = Draft Quality #2
;SETTING_3 \\ndefinition = creality_ender3pro\\n\\n[metadata]\\ntype = quality_c
;SETTING_3 hanges\\nquality_type = draft\\nsetting_version = 19\\n\\n[values]\\n
;SETTING_3 adhesion_type = skirt\\n\\n", "extruder_quality": ["[general]\\nversi
;SETTING_3 on = 4\\nname = Draft Quality #2\\ndefinition = creality_base\\n\\n[m
;SETTING_3 etadata]\\ntype = quality_changes\\nquality_type = draft\\nsetting_ve
;SETTING_3 rsion = 19\\nposition = 0\\n\\n[values]\\n\\n"]}
